; generated by Slic3r 1.2.9 on 2018-11-02 at 15:04:13

; external perimeters extrusion width = 0.40mm
; perimeters extrusion width = 0.40mm
; infill extrusion width = 0.40mm
; solid infill extrusion width = 0.40mm
; top infill extrusion width = 0.40mm

M107
M83
T0
M116
G21 ; set units to millimeters
G90 ; use absolute coordinates
M83 ; use relative distances for extrusion
G1 E-3.50000 F1500.00000
G1 Z0.400 F15000.000
G1 X14.551 Y-0.087 F15000.000
G1 Z0.300 F15000.000
G1 E3.50000 F1500.00000
G1 X14.555 Y23.572 E1.82329 F960.000
G1 X14.161 Y25.219 E0.13052
G1 X13.063 Y26.509 E0.13052
G1 X10.920 Y27.208 E0.17373
G1 X0.989 Y27.208 E0.76529
G1 X-10.950 Y27.108 E0.92012
G1 X-12.594 Y26.700 E0.13052
G1 X-13.874 Y25.591 E0.13052
G1 X-14.555 Y23.473 E0.17151
G1 X-14.555 Y0.573 E1.76480
G1 X-14.492 Y-23.435 E1.85015
G1 X-14.093 Y-25.081 E0.13052
G1 X-12.991 Y-26.367 E0.13052
G1 X-10.902 Y-27.060 E0.16968
G1 X0.830 Y-27.208 E0.90414
G1 X10.775 Y-27.208 E0.76647
G1 X12.422 Y-26.813 E0.13052
G1 X13.712 Y-25.716 E0.13052 F960.000
G1 X14.411 Y-23.594 E0.17214
G1 X14.550 Y-0.147 E1.80702
G1 E-3.50000 F1500.00000
G1 Z0.700 F15000.000
G1 X6.818 Y17.385 F15000.000
G1 Z0.300 F15000.000
G1 E3.50000 F1500.00000
G1 X7.329 Y17.653 E0.04446 F600.000
G1 X7.761 Y18.035 E0.04446
G1 X8.089 Y18.510 E0.04446
G1 X8.293 Y19.050 E0.04446
G1 X8.363 Y19.622 E0.04446
G1 X8.293 Y20.195 E0.04446
G1 X8.089 Y20.735 E0.04446
G1 X7.761 Y21.209 E0.04446
G1 X7.329 Y21.592 E0.04446
G1 X6.818 Y21.860 E0.04446
G1 X6.258 Y21.998 E0.04446
G1 X5.681 Y21.998 E0.04446
G1 X5.121 Y21.860 E0.04446
G1 X4.610 Y21.592 E0.04446
G1 X4.178 Y21.209 E0.04446
G1 X3.850 Y20.735 E0.04446
G1 X3.646 Y20.195 E0.04446
G1 X3.576 Y19.622 E0.04446
G1 X3.646 Y19.050 E0.04446
G1 X3.850 Y18.510 E0.04446
G1 X4.178 Y18.035 E0.04446
G1 X4.610 Y17.653 E0.04446
G1 X5.121 Y17.385 E0.04446
G1 X5.681 Y17.247 E0.04446
G1 X6.258 Y17.247 E0.04446 F600.000
G1 X6.760 Y17.370 E0.03984
G1 X6.591 Y17.983 F15000.000
G1 X6.965 Y18.180 E0.03257 F600.000
G1 X7.282 Y18.460 E0.03257
G1 X7.522 Y18.808 E0.03257
G1 X7.672 Y19.203 E0.03257
G1 X7.722 Y19.622 E0.03257
G1 X7.672 Y20.042 E0.03257
G1 X7.522 Y20.437 E0.03257
G1 X7.282 Y20.785 E0.03257
G1 X6.965 Y21.065 E0.03257
G1 X6.591 Y21.261 E0.03257
G1 X6.181 Y21.363 E0.03257
G1 X5.758 Y21.363 E0.03257
G1 X5.348 Y21.261 E0.03257
G1 X4.974 Y21.065 E0.03257
G1 X4.657 Y20.785 E0.03257
G1 X4.417 Y20.437 E0.03257
G1 X4.268 Y20.042 E0.03257
G1 X4.217 Y19.622 E0.03257
G1 X4.268 Y19.203 E0.03257
G1 X4.417 Y18.808 E0.03257
G1 X4.657 Y18.460 E0.03257
G1 X4.974 Y18.180 E0.03257
G1 X5.348 Y17.983 E0.03257
G1 X5.758 Y17.882 E0.03257
G1 X6.181 Y17.882 E0.03257 F600.000
G1 X6.533 Y17.969 E0.02794
G1 X6.911 Y17.743 F15000.000
G1 X6.258 Y7.998 F15000.000
G1 X5.681 Y7.998 E0.04446 F600.000
G1 X5.121 Y7.860 E0.04446
G1 X4.610 Y7.592 E0.04446
G1 X4.178 Y7.209 E0.04446
G1 X3.850 Y6.735 E0.04446
G1 X3.646 Y6.195 E0.04446
G1 X3.576 Y5.622 E0.04446
G1 X3.646 Y5.050 E0.04446
G1 X3.850 Y4.510 E0.04446
G1 X4.178 Y4.035 E0.04446
G1 X4.610 Y3.653 E0.04446
G1 X5.121 Y3.385 E0.04446
G1 X5.681 Y3.247 E0.04446
G1 X6.258 Y3.247 E0.04446 F600.000
G1 X6.818 Y3.385 E0.04446
G1 X7.329 Y3.653 E0.04446
G1 X7.761 Y4.035 E0.04446
G1 X8.089 Y4.510 E0.04446
G1 X8.293 Y5.050 E0.04446
G1 X8.363 Y5.622 E0.04446
G1 X8.293 Y6.195 E0.04446
G1 X8.089 Y6.735 E0.04446
G1 X7.761 Y7.209 E0.04446
G1 X7.329 Y7.592 E0.04446
G1 X6.818 Y7.860 E0.04446
G1 X6.316 Y7.984 E0.03984
G1 X6.181 Y7.363 F15000.000
G1 X5.758 Y7.363 E0.03257 F600.000
G1 X5.348 Y7.261 E0.03257
G1 X4.974 Y7.065 E0.03257
G1 X4.657 Y6.785 E0.03257
G1 X4.417 Y6.437 E0.03257
G1 X4.268 Y6.042 E0.03257
G1 X4.217 Y5.622 E0.03257
G1 X4.268 Y5.203 E0.03257
G1 X4.417 Y4.808 E0.03257
G1 X4.657 Y4.460 E0.03257
G1 X4.974 Y4.180 E0.03257
G1 X5.348 Y3.983 E0.03257
G1 X5.758 Y3.882 E0.03257
G1 X6.181 Y3.882 E0.03257 F600.000
G1 X6.591 Y3.983 E0.03257
G1 X6.965 Y4.180 E0.03257
G1 X7.282 Y4.460 E0.03257
G1 X7.522 Y4.808 E0.03257
G1 X7.672 Y5.203 E0.03257
G1 X7.722 Y5.622 E0.03257
G1 X7.672 Y6.042 E0.03257
G1 X7.522 Y6.437 E0.03257
G1 X7.282 Y6.785 E0.03257
G1 X6.965 Y7.065 E0.03257
G1 X6.591 Y7.261 E0.03257
G1 X6.239 Y7.348 E0.02794
G1 X6.009 Y7.724 F15000.000
G1 X9.934 Y11.568 F15000.000
G1 X9.934 Y22.587 E0.84919 F720.000
G1 X2.005 Y22.587 E0.61103 F720.000
G1 X2.005 Y1.658 E1.61289
G1 X9.934 Y1.658 E0.61103
G1 X9.934 Y11.508 E0.75907
G1 X10.570 Y11.508 F15000.000
G1 X10.570 Y23.222 E0.90280 F720.000
G1 X1.370 Y23.222 E0.70900 F720.000
G1 X1.370 Y1.022 E1.71085
G1 X10.570 Y1.022 E0.70900
G1 X10.570 Y11.448 E0.80343
G1 X10.223 Y11.708 F15000.000
G1 X8.691 Y18.987 F15000.000
G1 X9.548 Y19.844 E0.09569 F960.000
G1 X8.700 Y19.916 E0.06721
G1 X9.548 Y20.764 E0.09471
G1 X9.548 Y21.685 E0.07265
G1 X8.497 Y20.634 E0.11733
G1 X8.160 Y21.217 E0.05317
G1 X9.144 Y22.201 E0.10987
G1 X8.224 Y22.201 E0.07265
G1 X7.714 Y21.692 E0.05688
G1 X2.700 Y22.201 F15000.000
G1 X2.391 Y21.892 E0.03456 F960.000
G1 X2.391 Y20.971 E0.07265
G1 X3.621 Y22.201 E0.13731
G1 X3.673 Y21.333 E0.06863
G1 X2.391 Y20.051 E0.14317
G1 X2.391 Y19.130 E0.07265
G1 X3.210 Y19.950 E0.09151
G1 X3.268 Y19.087 E0.06823
G1 X2.391 Y18.209 E0.09798
G1 X2.391 Y17.289 E0.07265
G1 X3.516 Y18.415 E0.12564
G1 X3.890 Y17.867 E0.05228
G1 X2.391 Y16.368 E0.16733
G1 X2.391 Y15.448 E0.07265
G1 X4.369 Y17.426 E0.22079
G1 X4.954 Y17.090 E0.05323
G1 X2.391 Y14.527 E0.28610
G1 X2.391 Y13.607 E0.07265
G1 X5.666 Y16.882 E0.36564
G1 X6.602 Y16.897 E0.07382
G1 X2.391 Y12.686 E0.47002
G1 X2.391 Y11.765 E0.07265
G1 X9.548 Y18.923 E0.79893
G1 X9.548 Y18.003 E0.07265
G1 X2.391 Y10.845 E0.79893
G1 X2.391 Y9.924 E0.07265
G1 X9.548 Y17.082 E0.79893
G1 X9.548 Y16.162 E0.07265
G1 X2.391 Y9.004 E0.79893
G1 X2.391 Y8.083 E0.07265
G1 X9.548 Y15.241 E0.79893
G1 X9.548 Y14.320 E0.07265
G1 X2.391 Y7.163 E0.79893
G1 X5.557 Y2.043 F15000.000
G1 X6.374 Y2.861 E0.09127 F960.000
G1 X5.513 Y2.920 E0.06815
G1 X4.636 Y2.043 E0.09787
G1 X3.715 Y2.043 E0.07265
G1 X4.828 Y3.156 E0.12421
G1 X4.267 Y3.516 E0.05259
G1 X2.795 Y2.043 E0.16433
G1 X2.391 Y2.560 E0.05175
G1 X3.812 Y3.981 E0.15861
G1 X3.464 Y4.553 E0.05288
G1 X2.391 Y3.480 E0.11977
G1 X2.391 Y4.401 E0.07265
G1 X3.248 Y5.258 E0.09567
G1 X2.391 Y5.321 E0.06783
G1 X3.237 Y6.168 E0.09446
G1 X2.391 Y6.242 E0.06705
G1 X9.548 Y13.400 E0.79893
G1 X9.548 Y12.479 E0.07265
G1 X5.443 Y8.374 E0.45825
G1 X6.336 Y8.347 E0.07055
G1 X9.548 Y11.559 E0.35852
G1 X9.548 Y10.638 E0.07265
G1 X7.037 Y8.127 E0.28028
G1 X7.612 Y7.782 E0.05295
G1 X9.548 Y9.718 E0.21609
G1 X9.548 Y8.797 E0.07265
G1 X8.082 Y7.330 E0.16372
G1 X8.445 Y6.773 E0.05251
G1 X9.548 Y7.876 E0.12321
G1 X9.548 Y6.956 E0.07265
G1 X8.679 Y6.087 E0.09702
G1 X9.548 Y6.035 E0.06872
G1 X8.718 Y5.204 E0.09274
G1 X9.548 Y5.115 E0.06596
G1 X6.477 Y2.043 E0.34281
G1 X7.398 Y2.043 E0.07265
G1 X9.548 Y4.194 E0.24006
G1 X9.548 Y3.274 E0.07265
G1 X8.318 Y2.043 E0.13731
G1 X9.239 Y2.043 E0.07265
G1 X9.548 Y2.353 E0.03456
G1 E-3.50000 F1500.00000
G1 Z0.700 F15000.000
G1 X-4.222 Y17.897 F15000.000
G1 Z0.300 F15000.000
G1 E3.50000 F1500.00000
G1 X-4.178 Y17.936 E0.00452 F600.000
G1 X-3.850 Y18.411 E0.04446
G1 X-3.646 Y18.950 E0.04446
G1 X-3.576 Y19.523 E0.04446
G1 X-3.646 Y20.095 E0.04446
G1 X-3.850 Y20.635 E0.04446
G1 X-4.178 Y21.110 E0.04446
G1 X-4.610 Y21.492 E0.04446
G1 X-5.121 Y21.760 E0.04446
G1 X-5.681 Y21.899 E0.04446
G1 X-6.258 Y21.899 E0.04446
G1 X-6.818 Y21.760 E0.04446
G1 X-7.329 Y21.492 E0.04446
G1 X-7.761 Y21.110 E0.04446
G1 X-8.089 Y20.635 E0.04446
G1 X-8.293 Y20.095 E0.04446
G1 X-8.363 Y19.523 E0.04446
G1 X-8.293 Y18.950 E0.04446
G1 X-8.089 Y18.411 E0.04446
G1 X-7.761 Y17.936 E0.04446
G1 X-7.329 Y17.553 E0.04446
G1 X-6.818 Y17.285 E0.04446
G1 X-6.258 Y17.147 E0.04446
G1 X-5.681 Y17.147 E0.04446 F600.000
G1 X-5.121 Y17.285 E0.04446
G1 X-4.610 Y17.553 E0.04446
G1 X-4.267 Y17.857 E0.03532
G1 X-4.688 Y18.333 F15000.000
G1 X-4.417 Y18.708 E0.03568 F600.000
G1 X-4.268 Y19.103 E0.03257
G1 X-4.217 Y19.523 E0.03257
G1 X-4.268 Y19.942 E0.03257
G1 X-4.417 Y20.337 E0.03257
G1 X-4.657 Y20.685 E0.03257
G1 X-4.974 Y20.965 E0.03257
G1 X-5.348 Y21.162 E0.03257
G1 X-5.758 Y21.263 E0.03257
G1 X-6.181 Y21.263 E0.03257
G1 X-6.591 Y21.162 E0.03257
G1 X-6.965 Y20.965 E0.03257
G1 X-7.282 Y20.685 E0.03257
G1 X-7.522 Y20.337 E0.03257
G1 X-7.672 Y19.942 E0.03257
G1 X-7.722 Y19.523 E0.03257
G1 X-7.672 Y19.103 E0.03257
G1 X-7.522 Y18.708 E0.03257
G1 X-7.282 Y18.360 E0.03257
G1 X-6.965 Y18.080 E0.03257
G1 X-6.591 Y17.884 E0.03257
G1 X-6.181 Y17.783 E0.03257
G1 X-5.758 Y17.783 E0.03257 F600.000
G1 X-5.348 Y17.884 E0.03257
G1 X-4.974 Y18.080 E0.03257
G1 X-4.733 Y18.293 E0.02475
G1 X-4.295 Y18.263 F15000.000
G1 X-5.681 Y7.899 F15000.000
G1 X-6.258 Y7.899 E0.04446 F600.000
G1 X-6.818 Y7.760 E0.04446
G1 X-7.329 Y7.492 E0.04446
G1 X-7.761 Y7.110 E0.04446
G1 X-8.089 Y6.635 E0.04446
G1 X-8.293 Y6.095 E0.04446
G1 X-8.363 Y5.523 E0.04446
G1 X-8.293 Y4.950 E0.04446
G1 X-8.089 Y4.411 E0.04446
G1 X-7.761 Y3.936 E0.04446
G1 X-7.329 Y3.553 E0.04446
G1 X-6.818 Y3.285 E0.04446
G1 X-6.258 Y3.147 E0.04446
G1 X-5.681 Y3.147 E0.04446 F600.000
G1 X-5.121 Y3.285 E0.04446
G1 X-4.610 Y3.553 E0.04446
G1 X-4.178 Y3.936 E0.04446
G1 X-3.850 Y4.411 E0.04446
G1 X-3.646 Y4.950 E0.04446
G1 X-3.576 Y5.523 E0.04446
G1 X-3.646 Y6.095 E0.04446
G1 X-3.850 Y6.635 E0.04446
G1 X-4.178 Y7.110 E0.04446
G1 X-4.610 Y7.492 E0.04446
G1 X-5.121 Y7.760 E0.04446
G1 X-5.623 Y7.884 E0.03984
G1 X-5.758 Y7.263 F15000.000
G1 X-6.181 Y7.263 E0.03257 F600.000
G1 X-6.591 Y7.162 E0.03257
G1 X-6.965 Y6.965 E0.03257
G1 X-7.282 Y6.685 E0.03257
G1 X-7.522 Y6.337 E0.03257
G1 X-7.672 Y5.942 E0.03257
G1 X-7.722 Y5.523 E0.03257
G1 X-7.672 Y5.103 E0.03257
G1 X-7.522 Y4.708 E0.03257
G1 X-7.282 Y4.360 E0.03257
G1 X-6.965 Y4.080 E0.03257
G1 X-6.591 Y3.884 E0.03257
G1 X-6.181 Y3.783 E0.03257
G1 X-5.758 Y3.783 E0.03257 F600.000
G1 X-5.348 Y3.884 E0.03257
G1 X-4.974 Y4.080 E0.03257
G1 X-4.657 Y4.360 E0.03257
G1 X-4.417 Y4.708 E0.03257
G1 X-4.268 Y5.103 E0.03257
G1 X-4.217 Y5.523 E0.03257
G1 X-4.268 Y5.942 E0.03257
G1 X-4.417 Y6.337 E0.03257
G1 X-4.657 Y6.685 E0.03257
G1 X-4.974 Y6.965 E0.03257
G1 X-5.348 Y7.162 E0.03257
G1 X-5.700 Y7.249 E0.02794
G1 X-5.930 Y7.624 F15000.000
G1 X-9.934 Y15.987 F15000.000
G1 X-9.934 Y1.558 E1.11195 F720.000
G1 X-2.005 Y1.558 E0.61103
G1 X-2.005 Y22.487 E1.61289
G1 X-9.934 Y22.487 E0.61103 F720.000
G1 X-9.934 Y16.047 E0.49631
G1 X-10.570 Y16.047 F15000.000
G1 X-10.570 Y0.923 E1.16556 F720.000
G1 X-1.370 Y0.923 E0.70900
G1 X-1.370 Y23.123 E1.71085
G1 X-10.570 Y23.123 E0.70900 F720.000
G1 X-10.570 Y16.107 E0.54067
G1 X-10.223 Y15.847 F15000.000
G1 X-9.239 Y22.102 F15000.000
G1 X-9.548 Y21.792 E0.03456 F960.000
G1 X-9.548 Y20.871 E0.07265
G1 X-8.318 Y22.102 E0.13731
G1 X-8.266 Y21.234 E0.06863
G1 X-9.548 Y19.951 E0.14317
G1 X-9.548 Y19.030 E0.07265
G1 X-8.729 Y19.850 E0.09151
G1 X-8.671 Y18.988 E0.06823
G1 X-9.548 Y18.110 E0.09798
G1 X-9.548 Y17.189 E0.07265
G1 X-8.423 Y18.315 E0.12564
G1 X-8.049 Y17.768 E0.05228
G1 X-9.548 Y16.269 E0.16733
G1 X-9.548 Y15.348 E0.07265
G1 X-7.570 Y17.326 E0.22079
G1 X-6.985 Y16.991 E0.05323
G1 X-9.548 Y14.427 E0.28610
G1 X-9.548 Y13.507 E0.07265
G1 X-6.273 Y16.783 E0.36564
G1 X-5.337 Y16.797 E0.07382
G1 X-9.548 Y12.586 E0.47002
G1 X-9.548 Y11.666 E0.07265
G1 X-2.391 Y18.824 E0.79893
G1 X-2.391 Y17.903 E0.07265
G1 X-9.548 Y10.745 E0.79893
G1 X-9.548 Y9.825 E0.07265
G1 X-2.391 Y16.983 E0.79893
G1 X-2.391 Y16.062 E0.07265
G1 X-9.548 Y8.904 E0.79893
G1 X-9.548 Y7.983 E0.07265
G1 X-2.391 Y15.141 E0.79893
G1 X-2.391 Y14.221 E0.07265
G1 X-9.548 Y7.063 E0.79893
G1 X-6.383 Y1.944 F15000.000
G1 X-5.565 Y2.762 E0.09127 F960.000
G1 X-6.426 Y2.821 E0.06815
G1 X-7.303 Y1.944 E0.09787
G1 X-8.224 Y1.944 E0.07265
G1 X-7.111 Y3.057 E0.12421
G1 X-7.672 Y3.416 E0.05259
G1 X-9.144 Y1.944 E0.16433
G1 X-9.548 Y2.460 E0.05175
G1 X-8.127 Y3.881 E0.15861
G1 X-8.475 Y4.454 E0.05288
G1 X-9.548 Y3.381 E0.11977
G1 X-9.548 Y4.301 E0.07265
G1 X-8.691 Y5.158 E0.09567
G1 X-9.548 Y5.222 E0.06783
G1 X-8.702 Y6.068 E0.09446
G1 X-9.548 Y6.142 E0.06705
G1 X-2.391 Y13.300 E0.79893
G1 X-2.391 Y12.380 E0.07265
G1 X-6.496 Y8.274 E0.45825
G1 X-5.603 Y8.247 E0.07055
G1 X-2.391 Y11.459 E0.35852
G1 X-2.391 Y10.539 E0.07265
G1 X-4.902 Y8.027 E0.28028
G1 X-4.327 Y7.682 E0.05295
G1 X-2.391 Y9.618 E0.21609
G1 X-2.391 Y8.697 E0.07265
G1 X-3.857 Y7.231 E0.16372
G1 X-3.494 Y6.673 E0.05251
G1 X-2.391 Y7.777 E0.12321
G1 X-2.391 Y6.856 E0.07265
G1 X-3.260 Y5.987 E0.09702
G1 X-2.391 Y5.936 E0.06872
G1 X-3.221 Y5.105 E0.09274
G1 X-2.391 Y5.015 E0.06596
G1 X-5.462 Y1.944 E0.34281
G1 X-4.541 Y1.944 E0.07265
G1 X-2.391 Y4.095 E0.24006
G1 X-2.391 Y3.174 E0.07265
G1 X-3.621 Y1.944 E0.13731
G1 X-2.700 Y1.944 E0.07265
G1 X-2.391 Y2.253 E0.03456
G1 X-3.248 Y18.887 F15000.000
G1 X-2.391 Y19.744 E0.09569 F960.000
G1 X-3.239 Y19.816 E0.06721
G1 X-2.391 Y20.665 E0.09471
G1 X-2.391 Y21.585 E0.07265
G1 X-3.442 Y20.534 E0.11733
G1 X-3.779 Y21.117 E0.05317
G1 X-2.795 Y22.102 E0.10987
G1 X-3.715 Y22.102 E0.07265
G1 X-4.225 Y21.592 E0.05688
G1 E-3.50000 F1500.00000
G1 Z0.700 F15000.000
G1 X-5.617 Y-2.099 F15000.000
G1 Z0.300 F15000.000
G1 E3.50000 F1500.00000
G1 X-6.194 Y-2.099 E0.04446 F600.000
G1 X-6.755 Y-2.237 E0.04446
G1 X-7.265 Y-2.506 E0.04446
G1 X-7.697 Y-2.888 E0.04446
G1 X-8.025 Y-3.363 E0.04446
G1 X-8.230 Y-3.902 E0.04446
G1 X-8.299 Y-4.475 E0.04446
G1 X-8.230 Y-5.048 E0.04446
G1 X-8.025 Y-5.587 E0.04446
G1 X-7.697 Y-6.062 E0.04446
G1 X-7.265 Y-6.445 E0.04446
G1 X-6.755 Y-6.713 E0.04446
G1 X-6.194 Y-6.851 E0.04446
G1 X-5.617 Y-6.851 E0.04446 F600.000
G1 X-5.057 Y-6.713 E0.04446
G1 X-4.546 Y-6.445 E0.04446
G1 X-4.115 Y-6.062 E0.04446
G1 X-3.787 Y-5.587 E0.04446
G1 X-3.582 Y-5.048 E0.04446
G1 X-3.513 Y-4.475 E0.04446
G1 X-3.582 Y-3.902 E0.04446
G1 X-3.787 Y-3.363 E0.04446
G1 X-4.115 Y-2.888 E0.04446
G1 X-4.546 Y-2.506 E0.04446
G1 X-5.057 Y-2.237 E0.04446
G1 X-5.559 Y-2.114 E0.03984
G1 X-5.695 Y-2.735 F15000.000
G1 X-6.117 Y-2.735 E0.03257 F600.000
G1 X-6.528 Y-2.836 E0.03257
G1 X-6.902 Y-3.032 E0.03257
G1 X-7.218 Y-3.313 E0.03257
G1 X-7.458 Y-3.660 E0.03257
G1 X-7.608 Y-4.056 E0.03257
G1 X-7.659 Y-4.475 E0.03257
G1 X-7.608 Y-4.895 E0.03257
G1 X-7.458 Y-5.290 E0.03257
G1 X-7.218 Y-5.638 E0.03257
G1 X-6.902 Y-5.918 E0.03257
G1 X-6.528 Y-6.114 E0.03257
G1 X-6.117 Y-6.215 E0.03257
G1 X-5.695 Y-6.215 E0.03257 F600.000
G1 X-5.284 Y-6.114 E0.03257
G1 X-4.910 Y-5.918 E0.03257
G1 X-4.594 Y-5.638 E0.03257
G1 X-4.354 Y-5.290 E0.03257
G1 X-4.204 Y-4.895 E0.03257
G1 X-4.153 Y-4.475 E0.03257
G1 X-4.204 Y-4.056 E0.03257
G1 X-4.354 Y-3.660 E0.03257
G1 X-4.594 Y-3.313 E0.03257
G1 X-4.910 Y-3.032 E0.03257
G1 X-5.284 Y-2.836 E0.03257
G1 X-5.636 Y-2.749 E0.02794
G1 X-5.866 Y-2.374 F15000.000
G1 E-3.50000 F1500.00000
G1 Z0.700 F15000.000
G1 X-5.636 Y-16.099 F15000.000
G1 Z0.300 F15000.000
G1 E3.50000 F1500.00000
G1 X-6.194 Y-16.099 E0.04300 F600.000
G1 X-6.755 Y-16.237 E0.04446
G1 X-7.265 Y-16.506 E0.04446
G1 X-7.697 Y-16.888 E0.04446
G1 X-8.025 Y-17.363 E0.04446
G1 X-8.230 Y-17.902 E0.04446
G1 X-8.299 Y-18.475 E0.04446
G1 X-8.230 Y-19.048 E0.04446
G1 X-8.025 Y-19.587 E0.04446
G1 X-7.697 Y-20.062 E0.04446
G1 X-7.265 Y-20.445 E0.04446
G1 X-6.755 Y-20.713 E0.04446
G1 X-6.194 Y-20.851 E0.04446
G1 X-5.617 Y-20.851 E0.04446 F600.000
G1 X-5.057 Y-20.713 E0.04446
G1 X-4.546 Y-20.445 E0.04446
G1 X-4.115 Y-20.062 E0.04446
G1 X-3.787 Y-19.587 E0.04446
G1 X-3.582 Y-19.048 E0.04446
G1 X-3.513 Y-18.475 E0.04446
G1 X-3.582 Y-17.902 E0.04446
G1 X-3.787 Y-17.363 E0.04446
G1 X-4.115 Y-16.888 E0.04446
G1 X-4.546 Y-16.506 E0.04446
G1 X-5.057 Y-16.237 E0.04446
G1 X-5.578 Y-16.109 E0.04130
G1 X-5.695 Y-16.735 F15000.000
G1 X-6.117 Y-16.735 E0.03257 F600.000
G1 X-6.528 Y-16.836 E0.03257
G1 X-6.902 Y-17.032 E0.03257
G1 X-7.218 Y-17.313 E0.03257
G1 X-7.458 Y-17.660 E0.03257
G1 X-7.608 Y-18.056 E0.03257
G1 X-7.659 Y-18.475 E0.03257
G1 X-7.608 Y-18.895 E0.03257
G1 X-7.458 Y-19.290 E0.03257
G1 X-7.218 Y-19.638 E0.03257
G1 X-6.902 Y-19.918 E0.03257
G1 X-6.528 Y-20.114 E0.03257
G1 X-6.117 Y-20.215 E0.03257
G1 X-5.695 Y-20.215 E0.03257 F600.000
G1 X-5.284 Y-20.114 E0.03257
G1 X-4.910 Y-19.918 E0.03257
