; generated by Slic3r 1.2.9 on 2018-11-05 at 10:15:04

; external perimeters extrusion width = 0.40mm
; perimeters extrusion width = 0.40mm
; infill extrusion width = 0.40mm
; solid infill extrusion width = 0.40mm
; top infill extrusion width = 0.40mm

M107
M83
T0
M116
G21 ; set units to millimeters
G90 ; use absolute coordinates
M83 ; use relative distances for extrusion
G1 E-3.50000 F1500.00000
G1 Z0.400 F15000.000
G1 X-19.573 Y-0.134 F15000.000
G1 Z0.300 F15000.000
G1 E3.50000 F1500.00000
G1 X-19.435 Y-20.278 E1.55241 F960.000
G1 X-19.029 Y-21.922 E0.13052
G1 X-17.923 Y-23.204 E0.13052
G1 X-15.872 Y-23.888 E0.16660
G1 X5.899 Y-24.319 E1.67807
G1 X15.799 Y-24.319 E0.76295
G1 X17.446 Y-23.925 E0.13052
G1 X18.735 Y-22.827 E0.13052 F960.000
G1 X19.434 Y-20.709 E0.17189
G1 X19.579 Y0.333 E1.62168
G1 X19.580 Y20.259 E1.53554
G1 X19.185 Y21.906 E0.13052
G1 X18.087 Y23.195 E0.13052
G1 X16.014 Y23.894 E0.16857
G1 X-6.044 Y24.319 E1.70024
G1 X-15.944 Y24.319 E0.76295
G1 X-17.591 Y23.925 E0.13052
G1 X-18.881 Y22.827 E0.13052
G1 X-19.580 Y20.684 E0.17373
G1 X-19.574 Y-0.074 E1.59972
G1 E-3.50000 F1500.00000
G1 Z0.700 F15000.000
G1 X-4.139 Y-14.161 F15000.000
G1 Z0.300 F15000.000
G1 E3.50000 F1500.00000
G1 X-4.139 Y-19.224 E0.39016 F720.000
G1 X3.790 Y-19.224 E0.61103
G1 X3.790 Y-1.295 E1.38169
G1 X-4.139 Y-1.295 E0.61103 F720.000
G1 X-4.139 Y-14.101 E0.98690
G1 X-4.774 Y-14.101 F15000.000
G1 X-4.774 Y-19.860 E0.44377 F720.000
G1 X4.426 Y-19.860 E0.70900
G1 X4.426 Y-0.660 E1.47966
G1 X-4.774 Y-0.660 E0.70900 F720.000
G1 X-4.774 Y-14.041 E1.03126
G1 X-4.428 Y-14.301 F15000.000
G1 X3.405 Y-18.529 F15000.000
G1 X3.095 Y-18.839 E0.03422 F960.000
G1 X2.184 Y-18.839 E0.07121
G1 X3.405 Y-17.617 E0.13493
G1 X3.405 Y-16.706 E0.07121
G1 X1.272 Y-18.839 E0.23565
G1 X0.361 Y-18.839 E0.07121
G1 X3.405 Y-15.795 E0.33636
G1 X3.405 Y-14.883 E0.07121
G1 X-0.551 Y-18.839 E0.43707
G1 X-1.462 Y-18.839 E0.07121
G1 X3.405 Y-13.972 E0.53778
G1 X3.405 Y-13.060 E0.07121
G1 X-2.373 Y-18.839 E0.63850
G1 X-3.285 Y-18.839 E0.07121
G1 X3.405 Y-12.149 E0.73921
G1 X3.405 Y-11.238 E0.07121
G1 X-3.753 Y-18.396 E0.79097
G1 X-3.753 Y-17.484 E0.07121
G1 X3.405 Y-10.326 E0.79097
G1 X3.405 Y-9.415 E0.07121
G1 X-3.753 Y-16.573 E0.79097
G1 X-3.753 Y-15.661 E0.07121
G1 X3.405 Y-8.503 E0.79097
G1 X3.405 Y-7.592 E0.07121
G1 X-3.753 Y-14.750 E0.79097
G1 X-3.753 Y-13.839 E0.07121
G1 X3.405 Y-6.681 E0.79097
G1 X3.405 Y-5.769 E0.07121
G1 X-3.753 Y-12.927 E0.79097
G1 X-3.753 Y-12.016 E0.07121
G1 X3.405 Y-4.858 E0.79097
G1 X3.405 Y-3.946 E0.07121
G1 X-3.753 Y-11.104 E0.79097
G1 X-3.753 Y-10.193 E0.07121
G1 X3.405 Y-3.035 E0.79097
G1 X3.405 Y-2.124 E0.07121
G1 X-3.753 Y-9.281 E0.79097
G1 X-3.753 Y-8.370 E0.07121
G1 X2.936 Y-1.681 E0.73921
G1 X2.025 Y-1.681 E0.07121
G1 X-3.753 Y-7.459 E0.63850
G1 X-3.753 Y-6.547 E0.07121
G1 X1.113 Y-1.681 E0.53778
G1 X0.202 Y-1.681 E0.07121
G1 X-3.753 Y-5.636 E0.43707
G1 X-3.753 Y-4.724 E0.07121
G1 X-0.709 Y-1.681 E0.33636
G1 X-1.621 Y-1.681 E0.07121
G1 X-3.753 Y-3.813 E0.23564
G1 X-3.753 Y-2.902 E0.07121
G1 X-2.532 Y-1.681 E0.13493
G1 X-3.444 Y-1.681 E0.07121
G1 X-3.753 Y-1.990 E0.03422
G1 E-3.50000 F1500.00000
G1 Z0.700 F15000.000
G1 X-6.885 Y-6.489 F15000.000
G1 Z0.300 F15000.000
G1 E3.50000 F1500.00000
G1 X-6.885 Y-1.339 E0.39695 F720.000
G1 X-14.814 Y-1.339 E0.61103 F720.000
G1 X-14.814 Y-19.267 E1.38169
G1 X-6.885 Y-19.267 E0.61103
G1 X-6.885 Y-6.549 E0.98012
G1 X-6.250 Y-6.549 F15000.000
G1 X-6.250 Y-0.703 E0.45055 F720.000
G1 X-15.450 Y-0.703 E0.70900 F720.000
G1 X-15.450 Y-19.903 E1.47966
G1 X-6.250 Y-19.903 E0.70900
G1 X-6.250 Y-6.609 E1.02448
G1 X-6.596 Y-6.349 F15000.000
G1 X-14.429 Y-2.034 F15000.000
G1 X-14.119 Y-1.724 E0.03422 F960.000
G1 X-13.208 Y-1.724 E0.07121
G1 X-14.429 Y-2.945 E0.13493
G1 X-14.429 Y-3.856 E0.07121
G1 X-12.296 Y-1.724 E0.23564
G1 X-11.385 Y-1.724 E0.07121
G1 X-14.429 Y-4.768 E0.33636
G1 X-14.429 Y-5.679 E0.07121
G1 X-10.473 Y-1.724 E0.43707
G1 X-9.562 Y-1.724 E0.07121
G1 X-14.429 Y-6.591 E0.53778
G1 X-14.429 Y-7.502 E0.07121
G1 X-8.651 Y-1.724 E0.63850
G1 X-7.739 Y-1.724 E0.07121
G1 X-14.429 Y-8.413 E0.73921
G1 X-14.429 Y-9.325 E0.07121
G1 X-7.271 Y-2.167 E0.79097
G1 X-7.271 Y-3.078 E0.07121
G1 X-14.429 Y-10.236 E0.79097
G1 X-14.429 Y-11.148 E0.07121
G1 X-7.271 Y-3.990 E0.79097
G1 X-7.271 Y-4.901 E0.07121
G1 X-14.429 Y-12.059 E0.79097
G1 X-14.429 Y-12.970 E0.07121
G1 X-7.271 Y-5.813 E0.79097
G1 X-7.271 Y-6.724 E0.07121
G1 X-14.429 Y-13.882 E0.79097
G1 X-14.429 Y-14.793 E0.07121
G1 X-7.271 Y-7.635 E0.79097
G1 X-7.271 Y-8.547 E0.07121
G1 X-14.429 Y-15.705 E0.79097
G1 X-14.429 Y-16.616 E0.07121
G1 X-7.271 Y-9.458 E0.79097
G1 X-7.271 Y-10.370 E0.07121
G1 X-14.429 Y-17.528 E0.79097
G1 X-14.429 Y-18.439 E0.07121
G1 X-7.271 Y-11.281 E0.79097
G1 X-7.271 Y-12.192 E0.07121
G1 X-13.960 Y-18.882 E0.73921
G1 X-13.049 Y-18.882 E0.07121
G1 X-7.271 Y-13.104 E0.63850
G1 X-7.271 Y-14.015 E0.07121
G1 X-12.137 Y-18.882 E0.53778
G1 X-11.226 Y-18.882 E0.07121
G1 X-7.271 Y-14.927 E0.43707
G1 X-7.271 Y-15.838 E0.07121
G1 X-10.315 Y-18.882 E0.33636
G1 X-9.403 Y-18.882 E0.07121
G1 X-7.271 Y-16.749 E0.23565
G1 X-7.271 Y-17.661 E0.07121
G1 X-8.492 Y-18.882 E0.13493
G1 X-7.580 Y-18.882 E0.07121
G1 X-7.271 Y-18.572 E0.03422
G1 E-3.50000 F1500.00000
G1 Z0.700 F15000.000
G1 X-7.030 Y13.499 F15000.000
G1 Z0.300 F15000.000
G1 E3.50000 F1500.00000
G1 X-7.030 Y19.698 E0.47771 F720.000
G1 X-14.958 Y19.698 E0.61103 F720.000
G1 X-14.958 Y1.769 E1.38169
G1 X-7.030 Y1.769 E0.61103
G1 X-7.030 Y13.439 E0.89936
G1 X-6.394 Y13.439 F15000.000
G1 X-6.394 Y20.334 E0.53132 F720.000
G1 X-15.594 Y20.334 E0.70900 F720.000
G1 X-15.594 Y1.134 E1.47966
G1 X-6.394 Y1.134 E0.70900
G1 X-6.394 Y13.379 E0.94372
G1 X-6.740 Y13.639 F15000.000
G1 X-14.573 Y19.003 F15000.000
G1 X-14.263 Y19.313 E0.03422 F960.000
G1 X-13.352 Y19.313 E0.07121
G1 X-14.573 Y18.092 E0.13493
G1 X-14.573 Y17.180 E0.07121
G1 X-12.440 Y19.313 E0.23564
G1 X-11.529 Y19.313 E0.07121
G1 X-14.573 Y16.269 E0.33636
G1 X-14.573 Y15.357 E0.07121
G1 X-10.618 Y19.313 E0.43707
G1 X-9.706 Y19.313 E0.07121
G1 X-14.573 Y14.446 E0.53778
G1 X-14.573 Y13.535 E0.07121
G1 X-8.795 Y19.313 E0.63850
G1 X-7.883 Y19.313 E0.07121
G1 X-14.573 Y12.623 E0.73921
G1 X-14.573 Y11.712 E0.07121
G1 X-7.415 Y18.870 E0.79097
G1 X-7.415 Y17.958 E0.07121
G1 X-14.573 Y10.800 E0.79097
G1 X-14.573 Y9.889 E0.07121
G1 X-7.415 Y17.047 E0.79097
G1 X-7.415 Y16.135 E0.07121
G1 X-14.573 Y8.978 E0.79097
G1 X-14.573 Y8.066 E0.07121
G1 X-7.415 Y15.224 E0.79097
G1 X-7.415 Y14.313 E0.07121
G1 X-14.573 Y7.155 E0.79097
G1 X-14.573 Y6.243 E0.07121
G1 X-7.415 Y13.401 E0.79097
G1 X-7.415 Y12.490 E0.07121
G1 X-14.573 Y5.332 E0.79097
G1 X-14.573 Y4.421 E0.07121
G1 X-7.415 Y11.578 E0.79097
G1 X-7.415 Y10.667 E0.07121
G1 X-14.573 Y3.509 E0.79097
G1 X-14.573 Y2.598 E0.07121
G1 X-7.415 Y9.756 E0.79097
G1 X-7.415 Y8.844 E0.07121
G1 X-14.104 Y2.155 E0.73921
G1 X-13.193 Y2.155 E0.07121
G1 X-7.415 Y7.933 E0.63850
G1 X-7.415 Y7.021 E0.07121
G1 X-12.282 Y2.155 E0.53778
G1 X-11.370 Y2.155 E0.07121
G1 X-7.415 Y6.110 E0.43707
G1 X-7.415 Y5.199 E0.07121
G1 X-10.459 Y2.155 E0.33636
G1 X-9.547 Y2.155 E0.07121
G1 X-7.415 Y4.287 E0.23565
G1 X-7.415 Y3.376 E0.07121
G1 X-8.636 Y2.155 E0.13493
G1 X-7.725 Y2.155 E0.07121
G1 X-7.415 Y2.464 E0.03422
G1 E-3.50000 F1500.00000
G1 Z0.700 F15000.000
G1 X-4.232 Y13.612 F15000.000
G1 Z0.300 F15000.000
G1 E3.50000 F1500.00000
G1 X-4.232 Y1.503 E0.93320 F720.000
G1 X3.697 Y1.503 E0.61103
G1 X3.697 Y19.431 E1.38169
G1 X-4.232 Y19.431 E0.61103 F720.000
G1 X-4.232 Y13.672 E0.44386
G1 X-4.868 Y13.672 F15000.000
G1 X-4.868 Y0.867 E0.98681 F720.000
G1 X4.332 Y0.867 E0.70900
G1 X4.332 Y20.067 E1.47966
G1 X-4.868 Y20.067 E0.70900 F720.000
G1 X-4.868 Y13.732 E0.48822
G1 X-4.521 Y13.472 F15000.000
G1 X-3.847 Y18.736 F15000.000
G1 X-3.537 Y19.046 E0.03422 F960.000
G1 X-2.625 Y19.046 E0.07121
G1 X-3.847 Y17.825 E0.13493
G1 X-3.847 Y16.914 E0.07121
G1 X-1.714 Y19.046 E0.23564
G1 X-0.803 Y19.046 E0.07121
G1 X-3.847 Y16.002 E0.33636
G1 X-3.847 Y15.091 E0.07121
G1 X0.109 Y19.046 E0.43707
G1 X1.020 Y19.046 E0.07121
G1 X-3.847 Y14.179 E0.53778
G1 X-3.847 Y13.268 E0.07121
G1 X1.932 Y19.046 E0.63850
G1 X2.843 Y19.046 E0.07121
G1 X-3.847 Y12.356 E0.73921
G1 X-3.847 Y11.445 E0.07121
G1 X3.311 Y18.603 E0.79097
G1 X3.311 Y17.692 E0.07121
G1 X-3.847 Y10.534 E0.79097
G1 X-3.847 Y9.622 E0.07121
G1 X3.311 Y16.780 E0.79097
G1 X3.311 Y15.869 E0.07121
G1 X-3.847 Y8.711 E0.79097
G1 X-3.847 Y7.799 E0.07121
G1 X3.311 Y14.957 E0.79097
G1 X3.311 Y14.046 E0.07121
G1 X-3.847 Y6.888 E0.79097
G1 X-3.847 Y5.977 E0.07121
G1 X3.311 Y13.135 E0.79097
G1 X3.311 Y12.223 E0.07121
G1 X-3.847 Y5.065 E0.79097
G1 X-3.847 Y4.154 E0.07121
G1 X3.311 Y11.312 E0.79097
G1 X3.311 Y10.400 E0.07121
G1 X-3.847 Y3.242 E0.79097
G1 X-3.847 Y2.331 E0.07121
G1 X3.311 Y9.489 E0.79097
G1 X3.311 Y8.578 E0.07121
G1 X-3.378 Y1.888 E0.73921
G1 X-2.467 Y1.888 E0.07121
G1 X3.311 Y7.666 E0.63850
G1 X3.311 Y6.755 E0.07121
G1 X-1.555 Y1.888 E0.53778
G1 X-0.644 Y1.888 E0.07121
G1 X3.311 Y5.843 E0.43707
G1 X3.311 Y4.932 E0.07121
G1 X0.268 Y1.888 E0.33636
G1 X1.179 Y1.888 E0.07121
G1 X3.311 Y4.021 E0.23565
G1 X3.311 Y3.109 E0.07121
G1 X2.090 Y1.888 E0.13493
G1 X3.002 Y1.888 E0.07121
G1 X3.311 Y2.198 E0.03422
G1 E-3.50000 F1500.00000
G1 Z0.700 F15000.000
G1 X14.958 Y7.738 F15000.000
G1 Z0.300 F15000.000
G1 E3.50000 F1500.00000
G1 X14.958 Y19.273 E0.88893 F720.000
G1 X7.030 Y19.273 E0.61103 F720.000
G1 X7.030 Y1.344 E1.38169
G1 X14.958 Y1.344 E0.61103
G1 X14.958 Y7.678 E0.48813
G1 X15.594 Y7.678 F15000.000
G1 X15.594 Y19.909 E0.94254 F720.000
G1 X6.394 Y19.909 E0.70900 F720.000
G1 X6.394 Y0.709 E1.47966
G1 X15.594 Y0.709 E0.70900
G1 X15.594 Y7.618 E0.53249
G1 X15.248 Y7.878 F15000.000
G1 X14.573 Y2.039 F15000.000
G1 X14.263 Y1.730 E0.03422 F960.000
G1 X13.352 Y1.730 E0.07121
G1 X14.573 Y2.951 E0.13493
G1 X14.573 Y3.862 E0.07121
G1 X12.440 Y1.730 E0.23565
G1 X11.529 Y1.730 E0.07121
G1 X14.573 Y4.774 E0.33636
G1 X14.573 Y5.685 E0.07121
G1 X10.618 Y1.730 E0.43707
G1 X9.706 Y1.730 E0.07121
G1 X14.573 Y6.596 E0.53778
G1 X14.573 Y7.508 E0.07121
G1 X8.795 Y1.730 E0.63850
G1 X7.883 Y1.730 E0.07121
G1 X14.573 Y8.419 E0.73921
G1 X14.573 Y9.331 E0.07121
G1 X7.415 Y2.173 E0.79097
G1 X7.415 Y3.084 E0.07121
G1 X14.573 Y10.242 E0.79097
G1 X14.573 Y11.153 E0.07121
G1 X7.415 Y3.995 E0.79097
G1 X7.415 Y4.907 E0.07121
G1 X14.573 Y12.065 E0.79097
G1 X14.573 Y12.976 E0.07121
G1 X7.415 Y5.818 E0.79097
G1 X7.415 Y6.730 E0.07121
G1 X14.573 Y13.888 E0.79097
G1 X14.573 Y14.799 E0.07121
G1 X7.415 Y7.641 E0.79097
G1 X7.415 Y8.552 E0.07121
G1 X14.573 Y15.710 E0.79097
G1 X14.573 Y16.622 E0.07121
G1 X7.415 Y9.464 E0.79097
G1 X7.415 Y10.375 E0.07121
G1 X14.573 Y17.533 E0.79097
G1 X14.573 Y18.445 E0.07121
G1 X7.415 Y11.287 E0.79097
G1 X7.415 Y12.198 E0.07121
G1 X14.104 Y18.888 E0.73921
G1 X13.193 Y18.888 E0.07121
G1 X7.415 Y13.109 E0.63850
G1 X7.415 Y14.021 E0.07121
G1 X12.282 Y18.888 E0.53778
G1 X11.370 Y18.888 E0.07121
G1 X7.415 Y14.932 E0.43707
G1 X7.415 Y15.844 E0.07121
G1 X10.459 Y18.888 E0.33636
G1 X9.547 Y18.888 E0.07121
G1 X7.415 Y16.755 E0.23564
G1 X7.415 Y17.667 E0.07121
G1 X8.636 Y18.888 E0.13493
G1 X7.725 Y18.888 E0.07121
G1 X7.415 Y18.578 E0.03422
G1 E-3.50000 F1500.00000
G1 Z0.700 F15000.000
G1 X6.884 Y-6.909 F15000.000
G1 Z0.300 F15000.000
G1 E3.50000 F1500.00000
G1 X6.884 Y-19.698 E0.98559 F720.000
G1 X14.813 Y-19.698 E0.61103
G1 X14.813 Y-1.769 E1.38169
G1 X6.884 Y-1.769 E0.61103 F720.000
G1 X6.884 Y-6.849 E0.39147
G1 X6.249 Y-6.849 F15000.000
G1 X6.249 Y-20.334 E1.03920 F720.000
G1 X15.449 Y-20.334 E0.70900
G1 X15.449 Y-1.134 E1.47966
G1 X6.249 Y-1.134 E0.70900 F720.000
G1 X6.249 Y-6.789 E0.43583
G1 X6.595 Y-7.049 F15000.000
G1 X7.270 Y-2.464 F15000.000
G1 X7.579 Y-2.155 E0.03422 F960.000
G1 X8.491 Y-2.155 E0.07121
G1 X7.270 Y-3.376 E0.13493
G1 X7.270 Y-4.287 E0.07121
G1 X9.402 Y-2.155 E0.23564
G1 X10.313 Y-2.155 E0.07121
G1 X7.270 Y-5.199 E0.33636
G1 X7.270 Y-6.110 E0.07121
G1 X11.225 Y-2.155 E0.43707
G1 X12.136 Y-2.155 E0.07121
G1 X7.270 Y-7.021 E0.53778
G1 X7.270 Y-7.933 E0.07121
G1 X13.048 Y-2.155 E0.63850
G1 X13.959 Y-2.155 E0.07121
G1 X7.270 Y-8.844 E0.73921
G1 X7.270 Y-9.756 E0.07121
G1 X14.428 Y-2.598 E0.79097
G1 X14.428 Y-3.509 E0.07121
G1 X7.270 Y-10.667 E0.79097
G1 X7.270 Y-11.578 E0.07121
G1 X14.428 Y-4.421 E0.79097
G1 X14.428 Y-5.332 E0.07121
G1 X7.270 Y-12.490 E0.79097
G1 X7.270 Y-13.401 E0.07121
G1 X14.428 Y-6.243 E0.79097
G1 X14.428 Y-7.155 E0.07121
G1 X7.270 Y-14.313 E0.79097
G1 X7.270 Y-15.224 E0.07121
G1 X14.428 Y-8.066 E0.79097
G1 X14.428 Y-8.978 E0.07121
G1 X7.270 Y-16.135 E0.79097
G1 X7.270 Y-17.047 E0.07121
G1 X14.428 Y-9.889 E0.79097
G1 X14.428 Y-10.800 E0.07121
G1 X7.270 Y-17.958 E0.79097
G1 X7.270 Y-18.870 E0.07121
G1 X14.428 Y-11.712 E0.79097
G1 X14.428 Y-12.623 E0.07121
G1 X7.738 Y-19.313 E0.73921
G1 X8.649 Y-19.313 E0.07121
G1 X14.428 Y-13.535 E0.63850
G1 X14.428 Y-14.446 E0.07121
G1 X9.561 Y-19.313 E0.53778
G1 X10.472 Y-19.313 E0.07121
G1 X14.428 Y-15.357 E0.43707
G1 X14.428 Y-16.269 E0.07121
G1 X11.384 Y-19.313 E0.33636
G1 X12.295 Y-19.313 E0.07121
G1 X14.428 Y-17.180 E0.23565
G1 X14.428 Y-18.092 E0.07121
G1 X13.206 Y-19.313 E0.13493
G1 X14.118 Y-19.313 E0.07121
G1 X14.428 Y-19.003 E0.03422
G1 E-3.50000 F1500.00000
G1 Z0.700 F15000.000
G1 X-4.567 Y-14.411 F15000.000
G1 Z0.500 F15000.000
G1 E3.50000 F1500.00000
G1 X-4.567 Y-19.652 E0.15127 F3600.000
G1 X4.219 Y-19.652 E0.25358
G1 X4.219 Y-0.867 E0.54221
G1 X-4.567 Y-0.867 E0.25358 F3600.000
G1 X-4.567 Y-14.351 E0.38921
G1 X-4.924 Y-14.351 F15000.000
G1 X-4.924 Y-20.010 E0.16331 F3600.000
G1 X4.576 Y-20.010 E0.27420
G1 X4.576 Y-0.510 E0.56282
G1 X-4.924 Y-0.510 E0.27420 F3600.000
G1 X-4.924 Y-14.291 E0.39778
G1 X-4.578 Y-14.551 F15000.000
G1 X-4.168 Y-19.445 F15000.000
G1 X-4.359 Y-19.253 E0.00784 F4800.000
G1 X-4.359 Y-18.746 E0.01468
G1 X-3.661 Y-19.445 E0.02861
G1 X-3.154 Y-19.445 E0.01468
G1 X-4.359 Y-18.240 E0.04938
G1 X-4.359 Y-17.733 E0.01468
G1 X-2.647 Y-19.445 E0.07015
G1 X-2.140 Y-19.445 E0.01468
G1 X-4.359 Y-17.226 E0.09091
G1 X-4.359 Y-16.719 E0.01468
G1 X-1.634 Y-19.445 E0.11168
G1 X-1.127 Y-19.445 E0.01468
G1 X-4.359 Y-16.212 E0.13245
G1 X-4.359 Y-15.705 E0.01468
G1 X-0.620 Y-19.445 E0.15322
G1 X-0.113 Y-19.445 E0.01468
G1 X-4.359 Y-15.198 E0.17398
G1 X-4.359 Y-14.691 E0.01468
G1 X0.394 Y-19.445 E0.19475
G1 X0.901 Y-19.445 E0.01468
G1 X-4.359 Y-14.184 E0.21552
G1 X-4.359 Y-13.678 E0.01468
G1 X1.408 Y-19.445 E0.23628
G1 X1.915 Y-19.445 E0.01468
G1 X-4.359 Y-13.171 E0.25705
G1 X-4.359 Y-12.664 E0.01468
G1 X2.421 Y-19.445 E0.27782
G1 X2.928 Y-19.445 E0.01468
G1 X-4.359 Y-12.157 E0.29859
G1 X-4.359 Y-11.650 E0.01468
G1 X3.435 Y-19.445 E0.31935
G1 X3.942 Y-19.445 E0.01468
G1 X-4.359 Y-11.143 E0.34012
G1 X-4.359 Y-10.636 E0.01468
G1 X4.011 Y-19.007 E0.34294
G1 X4.011 Y-18.500 E0.01468
G1 X-4.359 Y-10.129 E0.34294
G1 X-4.359 Y-9.623 E0.01468
G1 X4.011 Y-17.993 E0.34294
G1 X4.011 Y-17.486 E0.01468
G1 X-4.359 Y-9.116 E0.34294
G1 X-4.359 Y-8.609 E0.01468
G1 X4.011 Y-16.979 E0.34294
G1 X4.011 Y-16.472 E0.01468
G1 X-4.359 Y-8.102 E0.34294
G1 X-4.359 Y-7.595 E0.01468
G1 X4.011 Y-15.965 E0.34294
G1 X4.011 Y-15.459 E0.01468
G1 X-4.359 Y-7.088 E0.34294
G1 X-4.359 Y-6.581 E0.01468
G1 X4.011 Y-14.952 E0.34294
G1 X4.011 Y-14.445 E0.01468
G1 X-4.359 Y-6.074 E0.34294
G1 X-4.359 Y-5.568 E0.01468
G1 X4.011 Y-13.938 E0.34294
G1 X4.011 Y-13.431 E0.01468
G1 X-4.359 Y-5.061 E0.34294
G1 X-4.359 Y-4.554 E0.01468
G1 X4.011 Y-12.924 E0.34294
G1 X4.011 Y-12.417 E0.01468
G1 X-4.359 Y-4.047 E0.34294
G1 X-4.359 Y-3.540 E0.01468
G1 X4.011 Y-11.910 E0.34294
G1 X4.011 Y-11.403 E0.01468
G1 X-4.359 Y-3.033 E0.34294
G1 X-4.359 Y-2.526 E0.01468
G1 X4.011 Y-10.897 E0.34294
G1 X4.011 Y-10.390 E0.01468
G1 X-4.359 Y-2.019 E0.34294
G1 X-4.359 Y-1.512 E0.01468
G1 X4.011 Y-9.883 E0.34294
G1 X4.011 Y-9.376 E0.01468
G1 X-4.291 Y-1.074 E0.34012
G1 X-3.784 Y-1.074 E0.01468
G1 X4.011 Y-8.869 E0.31936
G1 X4.011 Y-8.362 E0.01468
G1 X-3.277 Y-1.074 E0.29859
G1 X-2.770 Y-1.074 E0.01468
G1 X4.011 Y-7.855 E0.27782
G1 X4.011 Y-7.348 E0.01468
G1 X-2.263 Y-1.074 E0.25705
