; generated by Slic3r 1.2.9 on 2019-10-26 at 13:11:01

; external perimeters extrusion width = 0.40mm
; perimeters extrusion width = 0.40mm
; infill extrusion width = 0.40mm
; solid infill extrusion width = 0.40mm
; top infill extrusion width = 0.40mm

M107
M83
T0
M116
G21 ; set units to millimeters
G90 ; use absolute coordinates
M83 ; use relative distances for extrusion
G1 E-3.50000 F1500.00000
G1 Z0.400 F15000.000
G1 X0.000 Y-21.236 F15000.000
G1 Z0.300 F15000.000
G1 E3.50000 F1500.00000
G1 X23.950 Y-21.236 E1.84572 F960.000
G1 X25.007 Y-20.848 E0.08680
G1 X25.586 Y-19.600 E0.10599 F960.000
G1 X25.586 Y20.950 E3.12501
G1 X25.198 Y22.007 E0.08680
G1 X23.950 Y22.586 E0.10599
G1 X-23.950 Y22.586 E3.69144
G1 X-25.007 Y22.198 E0.08680
G1 X-25.586 Y20.950 E0.10599
G1 X-25.586 Y-19.600 E3.12501
G1 X-25.198 Y-20.657 E0.08680
G1 X-23.950 Y-21.236 E0.10599
G1 X-0.060 Y-21.236 E1.84109
G1 E-3.50000 F1500.00000
G1 Z0.700 F15000.000
G1 X2.550 Y1.580 F15000.000
G1 Z0.300 F15000.000
G1 E3.50000 F1500.00000
G1 X4.450 Y1.580 E0.14642 F600.000
G1 X4.450 Y3.780 E0.16954
G1 X2.550 Y3.780 E0.14642
G1 X2.550 Y1.640 E0.16492
G1 X2.550 Y1.180 F15000.000
G1 X0.512 Y0.867 F15000.000
G1 X0.186 Y1.360 E0.04552 F600.000
G1 X-0.220 Y1.720 E0.04186
G1 X-0.701 Y1.972 E0.04186
G1 X-1.228 Y2.102 E0.04186
G1 X-1.772 Y2.102 E0.04186
G1 X-2.299 Y1.972 E0.04186
G1 X-2.780 Y1.720 E0.04186
G1 X-3.186 Y1.360 E0.04186
G1 X-3.495 Y0.913 E0.04186
G1 X-3.687 Y0.405 E0.04186
G1 X-3.753 Y-0.134 E0.04186
G1 X-3.687 Y-0.673 E0.04186
G1 X-3.495 Y-1.181 E0.04186
G1 X-3.186 Y-1.628 E0.04186
G1 X-2.780 Y-1.988 E0.04186
G1 X-2.299 Y-2.241 E0.04186
G1 X-1.772 Y-2.371 E0.04186
G1 X-1.228 Y-2.371 E0.04186 F600.000
G1 X-0.701 Y-2.241 E0.04186
G1 X-0.220 Y-1.988 E0.04186
G1 X0.186 Y-1.628 E0.04186
G1 X0.495 Y-1.181 E0.04186
G1 X0.687 Y-0.673 E0.04186
G1 X0.753 Y-0.134 E0.04186
G1 X0.687 Y0.405 E0.04186
G1 X0.533 Y0.811 E0.03346
G1 X0.717 Y1.211 F15000.000
G1 E-3.50000 F1500.00000
G1 Z0.700 F15000.000
G1 X0.013 Y-2.600 F15000.000
G1 X0.179 Y-2.558 F15000.000
G1 X1.351 Y-2.051 F15000.000
G1 X1.554 Y0.930 F15000.000
G1 X-0.132 Y3.226 F15000.000
G1 X-2.868 Y3.226 F15000.000
G1 X-4.184 Y2.367 F15000.000
G1 X-4.626 Y-0.945 F15000.000
G1 X-3.959 Y-2.257 F15000.000
G1 X-3.179 Y-2.558 F15000.000
G1 X-3.170 Y-2.561 F15000.000
G1 X-3.013 Y-2.600 F15000.000
G1 X-3.032 Y-2.614 F15000.000
G1 Z0.300 F15000.000
G1 E3.50000 F1500.00000
G1 X-3.666 Y-2.053 E0.06528 F720.000
G1 X-4.062 Y-1.479 E0.05375 F720.000
G1 X-4.309 Y-0.826 E0.05375
G1 X-4.393 Y-0.134 E0.05375
G1 X-4.309 Y0.558 E0.05375
G1 X-4.062 Y1.210 E0.05375
G1 X-3.666 Y1.784 E0.05375
G1 X-3.144 Y2.247 E0.05375
G1 X-2.526 Y2.571 E0.05375
G1 X-1.849 Y2.738 E0.05375
G1 X-1.151 Y2.738 E0.05375
G1 X-0.474 Y2.571 E0.05375
G1 X0.144 Y2.247 E0.05375
G1 X0.666 Y1.784 E0.05375
G1 X1.062 Y1.210 E0.05375
G1 X1.309 Y0.558 E0.05375
G1 X1.393 Y-0.134 E0.05375
G1 X1.309 Y-0.826 E0.05375
G1 X1.062 Y-1.479 E0.05375
G1 X0.666 Y-2.053 E0.05375
G1 X0.032 Y-2.614 E0.06528
G1 X1.914 Y-2.614 E0.14510
G1 X1.914 Y-0.664 E0.15028
G1 X4.964 Y-0.664 E0.23505
G1 X4.964 Y0.944 E0.12398
G1 X1.914 Y0.944 E0.23505
G1 X1.914 Y3.964 E0.23274
G1 X-4.964 Y3.964 E0.53012
G1 X-4.964 Y-2.614 E0.50700
G1 X-3.092 Y-2.614 E0.14433
G1 X-3.092 Y-3.250 F15000.000
G1 X2.550 Y-3.250 E0.43477 F720.000
G1 X2.550 Y-1.300 E0.15028
G1 X4.450 Y-1.300 E0.14642 F720.000
G1 X4.450 Y-3.250 E0.15028
G1 X5.600 Y-3.250 E0.08863
G1 X5.600 Y4.600 E0.60496
G1 X-5.600 Y4.600 E0.86313
G1 X-5.600 Y-3.250 E0.60496
G1 X-3.152 Y-3.250 E0.18869
G1 X-2.892 Y-2.904 F15000.000
G1 X-2.836 Y-2.339 F15000.000
G1 X-2.447 Y-2.607 E0.03634 F960.000
G1 X-2.133 Y-2.773 E0.02740
G1 X-1.810 Y-2.810 E0.02506
G1 X-1.190 Y-2.810 E0.04780
G1 X-0.867 Y-2.773 E0.02506
G1 X-0.553 Y-2.607 E0.02740
G1 X-0.164 Y-2.339 E0.03634
G1 X1.219 Y-2.229 F15000.000
G1 X1.529 Y-1.919 E0.03375 F960.000
G1 X1.680 Y0.140 F15000.000
G1 X4.647 Y0.140 E0.48038 F960.000
G1 X5.025 Y-0.982 F15000.000
G1 X5.025 Y-2.932 E0.31577 F960.000
G1 X5.025 Y1.262 F15000.000
G1 X5.025 Y4.282 E0.48905 F960.000
G1 X4.325 Y4.190 F15000.000
G1 X2.232 Y4.190 E0.16128 F960.000
G1 X0.448 Y3.579 F15000.000
G1 X0.136 Y3.266 E0.03532 F960.000
G1 X0.327 Y2.525 E0.06113
G1 X1.380 Y3.579 E0.11903
G1 X1.529 Y2.796 E0.06369
G1 X0.821 Y2.088 E0.08001
G1 X1.225 Y1.560 E0.05311
G1 X1.529 Y1.864 E0.03436
G1 X-0.272 Y3.253 F15000.000
G1 X-1.113 Y3.351 E0.13713 F960.000
G1 X-1.887 Y3.351 E0.12545
G1 X-2.728 Y3.253 E0.13713
G1 X-3.401 Y2.634 F15000.000
G1 X-3.067 Y2.969 E0.03675 F960.000
G1 X-3.363 Y3.579 E0.05269
G1 X-4.579 Y2.363 E0.13361
G1 X-4.546 Y1.489 E0.06793
G1 X-4.267 Y1.769 E0.03075
G1 X-4.579 Y3.269 F15000.000
G1 X-4.269 Y3.579 E0.03403 F960.000
G1 X-4.158 Y-1.925 F15000.000
G1 X-4.462 Y-2.229 E0.03314 F960.000
G1 E-3.50000 F1500.00000
G1 Z0.700 F15000.000
G1 X-6.364 Y-5.950 F15000.000
G1 X-6.364 Y-5.950 F15000.000
G1 X-6.364 Y-8.000 F15000.000
G1 X-6.364 Y-10.050 F15000.000
G1 X2.550 Y-12.220 F15000.000
G1 Z0.300 F15000.000
G1 E3.50000 F1500.00000
G1 X2.550 Y-14.420 E0.16954 F600.000
G1 X4.450 Y-14.420 E0.14642 F600.000
G1 X4.450 Y-12.220 E0.16954
G1 X2.610 Y-12.220 E0.14180
G1 X2.150 Y-12.220 F15000.000
G1 X0.186 Y-14.640 F15000.000
G1 X-0.220 Y-14.280 E0.04186 F600.000
G1 X-0.701 Y-14.028 E0.04186
G1 X-1.228 Y-13.898 E0.04186
G1 X-1.772 Y-13.898 E0.04186
G1 X-2.299 Y-14.028 E0.04186
G1 X-2.780 Y-14.280 E0.04186
G1 X-3.186 Y-14.640 E0.04186
G1 X-3.495 Y-15.087 E0.04186
G1 X-3.687 Y-15.595 E0.04186
G1 X-3.753 Y-16.134 E0.04186
G1 X-3.687 Y-16.673 E0.04186
G1 X-3.495 Y-17.181 E0.04186
G1 X-3.186 Y-17.628 E0.04186
G1 X-2.780 Y-17.988 E0.04186
G1 X-2.299 Y-18.241 E0.04186
G1 X-1.772 Y-18.371 E0.04186
G1 X-1.228 Y-18.371 E0.04186 F600.000
G1 X-0.701 Y-18.241 E0.04186
G1 X-0.220 Y-17.988 E0.04186
G1 X0.186 Y-17.628 E0.04186
G1 X0.495 Y-17.181 E0.04186
G1 X0.687 Y-16.673 E0.04186
G1 X0.753 Y-16.134 E0.04186
G1 X0.687 Y-15.595 E0.04186
G1 X0.495 Y-15.087 E0.04186
G1 X0.220 Y-14.690 E0.03723
G1 X0.298 Y-14.256 F15000.000
G1 X-3.056 Y-12.036 F15000.000
G1 X-4.964 Y-12.036 E0.14710 F720.000
G1 X-4.964 Y-18.614 E0.50700
G1 X-3.032 Y-18.614 E0.14895
G1 X-3.666 Y-18.053 E0.06528
G1 X-4.062 Y-17.479 E0.05375 F720.000
G1 X-4.309 Y-16.826 E0.05375
G1 X-4.393 Y-16.134 E0.05375
G1 X-4.309 Y-15.442 E0.05375
G1 X-4.062 Y-14.790 E0.05375
G1 X-3.666 Y-14.216 E0.05375
G1 X-3.144 Y-13.753 E0.05375
G1 X-2.526 Y-13.429 E0.05375
G1 X-1.849 Y-13.262 E0.05375
G1 X-1.151 Y-13.262 E0.05375
G1 X-0.474 Y-13.429 E0.05375
G1 X0.144 Y-13.753 E0.05375
G1 X0.666 Y-14.216 E0.05375
G1 X0.874 Y-14.517 E0.02827
G1 X1.062 Y-14.790 E0.02548
G1 X1.309 Y-15.442 E0.05375
G1 X1.393 Y-16.134 E0.05375
G1 X1.309 Y-16.826 E0.05375
G1 X1.062 Y-17.479 E0.05375
G1 X0.666 Y-18.053 E0.05375
G1 X0.032 Y-18.614 E0.06528
G1 X1.914 Y-18.614 E0.14510
G1 X1.914 Y-16.664 E0.15028
G1 X4.964 Y-16.664 E0.23505
G1 X4.964 Y-15.056 E0.12398
G1 X1.914 Y-15.056 E0.23505
G1 X1.914 Y-12.036 E0.23274
G1 X-2.996 Y-12.036 E0.37839
G1 X-2.996 Y-11.400 F15000.000
G1 X-5.600 Y-11.400 E0.20071 F720.000
G1 X-5.600 Y-19.250 E0.60496
G1 X2.550 Y-19.250 E0.62808
G1 X2.550 Y-17.300 E0.15028
G1 X4.450 Y-17.300 E0.14642 F720.000
G1 X4.450 Y-19.250 E0.15028
G1 X5.600 Y-19.250 E0.08863
G1 X5.600 Y-11.400 E0.60496
G1 X-2.936 Y-11.400 E0.65780
G1 X-3.196 Y-11.746 F15000.000
G1 X-2.728 Y-12.747 F15000.000
G1 X-1.887 Y-12.649 E0.13713 F960.000
G1 X-1.113 Y-12.649 E0.12545
G1 X-0.272 Y-12.747 E0.13713
G1 X0.448 Y-12.421 F15000.000
G1 X0.136 Y-12.734 E0.03532 F960.000
G1 X0.327 Y-13.475 E0.06113
G1 X1.380 Y-12.421 E0.11903
G1 X1.529 Y-13.204 E0.06369
G1 X0.821 Y-13.912 E0.08001
G1 X1.225 Y-14.440 E0.05311
G1 X1.529 Y-14.136 E0.03436
G1 X1.680 Y-15.860 F15000.000
G1 X4.647 Y-15.860 E0.48038 F960.000
G1 X5.025 Y-16.982 F15000.000
G1 X5.025 Y-18.932 E0.31577 F960.000
G1 E-3.50000 F1500.00000
G1 Z0.700 F15000.000
G1 X1.900 Y-18.600 F15000.000
G1 X1.351 Y-18.051 F15000.000
G1 X1.447 Y-17.743 F15000.000
G1 X1.529 Y-17.919 F15000.000
G1 Z0.300 F15000.000
G1 E3.50000 F1500.00000
G1 X1.219 Y-18.229 E0.03375 F960.000
G1 X-0.164 Y-18.339 F15000.000
G1 X-0.553 Y-18.607 E0.03634 F960.000
G1 X-0.867 Y-18.773 E0.02740
G1 X-1.190 Y-18.810 E0.02506
G1 X-1.810 Y-18.810 E0.04780
G1 X-2.133 Y-18.773 E0.02506
G1 X-2.447 Y-18.607 E0.02740
G1 X-2.836 Y-18.339 E0.03634
G1 X-4.158 Y-17.925 F15000.000
G1 X-4.462 Y-18.229 E0.03314 F960.000
G1 X-4.267 Y-14.231 F15000.000
G1 X-4.546 Y-14.511 E0.03075 F960.000
G1 X-4.579 Y-13.637 E0.06793
G1 X-3.363 Y-12.421 E0.13361
G1 X-3.067 Y-13.031 E0.05269
G1 X-3.401 Y-13.366 E0.03675
G1 X-4.269 Y-12.421 F15000.000
G1 X-4.579 Y-12.731 E0.03403 F960.000
G1 X2.232 Y-11.810 F15000.000
G1 X4.325 Y-11.810 E0.16128 F960.000
G1 X5.025 Y-11.718 F15000.000
G1 X5.025 Y-14.738 E0.48905 F960.000
G1 E-3.50000 F1500.00000
G1 Z0.700 F15000.000
G1 X6.950 Y-10.636 F15000.000
G1 X9.000 Y-8.586 F15000.000
G1 X9.586 Y-8.000 F15000.000
G1 X11.636 Y-10.050 F15000.000
G1 X20.550 Y-14.420 F15000.000
G1 Z0.300 F15000.000
G1 E3.50000 F1500.00000
G1 X22.450 Y-14.420 E0.14642 F600.000
G1 X22.450 Y-12.220 E0.16954
G1 X20.550 Y-12.220 E0.14642
G1 X20.550 Y-14.360 E0.16492
G1 X20.550 Y-14.820 F15000.000
G1 X18.512 Y-15.133 F15000.000
G1 X18.186 Y-14.640 E0.04552 F600.000
G1 X17.780 Y-14.280 E0.04186
G1 X17.299 Y-14.028 E0.04186
G1 X16.772 Y-13.898 E0.04186
G1 X16.228 Y-13.898 E0.04186
G1 X15.701 Y-14.028 E0.04186
G1 X15.220 Y-14.280 E0.04186
G1 X14.814 Y-14.640 E0.04186
G1 X14.505 Y-15.087 E0.04186
G1 X14.313 Y-15.595 E0.04186
G1 X14.247 Y-16.134 E0.04186
G1 X14.313 Y-16.673 E0.04186
G1 X14.505 Y-17.181 E0.04186
G1 X14.814 Y-17.628 E0.04186
G1 X15.220 Y-17.988 E0.04186
G1 X15.701 Y-18.241 E0.04186
G1 X16.228 Y-18.371 E0.04186
G1 X16.772 Y-18.371 E0.04186 F600.000
G1 X17.299 Y-18.241 E0.04186
G1 X17.780 Y-17.988 E0.04186
G1 X18.186 Y-17.628 E0.04186
G1 X18.495 Y-17.181 E0.04186
G1 X18.687 Y-16.673 E0.04186
G1 X18.753 Y-16.134 E0.04186
G1 X18.687 Y-15.595 E0.04186
G1 X18.533 Y-15.189 E0.03346
G1 X18.717 Y-14.789 F15000.000
G1 X19.914 Y-12.036 F15000.000
G1 X13.036 Y-12.036 E0.53012 F720.000
G1 X13.036 Y-18.614 E0.50700
G1 X14.968 Y-18.614 E0.14895
G1 X14.334 Y-18.053 E0.06528
G1 X13.938 Y-17.479 E0.05375 F720.000
G1 X13.691 Y-16.826 E0.05375
G1 X13.607 Y-16.134 E0.05375
G1 X13.691 Y-15.442 E0.05375
G1 X13.938 Y-14.790 E0.05375
G1 X14.334 Y-14.216 E0.05375
G1 X14.856 Y-13.753 E0.05375
G1 X15.474 Y-13.429 E0.05375
G1 X16.151 Y-13.262 E0.05375
G1 X16.849 Y-13.262 E0.05375
G1 X17.526 Y-13.429 E0.05375
G1 X18.144 Y-13.753 E0.05375
G1 X18.666 Y-14.216 E0.05375
G1 X18.874 Y-14.517 E0.02827
G1 X19.062 Y-14.790 E0.02548
G1 X19.309 Y-15.442 E0.05375
G1 X19.393 Y-16.134 E0.05375
G1 X19.309 Y-16.826 E0.05375
G1 X19.062 Y-17.479 E0.05375
G1 X18.666 Y-18.053 E0.05375
G1 X18.032 Y-18.614 E0.06528
G1 X19.914 Y-18.614 E0.14510
G1 X19.914 Y-16.664 E0.15028
G1 X22.964 Y-16.664 E0.23505
G1 X22.964 Y-15.056 E0.12398
G1 X19.914 Y-15.056 E0.23505
G1 X19.914 Y-12.096 E0.22811
G1 X19.914 Y-11.400 F15000.000
G1 X12.400 Y-11.400 E0.57910 F720.000
G1 X12.400 Y-19.250 E0.60496
G1 X20.550 Y-19.250 E0.62808
G1 X20.550 Y-17.300 E0.15028
G1 X22.450 Y-17.300 E0.14642 F720.000
G1 X22.450 Y-19.250 E0.15028
G1 X23.600 Y-19.250 E0.08863
G1 X23.600 Y-11.400 E0.60496
G1 X19.974 Y-11.400 E0.27941
G1 X19.714 Y-11.746 F15000.000
G1 X20.232 Y-11.810 F15000.000
G1 X22.325 Y-11.810 E0.16128 F960.000
G1 X23.025 Y-11.718 F15000.000
G1 X23.025 Y-14.738 E0.48905 F960.000
G1 X22.647 Y-15.860 F15000.000
G1 X19.680 Y-15.860 E0.48038 F960.000
G1 X19.529 Y-14.136 F15000.000
G1 X19.225 Y-14.440 E0.03436 F960.000
G1 X18.821 Y-13.912 E0.05311
G1 X19.529 Y-13.204 E0.08001
G1 X19.380 Y-12.421 E0.06369
G1 X18.327 Y-13.475 E0.11903
G1 X18.136 Y-12.734 E0.06113
G1 X18.448 Y-12.421 E0.03532
G1 X17.728 Y-12.747 F15000.000
G1 X16.887 Y-12.649 E0.13713 F960.000
G1 X16.113 Y-12.649 E0.12545
G1 X15.272 Y-12.747 E0.13713
G1 X14.599 Y-13.366 F15000.000
G1 X14.933 Y-13.031 E0.03675 F960.000
G1 X14.637 Y-12.421 E0.05269
G1 X13.421 Y-13.637 E0.13361
G1 X13.454 Y-14.511 E0.06793
G1 X13.733 Y-14.231 E0.03075
G1 X13.421 Y-12.731 F15000.000
G1 X13.731 Y-12.421 E0.03403 F960.000
G1 X13.842 Y-17.925 F15000.000
G1 X13.538 Y-18.229 E0.03314 F960.000
G1 X15.164 Y-18.339 F15000.000
G1 X15.553 Y-18.607 E0.03634 F960.000
G1 X15.867 Y-18.773 E0.02740
G1 X16.190 Y-18.810 E0.02506
G1 X16.810 Y-18.810 E0.04780
G1 X17.133 Y-18.773 E0.02506
G1 X17.447 Y-18.607 E0.02740
G1 X17.836 Y-18.339 E0.03634
G1 X19.219 Y-18.229 F15000.000
G1 X19.529 Y-17.919 E0.03375 F960.000
G1 X23.025 Y-16.982 F15000.000
G1 X23.025 Y-18.932 E0.31577 F960.000
G1 E-3.50000 F1500.00000
G1 Z0.700 F15000.000
G1 X24.364 Y-10.050 F15000.000
G1 X24.844 Y-8.000 F15000.000
G1 X25.778 Y-6.193 F15000.000
G1 X24.950 Y-5.364 F15000.000
G1 X22.450 Y1.580 F15000.000
G1 Z0.300 F15000.000
G1 E3.50000 F1500.00000
G1 X22.450 Y3.780 E0.16954 F600.000
G1 X20.550 Y3.780 E0.14642
G1 X20.550 Y1.580 E0.16954
G1 X22.390 Y1.580 E0.14180 F600.000
G1 X22.850 Y1.580 F15000.000
G1 X18.687 Y0.405 F15000.000
G1 X18.495 Y0.913 E0.04186 F600.000
G1 X18.186 Y1.360 E0.04186
G1 X17.780 Y1.720 E0.04186
G1 X17.299 Y1.972 E0.04186
G1 X16.772 Y2.102 E0.04186
G1 X16.228 Y2.102 E0.04186
G1 X15.701 Y1.972 E0.04186
G1 X15.220 Y1.720 E0.04186
G1 X14.814 Y1.360 E0.04186
G1 X14.505 Y0.913 E0.04186
G1 X14.313 Y0.405 E0.04186
G1 X14.247 Y-0.134 E0.04186
G1 X14.313 Y-0.673 E0.04186
G1 X14.505 Y-1.181 E0.04186
G1 X14.814 Y-1.628 E0.04186
G1 X15.220 Y-1.988 E0.04186
G1 X15.701 Y-2.241 E0.04186
G1 X16.228 Y-2.371 E0.04186
G1 X16.772 Y-2.371 E0.04186 F600.000
G1 X17.299 Y-2.241 E0.04186
G1 X17.780 Y-1.988 E0.04186
G1 X18.186 Y-1.628 E0.04186
G1 X18.495 Y-1.181 E0.04186
G1 X18.687 Y-0.673 E0.04186
G1 X18.753 Y-0.134 E0.04186
G1 X18.695 Y0.345 E0.03723
G1 X18.965 Y0.694 F15000.000
G1 X19.914 Y3.964 F15000.000
G1 X13.036 Y3.964 E0.53012 F720.000
G1 X13.036 Y-2.614 E0.50700
G1 X14.968 Y-2.614 E0.14895
G1 X14.334 Y-2.053 E0.06528
G1 X13.938 Y-1.479 E0.05375 F720.000
G1 X13.691 Y-0.826 E0.05375
G1 X13.607 Y-0.134 E0.05375
G1 X13.691 Y0.558 E0.05375
G1 X13.938 Y1.210 E0.05375
G1 X14.334 Y1.784 E0.05375
G1 X14.856 Y2.247 E0.05375
G1 X15.474 Y2.571 E0.05375
G1 X16.151 Y2.738 E0.05375
G1 X16.849 Y2.738 E0.05375
G1 X17.526 Y2.571 E0.05375
G1 X18.144 Y2.247 E0.05375
G1 X18.666 Y1.784 E0.05375
G1 X18.874 Y1.483 E0.02827
G1 X19.062 Y1.210 E0.02548
G1 X19.309 Y0.558 E0.05375
G1 X19.393 Y-0.134 E0.05375
G1 X19.309 Y-0.826 E0.05375
G1 X19.062 Y-1.479 E0.05375
G1 X18.666 Y-2.053 E0.05375
G1 X18.032 Y-2.614 E0.06528
G1 X19.914 Y-2.614 E0.14510
G1 X19.914 Y-0.664 E0.15028
G1 X22.964 Y-0.664 E0.23505
G1 X22.964 Y0.944 E0.12398
G1 X19.914 Y0.944 E0.23505
G1 X19.914 Y3.904 E0.22811
G1 X19.914 Y4.600 F15000.000
G1 X12.400 Y4.600 E0.57910 F720.000
G1 X12.400 Y-3.250 E0.60496
G1 X20.550 Y-3.250 E0.62808
G1 X20.550 Y-1.300 E0.15028
G1 X22.450 Y-1.300 E0.14642 F720.000
G1 X22.450 Y-3.250 E0.15028
G1 X23.600 Y-3.250 E0.08863
G1 X23.600 Y4.600 E0.60496
G1 X19.974 Y4.600 E0.27941
G1 X19.714 Y4.254 F15000.000
G1 X20.232 Y4.190 F15000.000
G1 X22.325 Y4.190 E0.16128 F960.000
G1 X23.025 Y4.282 F15000.000
G1 X23.025 Y1.262 E0.48905 F960.000
G1 X22.647 Y0.140 F15000.000
G1 X19.680 Y0.140 E0.48038 F960.000
G1 X19.529 Y1.864 F15000.000
G1 X19.225 Y1.560 E0.03436 F960.000
G1 X18.821 Y2.088 E0.05311
G1 X19.529 Y2.796 E0.08001
G1 X19.380 Y3.579 E0.06369
G1 X18.327 Y2.525 E0.11903
G1 X18.136 Y3.266 E0.06113
G1 X18.448 Y3.579 E0.03532
G1 X17.728 Y3.253 F15000.000
G1 X16.887 Y3.351 E0.13713 F960.000
G1 X16.113 Y3.351 E0.12545
G1 X15.272 Y3.253 E0.13713
G1 X14.599 Y2.634 F15000.000
G1 X14.933 Y2.969 E0.03675 F960.000
G1 X14.637 Y3.579 E0.05269
G1 X13.421 Y2.363 E0.13361
G1 X13.454 Y1.489 E0.06793
G1 X13.733 Y1.769 E0.03075
G1 X13.421 Y3.269 F15000.000
G1 X13.731 Y3.579 E0.03403 F960.000
G1 X13.842 Y-1.925 F15000.000
G1 X13.538 Y-2.229 E0.03314 F960.000
G1 X15.164 Y-2.339 F15000.000
G1 X15.553 Y-2.607 E0.03634 F960.000
G1 X15.867 Y-2.773 E0.02740
G1 X16.190 Y-2.810 E0.02506
G1 X16.810 Y-2.810 E0.04780
G1 X17.133 Y-2.773 E0.02506
G1 X17.447 Y-2.607 E0.02740
