; generated by Slic3r 1.2.9 on 2019-10-26 at 12:55:01

; external perimeters extrusion width = 0.40mm
; perimeters extrusion width = 0.40mm
; infill extrusion width = 0.40mm
; solid infill extrusion width = 0.40mm
; top infill extrusion width = 0.40mm

M107
M83
T0
M116
G21 ; set units to millimeters
G90 ; use absolute coordinates
M83 ; use relative distances for extrusion
G1 E-3.50000 F1500.00000
G1 Z0.400 F15000.000
G1 X0.000 Y-5.236 F15000.000
G1 Z0.300 F15000.000
G1 E3.50000 F1500.00000
G1 X5.950 Y-5.236 E0.45854 F2400.000
G1 X7.007 Y-4.848 E0.08680
G1 X7.586 Y-3.600 E0.10599 F2400.000
G1 X7.586 Y4.950 E0.65891
G1 X7.198 Y6.007 E0.08680
G1 X5.950 Y6.586 E0.10599
G1 X-5.950 Y6.586 E0.91708
G1 X-7.007 Y6.198 E0.08680
G1 X-7.586 Y4.950 E0.10599
G1 X-7.586 Y-3.600 E0.65891
G1 X-7.198 Y-4.657 E0.08680
G1 X-5.950 Y-5.236 E0.10599
G1 X-0.060 Y-5.236 E0.45392
G1 E-3.50000 F1500.00000
G1 Z0.700 F15000.000
G1 X2.550 Y1.580 F15000.000
G1 Z0.300 F15000.000
G1 E3.50000 F1500.00000
G1 X4.450 Y1.580 E0.14642 F2400.000
G1 X4.450 Y3.780 E0.16954
G1 X2.550 Y3.780 E0.14642
G1 X2.550 Y1.640 E0.16492
G1 X2.550 Y1.180 F15000.000
G1 X0.512 Y0.867 F15000.000
G1 X0.186 Y1.360 E0.04552 F2400.000
G1 X-0.220 Y1.720 E0.04186
G1 X-0.701 Y1.972 E0.04186
G1 X-1.228 Y2.102 E0.04186
G1 X-1.772 Y2.102 E0.04186
G1 X-2.299 Y1.972 E0.04186
G1 X-2.780 Y1.720 E0.04186
G1 X-3.186 Y1.360 E0.04186
G1 X-3.495 Y0.913 E0.04186
G1 X-3.687 Y0.405 E0.04186
G1 X-3.753 Y-0.134 E0.04186
G1 X-3.687 Y-0.673 E0.04186
G1 X-3.495 Y-1.181 E0.04186
G1 X-3.186 Y-1.628 E0.04186
G1 X-2.780 Y-1.988 E0.04186
G1 X-2.299 Y-2.241 E0.04186
G1 X-1.772 Y-2.371 E0.04186
G1 X-1.228 Y-2.371 E0.04186 F2400.000
G1 X-0.701 Y-2.241 E0.04186
G1 X-0.220 Y-1.988 E0.04186
G1 X0.186 Y-1.628 E0.04186
G1 X0.495 Y-1.181 E0.04186
G1 X0.687 Y-0.673 E0.04186
G1 X0.753 Y-0.134 E0.04186
G1 X0.687 Y0.405 E0.04186
G1 X0.533 Y0.811 E0.03346
G1 X0.717 Y1.211 F15000.000
G1 X1.914 Y3.964 F15000.000
G1 X-4.964 Y3.964 E0.53012 F2400.000
G1 X-4.964 Y-2.614 E0.50700
G1 X-3.032 Y-2.614 E0.14895
G1 X-3.666 Y-2.053 E0.06528
G1 X-4.062 Y-1.479 E0.05375 F2400.000
G1 X-4.309 Y-0.826 E0.05375
G1 X-4.393 Y-0.134 E0.05375
G1 X-4.309 Y0.558 E0.05375
G1 X-4.062 Y1.210 E0.05375
G1 X-3.666 Y1.784 E0.05375
G1 X-3.144 Y2.247 E0.05375
G1 X-2.526 Y2.571 E0.05375
G1 X-1.849 Y2.738 E0.05375
G1 X-1.151 Y2.738 E0.05375
G1 X-0.474 Y2.571 E0.05375
G1 X0.144 Y2.247 E0.05375
G1 X0.666 Y1.784 E0.05375
G1 X0.874 Y1.483 E0.02827
G1 X1.062 Y1.210 E0.02548
G1 X1.309 Y0.558 E0.05375
G1 X1.393 Y-0.134 E0.05375
G1 X1.309 Y-0.826 E0.05375
G1 X1.062 Y-1.479 E0.05375
G1 X0.666 Y-2.053 E0.05375
G1 X0.032 Y-2.614 E0.06528
G1 X1.914 Y-2.614 E0.14510
G1 X1.914 Y-0.664 E0.15028
G1 X4.964 Y-0.664 E0.23505
G1 X4.964 Y0.944 E0.12398
G1 X1.914 Y0.944 E0.23505
G1 X1.914 Y3.904 E0.22811
G1 X1.914 Y4.600 F15000.000
G1 X-5.600 Y4.600 E0.57910 F2400.000
G1 X-5.600 Y-3.250 E0.60496
G1 X2.550 Y-3.250 E0.62808
G1 X2.550 Y-1.300 E0.15028
G1 X4.450 Y-1.300 E0.14642 F2400.000
G1 X4.450 Y-3.250 E0.15028
G1 X5.600 Y-3.250 E0.08863
G1 X5.600 Y4.600 E0.60496
G1 X1.974 Y4.600 E0.27941
G1 X1.714 Y4.254 F15000.000
G1 X2.232 Y4.190 F15000.000
G1 X4.325 Y4.190 E0.16128 F2400.000
G1 X5.025 Y4.282 F15000.000
G1 X5.025 Y1.262 E0.48905 F2400.000
G1 X4.647 Y0.140 F15000.000
G1 X1.680 Y0.140 E0.48038 F2400.000
G1 X1.529 Y1.864 F15000.000
G1 X1.225 Y1.560 E0.03436 F2400.000
G1 X0.821 Y2.088 E0.05311
G1 X1.529 Y2.796 E0.08001
G1 X1.380 Y3.579 E0.06369
G1 X0.327 Y2.525 E0.11903
G1 X0.136 Y3.266 E0.06113
G1 X0.448 Y3.579 E0.03532
G1 X-0.272 Y3.253 F15000.000
G1 X-1.113 Y3.351 E0.13713 F2400.000
G1 X-1.887 Y3.351 E0.12545
G1 X-2.728 Y3.253 E0.13713
G1 X-3.401 Y2.634 F15000.000
G1 X-3.067 Y2.969 E0.03675 F2400.000
G1 X-3.363 Y3.579 E0.05269
G1 X-4.579 Y2.363 E0.13361
G1 X-4.546 Y1.489 E0.06793
G1 X-4.267 Y1.769 E0.03075
G1 X-4.579 Y3.269 F15000.000
G1 X-4.269 Y3.579 E0.03403 F2400.000
G1 X-4.158 Y-1.925 F15000.000
G1 X-4.462 Y-2.229 E0.03314 F2400.000
G1 X-2.836 Y-2.339 F15000.000
G1 X-2.447 Y-2.607 E0.03634 F2400.000
G1 X-2.133 Y-2.773 E0.02740
G1 X-1.810 Y-2.810 E0.02506
G1 X-1.190 Y-2.810 E0.04780
G1 X-0.867 Y-2.773 E0.02506
G1 X-0.553 Y-2.607 E0.02740
G1 X-0.164 Y-2.339 E0.03634
G1 X1.219 Y-2.229 F15000.000
G1 X1.529 Y-1.919 E0.03375 F2400.000
G1 X5.025 Y-0.982 F15000.000
G1 X5.025 Y-2.932 E0.31577 F2400.000
G1 E-3.50000 F1500.00000
G1 Z0.700 F15000.000
G1 X4.150 Y-2.932 F15000.000
G1 Z0.500 F15000.000
G1 E3.50000 F1500.00000
G1 X4.150 Y-1.600 E0.03845 F2400.000
G1 X2.850 Y-1.600 E0.03752
G1 X2.850 Y-3.200 E0.04618
G1 X4.150 Y-3.200 E0.03752 F2400.000
G1 X4.150 Y-2.992 E0.00600
G1 X4.496 Y-2.732 F15000.000
G1 E-3.50000 F1500.00000
G1 Z0.900 F15000.000
G1 X4.150 Y1.523 F15000.000
G1 Z0.500 F15000.000
G1 E3.50000 F1500.00000
G1 X4.507 Y1.523 E0.01031 F2400.000
G1 X4.507 Y3.837 E0.06679
G1 X2.493 Y3.837 E0.05813
G1 X2.493 Y1.523 E0.06679
G1 X4.090 Y1.523 E0.04610 F2400.000
G1 X4.090 Y1.880 F15000.000
G1 X4.150 Y1.880 E0.00173 F2400.000
G1 X4.150 Y3.480 E0.04618
G1 X2.850 Y3.480 E0.03752
G1 X2.850 Y1.880 E0.04618
G1 X4.030 Y1.880 E0.03406 F2400.000
G1 X4.120 Y1.828 F15000.000
G1 E-3.50000 F1500.00000
G1 Z0.900 F15000.000
G1 X0.673 Y0.607 F15000.000
G1 Z0.500 F15000.000
G1 E3.50000 F1500.00000
G1 X0.547 Y0.940 E0.01029 F2400.000
G1 X0.230 Y1.399 E0.01608
G1 X-0.187 Y1.768 E0.01608
G1 X-0.680 Y2.027 E0.01608
G1 X-1.221 Y2.161 E0.01608
G1 X-1.779 Y2.161 E0.01608
G1 X-2.320 Y2.027 E0.01608
G1 X-2.813 Y1.768 E0.01608
G1 X-3.230 Y1.399 E0.01608
G1 X-3.547 Y0.940 E0.01608
G1 X-3.744 Y0.419 E0.01608
G1 X-3.812 Y-0.134 E0.01608
G1 X-3.744 Y-0.687 E0.01608
G1 X-3.547 Y-1.208 E0.01608
G1 X-3.230 Y-1.667 E0.01608
G1 X-2.813 Y-2.036 E0.01608
G1 X-2.320 Y-2.295 E0.01608
G1 X-1.779 Y-2.429 E0.01608
G1 X-1.221 Y-2.429 E0.01608 F2400.000
G1 X-0.680 Y-2.295 E0.01608
G1 X-0.187 Y-2.036 E0.01608
G1 X0.230 Y-1.667 E0.01608
G1 X0.547 Y-1.208 E0.01608
G1 X0.744 Y-0.687 E0.01608
G1 X0.812 Y-0.134 E0.01608
G1 X0.744 Y0.419 E0.01608
G1 X0.694 Y0.551 E0.00407
G1 X0.361 Y0.424 F15000.000
G1 X0.228 Y0.773 E0.01077 F2400.000
G1 X-0.039 Y1.160 E0.01358
G1 X-0.391 Y1.472 E0.01358
G1 X-0.808 Y1.691 E0.01358
G1 X-1.265 Y1.804 E0.01358
G1 X-1.735 Y1.804 E0.01358
G1 X-2.192 Y1.691 E0.01358
G1 X-2.609 Y1.472 E0.01358
G1 X-2.961 Y1.160 E0.01358
G1 X-3.228 Y0.773 E0.01358
G1 X-3.395 Y0.333 E0.01358
G1 X-3.452 Y-0.134 E0.01358
G1 X-3.395 Y-0.601 E0.01358
G1 X-3.228 Y-1.041 E0.01358
G1 X-2.961 Y-1.428 E0.01358
G1 X-2.609 Y-1.740 E0.01358
G1 X-2.192 Y-1.959 E0.01358
G1 X-1.735 Y-2.072 E0.01358
G1 X-1.265 Y-2.072 E0.01358 F2400.000
G1 X-0.808 Y-1.959 E0.01358
G1 X-0.391 Y-1.740 E0.01358
G1 X-0.039 Y-1.428 E0.01358
G1 X0.228 Y-1.041 E0.01358
G1 X0.395 Y-0.601 E0.01358
G1 X0.452 Y-0.134 E0.01358
G1 X0.382 Y0.368 E0.01463
G1 X0.615 Y0.697 F15000.000
G1 X2.107 Y-3.293 F15000.000
G1 X2.493 Y-3.293 E0.01113 F2400.000
G1 X2.493 Y-1.243 E0.05917
G1 X4.507 Y-1.243 E0.05813 F2400.000
G1 X4.507 Y-3.293 E0.05917
G1 X5.393 Y-3.293 E0.02557
G1 X5.393 Y4.393 E0.22183
G1 X-5.393 Y4.393 E0.31131
G1 X-5.393 Y-3.293 E0.22183
G1 X2.047 Y-3.293 E0.21475
G1 X2.047 Y-3.650 F15000.000
G1 X5.750 Y-3.650 E0.10687 F2400.000
G1 X5.750 Y4.750 E0.24245
G1 X-5.750 Y4.750 E0.33192 F2400.000
G1 X-5.750 Y-3.650 E0.24245
G1 X1.987 Y-3.650 E0.22332
G1 X2.247 Y-3.304 F15000.000
G1 E-3.50000 F1500.00000
G1 Z0.900 F15000.000
G1 X4.950 Y-3.114 F15000.000
G1 Z0.500 F15000.000
G1 E3.50000 F1500.00000
G1 X4.950 Y-1.064 E0.12545 F2400.000
G1 X4.994 Y1.137 F15000.000
G1 X5.185 Y0.945 E0.00785 F2400.000
G1 X5.185 Y0.438 E0.01472
G1 X4.486 Y1.137 E0.02867
G1 X3.800 Y1.315 E0.02056
G1 X5.185 Y-0.070 E0.05681
G1 X5.185 Y-0.577 E0.01472
G1 X3.293 Y1.315 E0.07763
G1 X2.785 Y1.315 E0.01472
G1 X4.957 Y-0.857 E0.08909
G1 X4.450 Y-0.857 E0.01472
G1 X-0.592 Y4.185 E0.20681
G1 X-0.085 Y4.185 E0.01472
G1 X2.285 Y1.815 E0.09721
G1 X2.285 Y2.323 E0.01472
G1 X0.423 Y4.185 E0.07640
G1 X0.930 Y4.185 E0.01472
G1 X2.285 Y2.830 E0.05558
G1 X2.285 Y3.338 E0.01472
G1 X1.438 Y4.185 E0.03476
G1 X1.945 Y4.185 E0.01472
G1 X2.107 Y4.024 E0.00662
G1 X-1.100 Y4.185 F15000.000
G1 X4.121 Y-1.035 E0.21413 F2400.000
G1 X3.613 Y-1.035 E0.01472
G1 X-1.607 Y4.185 E0.21413
G1 X-2.115 Y4.185 E0.01472
G1 X3.106 Y-1.035 E0.21413
G1 X2.598 Y-1.035 E0.01472
G1 X0.913 Y0.650 E0.06913
G1 X1.009 Y0.047 E0.01771
G1 X2.285 Y-1.230 E0.05236
G1 X2.285 Y-1.737 E0.01472
G1 X0.976 Y-0.428 E0.05368
G1 X0.884 Y-0.843 E0.01233
G1 X2.285 Y-2.245 E0.05748
G1 X2.285 Y-2.752 E0.01472
G1 X0.744 Y-1.211 E0.06320
G1 X0.547 Y-1.521 E0.01066
G1 X2.111 Y-3.085 E0.06414
G1 X1.603 Y-3.085 E0.01472
G1 X0.331 Y-1.813 E0.05218
G1 X0.062 Y-2.052 E0.01043
G1 X1.096 Y-3.085 E0.04240
G1 X0.588 Y-3.085 E0.01472
G1 X-0.232 Y-2.265 E0.03365
G1 X-0.565 Y-2.439 E0.01090
G1 X0.081 Y-3.085 E0.02649
G1 X-0.426 Y-3.085 E0.01472
G1 X-0.952 Y-2.560 E0.02155
G1 X-1.383 Y-2.637 E0.01269
G1 X-0.934 Y-3.085 E0.01840
G1 X-1.441 Y-3.085 E0.01472
G1 X-1.890 Y-2.636 E0.01842
G1 X-1.949 Y-3.085 E0.01313
G1 X-2.603 Y-2.431 E0.02684
G1 X-2.456 Y-3.085 E0.01945
G1 X-5.185 Y-0.356 E0.11193
G1 X-5.185 Y0.151 E0.01472
G1 X-3.789 Y-1.245 E0.05727
G1 X-3.981 Y-0.546 E0.02102
G1 X-5.185 Y0.659 E0.04941
G1 X-5.185 Y1.166 E0.01472
G1 X-3.998 Y-0.021 E0.04868
G1 X-3.940 Y0.428 E0.01313
G1 X-5.185 Y1.674 E0.05109
G1 X-5.185 Y2.181 E0.01472
G1 X-3.800 Y0.796 E0.05681
G1 X-3.630 Y1.133 E0.01096
G1 X-5.185 Y2.688 E0.06379
G1 X-5.185 Y3.196 E0.01472
G1 X-3.423 Y1.433 E0.07230
G1 X-3.170 Y1.688 E0.01041
G1 X-5.185 Y3.703 E0.08267
G1 X-5.152 Y4.178 E0.01380
G1 X-2.901 Y1.926 E0.09236
G1 X-2.568 Y2.101 E0.01090
G1 X-4.652 Y4.185 E0.08547
G1 X-4.145 Y4.185 E0.01472
G1 X-2.211 Y2.252 E0.07931
G1 X-1.804 Y2.352 E0.01216
G1 X-3.637 Y4.185 E0.07520
G1 X-3.130 Y4.185 E0.01472
G1 X-1.313 Y2.368 E0.07452
G1 X-0.705 Y2.268 E0.01786
G1 X-2.622 Y4.185 E0.07863
G1 X-5.185 Y-0.864 F15000.000
G1 X-2.964 Y-3.085 E0.09112 F2400.000
G1 X-3.471 Y-3.085 E0.01472
G1 X-5.185 Y-1.371 E0.07030
G1 X-5.185 Y-1.879 E0.01472
G1 X-3.979 Y-3.085 E0.04949
G1 X-4.486 Y-3.085 E0.01472
G1 X-5.185 Y-2.386 E0.02867
G1 X-5.185 Y-2.894 E0.01472
G1 X-4.994 Y-3.085 E0.00785
G1 X-1.080 Y-2.850 F15000.000
G1 X0.177 Y-2.613 F15000.000
G1 X1.612 Y-0.847 F15000.000
G1 X2.050 Y0.003 F15000.000
G1 X2.050 Y0.247 F15000.000
G1 X2.050 Y1.080 F15000.000
G1 X2.314 Y4.115 F15000.000
G1 X4.550 Y4.115 E0.06453 F2400.000
G1 X4.950 Y4.214 F15000.000
G1 X4.950 Y1.344 E0.17563 F2400.000
G1 E-3.50000 F1500.00000
G1 Z0.900 F15000.000
G1 X4.850 Y1.380 F15000.000
G1 Z0.700 F15000.000
G1 E3.50000 F1500.00000
G1 X4.850 Y4.080 E0.07793 F2400.000
G1 X2.150 Y4.080 E0.07793
G1 X2.150 Y1.380 E0.07793
G1 X4.790 Y1.380 E0.07620 F2400.000
G1 X5.250 Y1.380 F15000.000
G1 X0.744 Y0.419 F15000.000
G1 X0.547 Y0.940 E0.01608 F2400.000
G1 X0.230 Y1.399 E0.01608
G1 X-0.187 Y1.768 E0.01608
G1 X-0.680 Y2.027 E0.01608
G1 X-1.221 Y2.161 E0.01608
G1 X-1.779 Y2.161 E0.01608
G1 X-2.320 Y2.027 E0.01608
G1 X-2.813 Y1.768 E0.01608
G1 X-3.230 Y1.399 E0.01608
G1 X-3.549 Y0.937 E0.01618
G1 X-3.747 Y0.394 E0.01669
G1 X-3.812 Y-0.134 E0.01536
G1 X-3.744 Y-0.687 E0.01608
G1 X-3.547 Y-1.208 E0.01608
G1 X-3.230 Y-1.667 E0.01608
G1 X-2.813 Y-2.036 E0.01608
G1 X-2.320 Y-2.295 E0.01608
G1 X-1.779 Y-2.429 E0.01608
G1 X-1.221 Y-2.429 E0.01608 F2400.000
G1 X-0.680 Y-2.295 E0.01608
G1 X-0.187 Y-2.036 E0.01608
G1 X0.230 Y-1.667 E0.01608
G1 X0.547 Y-1.208 E0.01608
G1 X0.744 Y-0.687 E0.01608
G1 X0.812 Y-0.134 E0.01608
G1 X0.752 Y0.360 E0.01435
G1 X0.397 Y0.316 F15000.000
G1 X0.228 Y0.773 E0.01405 F2400.000
G1 X-0.039 Y1.160 E0.01358
G1 X-0.391 Y1.472 E0.01358
G1 X-0.808 Y1.691 E0.01358
G1 X-1.265 Y1.804 E0.01358
G1 X-1.735 Y1.804 E0.01358
G1 X-2.192 Y1.691 E0.01358
G1 X-2.609 Y1.472 E0.01358
G1 X-2.961 Y1.160 E0.01358
G1 X-3.229 Y0.772 E0.01362
G1 X-3.398 Y0.310 E0.01419
G1 X-3.452 Y-0.134 E0.01292
G1 X-3.395 Y-0.601 E0.01358
G1 X-3.228 Y-1.041 E0.01358
G1 X-2.961 Y-1.428 E0.01358
G1 X-2.609 Y-1.740 E0.01358
G1 X-2.192 Y-1.959 E0.01358
G1 X-1.735 Y-2.072 E0.01358
G1 X-1.265 Y-2.072 E0.01358 F2400.000
G1 X-0.808 Y-1.959 E0.01358
G1 X-0.391 Y-1.740 E0.01358
G1 X-0.039 Y-1.428 E0.01358
G1 X0.228 Y-1.041 E0.01358
G1 X0.395 Y-0.601 E0.01358
G1 X0.452 Y-0.134 E0.01358
G1 X0.404 Y0.257 E0.01137
G1 X0.676 Y0.603 F15000.000
G1 X5.014 Y-0.643 F15000.000
G1 X5.393 Y-0.643 E0.01093 F2400.000
G1 X5.393 Y1.023 E0.04808
G1 X1.793 Y1.023 E0.10391
G1 X1.793 Y4.393 E0.09727
G1 X-5.393 Y4.393 E0.20740
G1 X-5.393 Y-3.399 E0.22489
G1 X1.793 Y-3.399 E0.20740
G1 X1.793 Y-0.643 E0.07954
G1 X4.954 Y-0.643 E0.09125 F2400.000
G1 X4.850 Y-1.000 F15000.000
G1 X4.850 Y-3.756 E0.07954 F2400.000
G1 X5.750 Y-3.756 E0.02598
G1 X5.750 Y4.750 E0.24550
G1 X-5.750 Y4.750 E0.33192
G1 X-5.750 Y-3.756 E0.24550
G1 X2.150 Y-3.756 E0.22802
G1 X2.150 Y-1.000 E0.07954
G1 X4.790 Y-1.000 E0.07620 F2400.000
G1 X5.250 Y-1.000 F15000.000
G1 E-3.50000 F1500.00000
G1 Z1.100 F15000.000
G1 X1.350 Y-2.956 F15000.000
G1 X1.350 Y-2.956 F15000.000
G1 X2.350 Y-3.728 F15000.000
G1 Z0.700 F15000.000
G1 E3.50000 F1500.00000
G1 X4.650 Y-3.728 E0.06638 F2400.000
G1 X5.300 Y-3.577 F15000.000
G1 X5.300 Y-0.821 E0.16864 F2400.000
G1 X5.300 Y1.201 F15000.000
G1 X5.299 Y4.299 E0.18952 F2400.000
G1 X5.029 Y4.415 E0.01799
G1 X1.971 Y4.415 E0.18708
G1 X1.585 Y2.289 F15000.000
G1 X0.548 Y1.252 E0.04234 F2400.000
G1 X-0.414 Y2.092 F15000.000
G1 X1.585 Y3.297 E0.06737 F2400.000
G1 X-1.569 Y4.185 E0.09457
G1 X-5.185 Y0.569 E0.14762
G1 X-5.185 Y-0.627 E0.03452
G1 X-4.001 Y0.113 E0.04032
G1 X-2.900 Y-2.196 F15000.000
G1 X-3.895 Y-3.191 E0.04063 F2400.000
G1 X-2.728 Y-3.191 E0.03368
G1 X-1.830 Y-2.614 E0.03082
G1 X1.585 Y-2.761 F15000.000
G1 X1.155 Y-3.191 E0.01756 F2400.000
G1 X0.818 Y-1.170 E0.05914
G1 X1.585 Y-0.667 E0.02648
G1 X2.106 Y-0.435 F15000.000
G1 X4.186 Y0.815 E0.07002 F2400.000
G1 X5.161 Y0.815 E0.02816
G1 X3.911 Y-0.435 E0.05104
G1 X-3.811 Y4.185 F15000.000
G1 X-5.185 Y3.337 E0.04661 F2400.000
M106 S255
G1 E-3.50000 F1500.00000
G1 Z1.100 F15000.000
G1 X2.150 Y3.337 F15000.000
G1 Z0.900 F15000.000
G1 E3.50000 F1500.00000
G1 X2.150 Y1.380 E0.05648 F2400.000
G1 X4.850 Y1.380 E0.07793 F2400.000
G1 X4.850 Y4.080 E0.07793
G1 X2.150 Y4.080 E0.07793
G1 X2.150 Y3.397 E0.01972
G1 X1.804 Y3.137 F15000.000
G1 X0.230 Y1.399 F15000.000
G1 X-0.187 Y1.768 E0.01608 F2400.000
G1 X-0.680 Y2.027 E0.01608
G1 X-1.221 Y2.161 E0.01608
G1 X-1.779 Y2.161 E0.01608
G1 X-2.320 Y2.027 E0.01608
G1 X-2.813 Y1.768 E0.01608
G1 X-3.230 Y1.399 E0.01608
G1 X-3.547 Y0.940 E0.01608
G1 X-3.744 Y0.419 E0.01608
G1 X-3.812 Y-0.134 E0.01608
G1 X-3.744 Y-0.687 E0.01608
G1 X-3.547 Y-1.208 E0.01608
G1 X-3.227 Y-1.671 E0.01622
G1 X-2.780 Y-2.054 E0.01699
G1 X-2.320 Y-2.295 E0.01502
G1 X-1.779 Y-2.429 E0.01608
G1 X-1.221 Y-2.429 E0.01608 F2400.000
G1 X-0.680 Y-2.295 E0.01608
G1 X-0.187 Y-2.036 E0.01608
G1 X0.203 Y-1.691 E0.01502
G1 X0.545 Y-1.213 E0.01699
G1 X0.744 Y-0.687 E0.01622
G1 X0.812 Y-0.134 E0.01608
G1 X0.744 Y0.419 E0.01608
G1 X0.547 Y0.940 E0.01608
G1 X0.264 Y1.349 E0.01435
G1 X-0.030 Y1.147 F15000.000
G1 X-0.391 Y1.472 E0.01405 F2400.000
G1 X-0.808 Y1.691 E0.01358
G1 X-1.265 Y1.804 E0.01358
G1 X-1.735 Y1.804 E0.01358
G1 X-2.192 Y1.691 E0.01358
G1 X-2.609 Y1.472 E0.01358
G1 X-2.961 Y1.160 E0.01358
G1 X-3.228 Y0.773 E0.01358
G1 X-3.395 Y0.333 E0.01358
G1 X-3.452 Y-0.134 E0.01358
G1 X-3.395 Y-0.601 E0.01358
G1 X-3.228 Y-1.041 E0.01358
G1 X-2.960 Y-1.430 E0.01363
G1 X-2.579 Y-1.756 E0.01448
G1 X-2.192 Y-1.959 E0.01260
G1 X-1.735 Y-2.072 E0.01358
G1 X-1.265 Y-2.072 E0.01358 F2400.000
G1 X-0.808 Y-1.959 E0.01358
G1 X-0.391 Y-1.740 E0.01358
G1 X-0.064 Y-1.451 E0.01260
G1 X0.228 Y-1.043 E0.01448
G1 X0.395 Y-0.601 E0.01363
G1 X0.452 Y-0.134 E0.01358
G1 X0.395 Y0.333 E0.01358
G1 X0.228 Y0.773 E0.01358
G1 X0.005 Y1.097 E0.01137
G1 X0.084 Y1.530 F15000.000
G1 E-3.50000 F1500.00000
G1 Z1.300 F15000.000
G1 X-3.067 Y2.135 F15000.000
G1 X-3.755 Y2.912 F15000.000
G1 X-3.869 Y2.869 F15000.000
G1 X-4.950 Y3.950 F15000.000
G1 X-5.393 Y1.351 F15000.000
G1 Z0.900 F15000.000
G1 E3.50000 F1500.00000
G1 X-5.393 Y-3.482 E0.13948 F2400.000
G1 X1.793 Y-3.482 E0.20740
G1 X1.793 Y-0.643 E0.08193
