; generated by Slic3r 1.2.9 on 2019-03-12 at 12:52:08

; external perimeters extrusion width = 0.40mm
; perimeters extrusion width = 0.40mm
; infill extrusion width = 0.40mm
; solid infill extrusion width = 0.40mm
; top infill extrusion width = 0.40mm

M107
M83
T0
M116
G21 ; set units to millimeters
G90 ; use absolute coordinates
M83 ; use relative distances for extrusion
G1 E-3.50000 F1500.00000
G1 Z0.400 F15000.000
G1 X14.586 Y0.000 F15000.000
G1 Z0.300 F15000.000
G1 E3.50000 F1500.00000
G1 X14.586 Y10.950 E0.84387 F960.000
G1 X14.191 Y12.597 E0.13052
G1 X13.093 Y13.887 E0.13052
G1 X10.950 Y14.586 E0.17373
G1 X-10.950 Y14.586 E1.68773
G1 X-12.597 Y14.191 E0.13052
G1 X-13.887 Y13.093 E0.13052
G1 X-14.586 Y10.950 E0.17373
G1 X-14.586 Y-10.950 E1.68773
G1 X-14.191 Y-12.597 E0.13052
G1 X-13.093 Y-13.887 E0.13052
G1 X-10.950 Y-14.586 E0.17373
G1 X10.950 Y-14.586 E1.68773
G1 X12.597 Y-14.191 E0.13052
G1 X13.887 Y-13.093 E0.13052 F960.000
G1 X14.586 Y-10.950 E0.17373
G1 X14.586 Y-0.060 E0.83924
G1 E-3.50000 F1500.00000
G1 Z0.700 F15000.000
G1 X6.240 Y9.964 F15000.000
G1 Z0.300 F15000.000
G1 E3.50000 F1500.00000
G1 X-9.964 Y9.964 E1.24879 F720.000
G1 X-9.964 Y-9.964 E1.53582
G1 X9.964 Y-9.964 E1.53582
G1 X9.964 Y9.964 E1.53582
G1 X6.300 Y9.964 E0.28241 F720.000
G1 X6.300 Y10.600 F15000.000
G1 X-10.600 Y10.600 E1.30239 F720.000
G1 X-10.600 Y-10.600 E1.63379
G1 X10.600 Y-10.600 E1.63379
G1 X10.600 Y10.600 E1.63379
G1 X6.360 Y10.600 E0.32677 F720.000
G1 X6.100 Y10.254 F15000.000
G1 X-9.269 Y9.579 F15000.000
G1 X-9.579 Y9.269 E0.03452 F960.000
G1 X-9.579 Y8.350 E0.07247
G1 X-8.350 Y9.579 E0.13701
G1 X-7.430 Y9.579 E0.07247
G1 X-9.579 Y7.430 E0.23951
G1 X-9.579 Y6.511 E0.07247
G1 X-6.511 Y9.579 E0.34200
G1 X-5.592 Y9.579 E0.07247
G1 X-9.579 Y5.592 E0.44449
G1 X-9.579 Y4.672 E0.07247
G1 X-4.672 Y9.579 E0.54699
G1 X-3.753 Y9.579 E0.07247
G1 X-9.579 Y3.753 E0.64948
G1 X-9.579 Y2.833 E0.07247
G1 X-2.833 Y9.579 E0.75197
G1 X-1.914 Y9.579 E0.07247
G1 X-9.579 Y1.914 E0.85447
G1 X-9.579 Y0.994 E0.07247
G1 X-0.994 Y9.579 E0.95696
G1 X-0.075 Y9.579 E0.07247
G1 X-9.579 Y0.075 E1.05946
G1 X-9.579 Y-0.844 E0.07247
G1 X0.844 Y9.579 E1.16195
G1 X1.764 Y9.579 E0.07247
G1 X-9.579 Y-1.764 E1.26444
G1 X-9.579 Y-2.683 E0.07247
G1 X2.683 Y9.579 E1.36694
G1 X3.603 Y9.579 E0.07247
G1 X-9.579 Y-3.603 E1.46943
G1 X-9.579 Y-4.522 E0.07247
G1 X4.522 Y9.579 E1.57193
G1 X5.442 Y9.579 E0.07247
G1 X-9.579 Y-5.442 E1.67442
G1 X-9.579 Y-6.361 E0.07247
G1 X6.361 Y9.579 E1.77691
G1 X7.280 Y9.579 E0.07247
G1 X-9.579 Y-7.280 E1.87941
G1 X-9.579 Y-8.200 E0.07247
G1 X8.200 Y9.579 E1.98190
G1 X9.119 Y9.579 E0.07247
G1 X-9.579 Y-9.119 E2.08439
G1 X-9.119 Y-9.579 E0.05125
G1 X9.579 Y9.119 E2.08440
G1 X9.579 Y8.200 E0.07247
G1 X-8.200 Y-9.579 E1.98190
G1 X-7.280 Y-9.579 E0.07247
G1 X9.579 Y7.280 E1.87941
G1 X9.579 Y6.361 E0.07247
G1 X-6.361 Y-9.579 E1.77692
G1 X-5.442 Y-9.579 E0.07247
G1 X9.579 Y5.442 E1.67442
G1 X9.579 Y4.522 E0.07247
G1 X-4.522 Y-9.579 E1.57193
G1 X-3.603 Y-9.579 E0.07247
G1 X9.579 Y3.603 E1.46943
G1 X9.579 Y2.683 E0.07247
G1 X-2.683 Y-9.579 E1.36694
G1 X-1.764 Y-9.579 E0.07247
G1 X9.579 Y1.764 E1.26445
G1 X9.579 Y0.844 E0.07247
G1 X-0.844 Y-9.579 E1.16195
G1 X0.075 Y-9.579 E0.07247
G1 X9.579 Y-0.075 E1.05946
G1 X9.579 Y-0.994 E0.07247
G1 X0.994 Y-9.579 E0.95697
G1 X1.914 Y-9.579 E0.07247
G1 X9.579 Y-1.914 E0.85447
G1 X9.579 Y-2.833 E0.07247
G1 X2.833 Y-9.579 E0.75198
G1 X3.753 Y-9.579 E0.07247
G1 X9.579 Y-3.753 E0.64948
G1 X9.579 Y-4.672 E0.07247
G1 X4.672 Y-9.579 E0.54699
G1 X5.592 Y-9.579 E0.07247
G1 X9.579 Y-5.592 E0.44450
G1 X9.579 Y-6.511 E0.07247
G1 X6.511 Y-9.579 E0.34200
G1 X7.430 Y-9.579 E0.07247
G1 X9.579 Y-7.430 E0.23951
G1 X9.579 Y-8.350 E0.07247
G1 X8.350 Y-9.579 E0.13701
G1 X9.269 Y-9.579 E0.07247
G1 X9.579 Y-9.269 E0.03452
G1 E-3.50000 F1500.00000
G1 Z0.700 F15000.000
G1 X10.393 Y-5.952 F15000.000
G1 Z0.500 F15000.000
G1 E3.50000 F1500.00000
G1 X10.393 Y10.393 E0.47176 F2400.000
G1 X-10.393 Y10.393 E0.59994 F2400.000
G1 X-10.393 Y-10.393 E0.59994
G1 X10.393 Y-10.393 E0.59994
G1 X10.393 Y-6.012 E0.12644
G1 X10.750 Y-6.012 F15000.000
G1 X10.750 Y10.750 E0.48380 F2400.000
G1 X-10.750 Y10.750 E0.62055 F2400.000
G1 X-10.750 Y-10.750 E0.62055
G1 X10.750 Y-10.750 E0.62055
G1 X10.750 Y-6.072 E0.13501
G1 X10.404 Y-5.812 F15000.000
G1 X9.994 Y10.185 F15000.000
G1 X10.185 Y9.994 E0.00791 F2828.549
G1 X10.185 Y9.483 E0.01492
G1 X9.483 Y10.185 E0.02900
G1 X8.972 Y10.185 E0.01492
G1 X10.185 Y8.972 E0.05010
G1 X10.185 Y8.461 E0.01492
G1 X8.461 Y10.185 E0.07119
G1 X7.950 Y10.185 E0.01492
G1 X10.185 Y7.950 E0.09229
G1 X10.185 Y7.439 E0.01492
G1 X7.439 Y10.185 E0.11338
G1 X6.929 Y10.185 E0.01492
G1 X10.185 Y6.929 E0.13448
G1 X10.185 Y6.418 E0.01492
G1 X6.418 Y10.185 E0.15557
G1 X5.907 Y10.185 E0.01492
G1 X10.185 Y5.907 E0.17666
G1 X10.185 Y5.396 E0.01492
G1 X5.396 Y10.185 E0.19776
G1 X4.885 Y10.185 E0.01492
G1 X10.185 Y4.885 E0.21885
G1 X10.185 Y4.374 E0.01492
G1 X4.374 Y10.185 E0.23995
G1 X3.863 Y10.185 E0.01492
G1 X10.185 Y3.863 E0.26104
G1 X10.185 Y3.353 E0.01492
G1 X3.353 Y10.185 E0.28214
G1 X2.842 Y10.185 E0.01492
G1 X10.185 Y2.842 E0.30323
G1 X10.185 Y2.331 E0.01492
G1 X2.331 Y10.185 E0.32433
G1 X1.820 Y10.185 E0.01492
G1 X10.185 Y1.820 E0.34542
G1 X10.185 Y1.309 E0.01492
G1 X1.309 Y10.185 E0.36652
G1 X0.798 Y10.185 E0.01492
G1 X10.185 Y0.798 E0.38761
G1 X10.185 Y0.287 E0.01492
G1 X0.287 Y10.185 E0.40871
G1 X-0.223 Y10.185 E0.01492
G1 X10.185 Y-0.223 E0.42980
G1 X10.185 Y-0.734 E0.01492
G1 X-0.734 Y10.185 E0.45089
G1 X-1.245 Y10.185 E0.01492
G1 X10.185 Y-1.245 E0.47199
G1 X10.185 Y-1.756 E0.01492
G1 X-1.756 Y10.185 E0.49308
G1 X-2.267 Y10.185 E0.01492
G1 X10.185 Y-2.267 E0.51418
G1 X10.185 Y-2.778 E0.01492
G1 X-2.778 Y10.185 E0.53527
G1 X-3.289 Y10.185 E0.01492
G1 X10.185 Y-3.289 E0.55637
G1 X10.185 Y-3.799 E0.01492
G1 X-3.799 Y10.185 E0.57746
G1 X-4.310 Y10.185 E0.01492
G1 X10.185 Y-4.310 E0.59856
G1 X10.185 Y-4.821 E0.01492
G1 X-4.821 Y10.185 E0.61965
G1 X-5.332 Y10.185 E0.01492
G1 X10.185 Y-5.332 E0.64075
G1 X10.185 Y-5.843 E0.01492
G1 X-5.843 Y10.185 E0.66184
G1 X-6.354 Y10.185 E0.01492
G1 X10.185 Y-6.354 E0.68293
G1 X10.185 Y-6.865 E0.01492
G1 X-6.865 Y10.185 E0.70403
G1 X-7.375 Y10.185 E0.01492
G1 X10.185 Y-7.375 E0.72512
G1 X10.185 Y-7.886 E0.01492
G1 X-7.886 Y10.185 E0.74622
G1 X-8.397 Y10.185 E0.01492
G1 X10.185 Y-8.397 E0.76731
G1 X10.185 Y-8.908 E0.01492
G1 X-8.908 Y10.185 E0.78841
G1 X-9.419 Y10.185 E0.01492
G1 X10.185 Y-9.419 E0.80950
G1 X10.185 Y-9.930 E0.01492
G1 X-9.930 Y10.185 E0.83060
G1 X-10.185 Y9.930 E0.01055
G1 X9.930 Y-10.185 E0.83059
G1 X9.419 Y-10.185 E0.01492
G1 X-10.185 Y9.419 E0.80950
G1 X-10.185 Y8.908 E0.01492
G1 X8.908 Y-10.185 E0.78841
G1 X8.397 Y-10.185 E0.01492
G1 X-10.185 Y8.397 E0.76731
G1 X-10.185 Y7.886 E0.01492
G1 X7.886 Y-10.185 E0.74622
G1 X7.375 Y-10.185 E0.01492
G1 X-10.185 Y7.375 E0.72512
G1 X-10.185 Y6.865 E0.01492
G1 X6.865 Y-10.185 E0.70403
G1 X6.354 Y-10.185 E0.01492
G1 X-10.185 Y6.354 E0.68293
G1 X-10.185 Y5.843 E0.01492
G1 X5.843 Y-10.185 E0.66184
G1 X5.332 Y-10.185 E0.01492
G1 X-10.185 Y5.332 E0.64074
G1 X-10.185 Y4.821 E0.01492
G1 X4.821 Y-10.185 E0.61965
G1 X4.310 Y-10.185 E0.01492
G1 X-10.185 Y4.310 E0.59855
G1 X-10.185 Y3.799 E0.01492
G1 X3.799 Y-10.185 E0.57746
G1 X3.289 Y-10.185 E0.01492
G1 X-10.185 Y3.289 E0.55636
G1 X-10.185 Y2.778 E0.01492
G1 X2.778 Y-10.185 E0.53527
G1 X2.267 Y-10.185 E0.01492
G1 X-10.185 Y2.267 E0.51418
G1 X-10.185 Y1.756 E0.01492
G1 X1.756 Y-10.185 E0.49308
G1 X1.245 Y-10.185 E0.01492
G1 X-10.185 Y1.245 E0.47199
G1 X-10.185 Y0.734 E0.01492
G1 X0.734 Y-10.185 E0.45089
G1 X0.223 Y-10.185 E0.01492
G1 X-10.185 Y0.223 E0.42980
G1 X-10.185 Y-0.287 E0.01492
G1 X-0.287 Y-10.185 E0.40870
G1 X-0.798 Y-10.185 E0.01492
G1 X-10.185 Y-0.798 E0.38761
G1 X-10.185 Y-1.309 E0.01492
G1 X-1.309 Y-10.185 E0.36651
G1 X-1.820 Y-10.185 E0.01492
G1 X-10.185 Y-1.820 E0.34542
G1 X-10.185 Y-2.331 E0.01492
G1 X-2.331 Y-10.185 E0.32432
G1 X-2.842 Y-10.185 E0.01492
G1 X-10.185 Y-2.842 E0.30323
G1 X-10.185 Y-3.353 E0.01492
G1 X-3.353 Y-10.185 E0.28213
G1 X-3.863 Y-10.185 E0.01492
G1 X-10.185 Y-3.863 E0.26104
G1 X-10.185 Y-4.374 E0.01492
G1 X-4.374 Y-10.185 E0.23995
G1 X-4.885 Y-10.185 E0.01492
G1 X-10.185 Y-4.885 E0.21885
G1 X-10.185 Y-5.396 E0.01492
G1 X-5.396 Y-10.185 E0.19776
G1 X-5.907 Y-10.185 E0.01492
G1 X-10.185 Y-5.907 E0.17666
G1 X-10.185 Y-6.418 E0.01492
G1 X-6.418 Y-10.185 E0.15557
G1 X-6.929 Y-10.185 E0.01492
G1 X-10.185 Y-6.929 E0.13447
G1 X-10.185 Y-7.439 E0.01492
G1 X-7.439 Y-10.185 E0.11338
G1 X-7.950 Y-10.185 E0.01492
G1 X-10.185 Y-7.950 E0.09228
G1 X-10.185 Y-8.461 E0.01492
G1 X-8.461 Y-10.185 E0.07119
G1 X-8.972 Y-10.185 E0.01492
G1 X-10.185 Y-8.972 E0.05009
G1 X-10.185 Y-9.483 E0.01492
G1 X-9.483 Y-10.185 E0.02900
G1 X-9.994 Y-10.185 E0.01492
G1 X-10.185 Y-9.994 E0.00790
G1 E-3.50000 F1500.00000
G1 Z0.900 F15000.000
G1 X-10.393 Y5.616 F15000.000
G1 Z0.700 F15000.000
G1 E3.50000 F1500.00000
G1 X-10.393 Y-10.393 E0.46207 F2400.000
G1 X10.393 Y-10.393 E0.59994
G1 X10.393 Y10.393 E0.59994
G1 X-10.393 Y10.393 E0.59994 F2400.000
G1 X-10.393 Y5.676 E0.13614
G1 X-10.750 Y5.676 F15000.000
G1 X-10.750 Y-10.750 E0.47410 F2400.000
G1 X10.750 Y-10.750 E0.62055
G1 X10.750 Y10.750 E0.62055
G1 X-10.750 Y10.750 E0.62055 F2400.000
G1 X-10.750 Y5.736 E0.14471
G1 X-10.404 Y5.476 F15000.000
G1 X-9.156 Y10.185 F15000.000
G1 X-10.185 Y9.312 E0.03895 F2400.000
G1 X-10.185 Y6.676 E0.07610
G1 X-6.676 Y10.185 E0.14324
G1 X-3.557 Y10.185 E0.09003
G1 X-10.185 Y4.714 E0.24808
G1 X-10.185 Y1.626 E0.08912
G1 X-1.626 Y10.185 E0.34937
G1 X2.042 Y10.185 E0.10588
G1 X-10.185 Y0.115 E0.45720
G1 X-10.185 Y-3.424 E0.10213
G1 X3.424 Y10.185 E0.55549
G1 X7.641 Y10.185 E0.12173
G1 X-10.185 Y-4.484 E0.66633
G1 X-10.185 Y-8.474 E0.11515
G1 X8.474 Y10.185 E0.76162
G1 X10.185 Y7.676 E0.08767
G1 X-10.185 Y-9.083 E0.76134
G1 X-6.847 Y-10.185 E0.10147
G1 X10.185 Y6.847 E0.69521
G1 X10.185 Y3.077 E0.10881
G1 X-5.928 Y-10.185 E0.60234
G1 X-1.797 Y-10.185 E0.11924
G1 X10.185 Y1.797 E0.48908
G1 X10.185 Y-1.522 E0.09579
G1 X-0.329 Y-10.185 E0.39321
G1 X3.253 Y-10.185 E0.10339
G1 X10.185 Y-3.253 E0.28296
G1 X10.185 Y-6.121 E0.08277
G1 X5.270 Y-10.185 E0.18409
G1 X8.303 Y-10.185 E0.08754
G1 X10.185 Y-8.303 E0.07683
M106 S255
G1 E-3.50000 F1500.00000
G1 Z1.100 F15000.000
G1 X-10.393 Y-2.740 F15000.000
G1 Z0.900 F15000.000
G1 E3.50000 F1500.00000
G1 X-10.393 Y-10.393 E0.22088 F2400.000
G1 X10.393 Y-10.393 E0.59994
G1 X10.393 Y10.393 E0.59994
G1 X-10.393 Y10.393 E0.59994 F2400.000
G1 X-10.393 Y-2.680 E0.37732
G1 X-10.750 Y-2.680 F15000.000
G1 X-10.750 Y-10.750 E0.23292 F2400.000
G1 X10.750 Y-10.750 E0.62055
G1 X10.750 Y10.750 E0.62055
G1 X-10.750 Y10.750 E0.62055 F2400.000
G1 X-10.750 Y-2.620 E0.38589
G1 X-10.404 Y-2.880 F15000.000
G1 X-10.185 Y-9.156 F15000.000
G1 X-9.312 Y-10.185 E0.03895 F2400.000
G1 X-6.676 Y-10.185 E0.07610
G1 X-10.185 Y-6.676 E0.14324
G1 X-10.185 Y-3.557 E0.09003
G1 X-4.714 Y-10.185 E0.24808
G1 X-1.626 Y-10.185 E0.08912
G1 X-10.185 Y-1.626 E0.34937
G1 X-10.185 Y2.042 E0.10588
G1 X-0.115 Y-10.185 E0.45720
G1 X3.424 Y-10.185 E0.10213
G1 X-10.185 Y3.424 E0.55549
G1 X-10.185 Y7.641 E0.12173
G1 X4.484 Y-10.185 E0.66633
G1 X8.474 Y-10.185 E0.11515
G1 X-10.185 Y8.474 E0.76162
G1 X-7.676 Y10.185 E0.08767
G1 X9.083 Y-10.185 E0.76134
G1 X10.185 Y-6.847 E0.10147
G1 X-6.847 Y10.185 E0.69521
G1 X-3.077 Y10.185 E0.10881
G1 X10.185 Y-5.928 E0.60234
G1 X10.185 Y-1.797 E0.11924
G1 X-1.797 Y10.185 E0.48908
G1 X1.522 Y10.185 E0.09579
G1 X10.185 Y-0.329 E0.39321
G1 X10.185 Y3.253 E0.10339
G1 X3.253 Y10.185 E0.28296
G1 X6.121 Y10.185 E0.08277
G1 X10.185 Y5.270 E0.18409
G1 X10.185 Y8.303 E0.08754
G1 X8.303 Y10.185 E0.07683
G1 E-3.50000 F1500.00000
G1 Z1.300 F15000.000
G1 X10.393 Y4.633 F15000.000
G1 Z1.100 F15000.000
G1 E3.50000 F1500.00000
G1 X10.393 Y10.393 E0.16626 F2400.000
G1 X-10.393 Y10.393 E0.59994 F2400.000
G1 X-10.393 Y-10.393 E0.59994
G1 X10.393 Y-10.393 E0.59994
G1 X10.393 Y4.573 E0.43195
G1 X10.750 Y4.573 F15000.000
G1 X10.750 Y10.750 E0.17829 F2400.000
G1 X-10.750 Y10.750 E0.62055 F2400.000
G1 X-10.750 Y-10.750 E0.62055
G1 X10.750 Y-10.750 E0.62055
G1 X10.750 Y4.513 E0.44052
G1 X10.404 Y4.773 F15000.000
G1 X10.185 Y-8.303 F15000.000
G1 X8.303 Y-10.185 E0.07683 F2400.000
G1 X5.270 Y-10.185 E0.08754
G1 X10.185 Y-6.121 E0.18409
G1 X10.185 Y-3.253 E0.08277
G1 X3.253 Y-10.185 E0.28296
G1 X-0.329 Y-10.185 E0.10339
G1 X10.185 Y-1.522 E0.39321
G1 X10.185 Y1.797 E0.09579
G1 X-1.797 Y-10.185 E0.48908
G1 X-5.928 Y-10.185 E0.11924
G1 X10.185 Y3.077 E0.60234
G1 X10.185 Y6.847 E0.10881
G1 X-6.847 Y-10.185 E0.69521
G1 X-10.185 Y-9.083 E0.10147
G1 X10.185 Y7.676 E0.76134
G1 X8.474 Y10.185 E0.08767
G1 X-10.185 Y-8.474 E0.76162
G1 X-10.185 Y-4.484 E0.11515
G1 X7.641 Y10.185 E0.66633
G1 X3.424 Y10.185 E0.12173
G1 X-10.185 Y-3.424 E0.55549
G1 X-10.185 Y0.115 E0.10213
G1 X2.042 Y10.185 E0.45720
G1 X-1.626 Y10.185 E0.10588
G1 X-10.185 Y1.626 E0.34937
G1 X-10.185 Y4.714 E0.08912
G1 X-3.557 Y10.185 E0.24808
G1 X-6.676 Y10.185 E0.09003
G1 X-10.185 Y6.676 E0.14324
G1 X-10.185 Y9.312 E0.07610
G1 X-9.156 Y10.185 E0.03895
G1 E-3.50000 F1500.00000
G1 Z1.500 F15000.000
G1 X7.295 Y-10.393 F15000.000
G1 Z1.300 F15000.000
G1 E3.50000 F1500.00000
G1 X10.393 Y-10.393 E0.08942 F2400.000
G1 X10.393 Y10.393 E0.59994
G1 X-10.393 Y10.393 E0.59994 F2400.000
G1 X-10.393 Y-10.393 E0.59994
G1 X7.235 Y-10.393 E0.50878
G1 X7.235 Y-10.750 F15000.000
G1 X10.750 Y-10.750 E0.10146 F2400.000
G1 X10.750 Y10.750 E0.62055
G1 X-10.750 Y10.750 E0.62055 F2400.000
G1 X-10.750 Y-10.750 E0.62055
G1 X7.175 Y-10.750 E0.51735
G1 X7.435 Y-10.404 F15000.000
G1 X-10.185 Y-9.156 F15000.000
G1 X-9.312 Y-10.185 E0.03895 F2400.000
G1 X-6.676 Y-10.185 E0.07610
G1 X-10.185 Y-6.676 E0.14324
G1 X-10.185 Y-3.557 E0.09003
G1 X-4.714 Y-10.185 E0.24808
G1 X-1.626 Y-10.185 E0.08912
G1 X-10.185 Y-1.626 E0.34937
G1 X-10.185 Y2.042 E0.10588
G1 X-0.115 Y-10.185 E0.45720
G1 X3.424 Y-10.185 E0.10213
G1 X-10.185 Y3.424 E0.55549
G1 X-10.185 Y7.641 E0.12173
G1 X4.484 Y-10.185 E0.66633
G1 X8.474 Y-10.185 E0.11515
G1 X-10.185 Y8.474 E0.76162
G1 X-7.676 Y10.185 E0.08767
G1 X9.083 Y-10.185 E0.76134
G1 X10.185 Y-6.847 E0.10147
G1 X-6.847 Y10.185 E0.69521
G1 X-3.077 Y10.185 E0.10881
G1 X10.185 Y-5.928 E0.60234
G1 X10.185 Y-1.797 E0.11924
G1 X-1.797 Y10.185 E0.48908
G1 X1.522 Y10.185 E0.09579
G1 X10.185 Y-0.329 E0.39321
G1 X10.185 Y3.253 E0.10339
G1 X3.253 Y10.185 E0.28296
G1 X6.121 Y10.185 E0.08277
G1 X10.185 Y5.270 E0.18409
G1 X10.185 Y8.303 E0.08754
G1 X8.303 Y10.185 E0.07683
G1 E-3.50000 F1500.00000
G1 Z1.700 F15000.000
G1 X10.393 Y-2.045 F15000.000
G1 Z1.500 F15000.000
G1 E3.50000 F1500.00000
G1 X10.393 Y10.393 E0.35898 F2400.000
G1 X-10.393 Y10.393 E0.59994 F2400.000
G1 X-10.393 Y-10.393 E0.59994
G1 X10.393 Y-10.393 E0.59994
G1 X10.393 Y-2.105 E0.23922
G1 X10.750 Y-2.105 F15000.000
G1 X10.750 Y10.750 E0.37102 F2400.000
G1 X-10.750 Y10.750 E0.62055 F2400.000
G1 X-10.750 Y-10.750 E0.62055
G1 X10.750 Y-10.750 E0.62055
G1 X10.750 Y-2.165 E0.24779
G1 X10.404 Y-1.905 F15000.000
G1 X10.185 Y-8.303 F15000.000
G1 X8.303 Y-10.185 E0.07683 F2400.000
G1 X5.270 Y-10.185 E0.08754
G1 X10.185 Y-6.121 E0.18409
G1 X10.185 Y-3.253 E0.08277
G1 X3.253 Y-10.185 E0.28296
G1 X-0.329 Y-10.185 E0.10339
G1 X10.185 Y-1.522 E0.39321
G1 X10.185 Y1.797 E0.09579
G1 X-1.797 Y-10.185 E0.48908
G1 X-5.928 Y-10.185 E0.11924
G1 X10.185 Y3.077 E0.60234
G1 X10.185 Y6.847 E0.10881
G1 X-6.847 Y-10.185 E0.69521
G1 X-10.185 Y-9.083 E0.10147
G1 X10.185 Y7.676 E0.76134
G1 X8.474 Y10.185 E0.08767
G1 X-10.185 Y-8.474 E0.76162
G1 X-10.185 Y-4.484 E0.11515
G1 X7.641 Y10.185 E0.66633
G1 X3.424 Y10.185 E0.12173
G1 X-10.185 Y-3.424 E0.55549
G1 X-10.185 Y0.115 E0.10213
G1 X2.042 Y10.185 E0.45720
G1 X-1.626 Y10.185 E0.10588
G1 X-10.185 Y1.626 E0.34937
G1 X-10.185 Y4.714 E0.08912
G1 X-3.557 Y10.185 E0.24808
G1 X-6.676 Y10.185 E0.09003
G1 X-10.185 Y6.676 E0.14324
G1 X-10.185 Y9.312 E0.07610
G1 X-9.156 Y10.185 E0.03895
G1 E-3.50000 F1500.00000
G1 Z1.900 F15000.000
G1 X-10.393 Y4.355 F15000.000
G1 Z1.700 F15000.000
G1 E3.50000 F1500.00000
