; pcb2gcode 2.0.0 
; Software-independent Gcode 

G94 ; Millimeters per minute feed rate. 
G21 ; Units == Millimeters. 

G90 ; Absolute coordinates. 
;G1 F3000 S10000 ; RPM spindle speed. 
G1 F300 F600.00000 ; Feedrate. 


G1 F3000 Z3.00000 ;Retract to tool change height
;T0
;M5      ;Spindle stop.
;G04 P1.00000 ;Wait for spindle to stop
;MSG, Change tool bit to mill diameter 0.12000mm
;M6      ;Tool change.
;M0      ;Temporary machine stop.
;M3 ; Spindle on clockwise. 
;G04 P1.00000 ;Wait for spindle to get up to speed
;G04 P0 ; dwell for no time -- G64 should not smooth over this point 
G1 F3000 Z3.00000 ; retract 

G1 F3000 X-22.12808 Y72.86936 ; rapid move to begin. 
G1 F300 F300.00000
G1 F300 Z-0.07000
;G04 P0 ; dwell for no time -- G64 should not smooth over this point 
G1 F300 F600.00000
G1 F300 X-22.12808 Y72.86936
G1 F300 X-22.15894 Y72.95453
G1 F300 X-22.25655 Y73.00670
G1 F300 X-22.52955 Y73.10101
G1 F300 X-22.81213 Y73.13977
G1 F300 X-23.09686 Y73.12265
G1 F300 X-23.37278 Y73.05031
G1 F300 X-23.57763 Y72.95064
G1 F300 X-23.60707 Y72.86939
G1 F300 X-23.35840 Y72.62072
G1 F300 X-23.19529 Y72.69390
G1 F300 X-22.98459 Y72.73901
G1 F300 X-22.76305 Y72.74033
G1 F300 X-22.53989 Y72.69390
G1 F300 X-22.37677 Y72.62070
G1 F300 X-22.12808 Y72.86936
;G04 P0 ; dwell for no time -- G64 should not smooth over this point 
G1 F3000 Z3.00000 ; retract 

G1 F3000 X-21.41363 Y71.63038 ; rapid move to begin. 
G1 F300 F300.00000
G1 F300 Z-0.07000
;G04 P0 ; dwell for no time -- G64 should not smooth over this point 
G1 F300 F600.00000
G1 F300 X-21.41363 Y71.63038
G1 F300 X-21.43075 Y71.91511
G1 F300 X-21.50309 Y72.19101
G1 F300 X-21.60276 Y72.39586
G1 F300 X-21.68404 Y72.42532
G1 F300 X-21.93308 Y72.17625
G1 F300 X-21.89699 Y72.11110
G1 F300 X-21.83075 Y71.90620
G1 F300 X-21.80791 Y71.69207
G1 F300 X-21.83075 Y71.46543
G1 F300 X-21.89699 Y71.26053
G1 F300 X-21.93308 Y71.19538
G1 F300 X-21.68401 Y70.94633
G1 F300 X-21.59887 Y70.97717
G1 F300 X-21.54670 Y71.07478
G1 F300 X-21.45239 Y71.34780
G1 F300 X-21.41363 Y71.63038
;G04 P0 ; dwell for no time -- G64 should not smooth over this point 
G1 F3000 Z3.00000 ; retract 

G1 F3000 X-22.12808 Y70.50229 ; rapid move to begin. 
G1 F300 F300.00000
G1 F300 Z-0.07000
;G04 P0 ; dwell for no time -- G64 should not smooth over this point 
G1 F300 F600.00000
G1 F300 X-22.12808 Y70.50229
G1 F300 X-22.15754 Y70.42101
G1 F300 X-22.36237 Y70.32134
G1 F300 X-22.63829 Y70.24900
G1 F300 X-22.92302 Y70.23188
G1 F300 X-23.20557 Y70.27064
G1 F300 X-23.47862 Y70.36495
G1 F300 X-23.57623 Y70.41712
G1 F300 X-23.60707 Y70.50226
G1 F300 X-23.35840 Y70.75093
G1 F300 X-23.19529 Y70.67772
G1 F300 X-22.97212 Y70.63129
G1 F300 X-22.75058 Y70.63261
G1 F300 X-22.53989 Y70.67772
G1 F300 X-22.37675 Y70.75093
G1 F300 X-22.12808 Y70.50229
;G04 P0 ; dwell for no time -- G64 should not smooth over this point 
G1 F3000 Z3.00000 ; retract 

G1 F3000 X-23.80209 Y71.19538 ; rapid move to begin. 
G1 F300 F300.00000
G1 F300 Z-0.07000
;G04 P0 ; dwell for no time -- G64 should not smooth over this point 
G1 F300 F600.00000
G1 F300 X-23.80209 Y71.19538
G1 F300 X-23.83818 Y71.26053
G1 F300 X-23.90443 Y71.46543
G1 F300 X-23.92726 Y71.67955
G1 F300 X-23.90443 Y71.90620
G1 F300 X-23.83818 Y72.11110
G1 F300 X-23.80209 Y72.17627
G1 F300 X-24.05111 Y72.42532
G1 F300 X-24.13628 Y72.39446
G1 F300 X-24.18845 Y72.29685
G1 F300 X-24.28276 Y72.02382
G1 F300 X-24.32152 Y71.74127
G1 F300 X-24.30440 Y71.45656
G1 F300 X-24.23206 Y71.18064
G1 F300 X-24.13239 Y70.97577
G1 F300 X-24.05114 Y70.94633
G1 F300 X-23.80209 Y71.19538
;G04 P0 ; dwell for no time -- G64 should not smooth over this point 
G1 F3000 Z3.00000 ; retract 

G1 F3000 X-21.72137 Y66.49165 ; rapid move to begin. 
G1 F300 F300.00000
G1 F300 Z-0.07000
;G04 P0 ; dwell for no time -- G64 should not smooth over this point 
G1 F300 F600.00000
G1 F300 X-21.72137 Y66.49165
G1 F300 X-21.72267 Y66.73244
G1 F300 X-21.77177 Y66.96186
G1 F300 X-21.86689 Y67.17631
G1 F300 X-22.00738 Y67.37191
G1 F300 X-22.19562 Y67.54138
G1 F300 X-22.39894 Y67.65840
G1 F300 X-22.62196 Y67.73120
G1 F300 X-22.86760 Y67.75802
G1 F300 X-26.14953 Y67.75802
G1 F300 X-27.79868 Y69.40717
G1 F300 X-27.79868 Y72.68910
G1 F300 X-27.81997 Y72.90807
G1 F300 X-27.88440 Y73.12448
G1 F300 X-27.98984 Y73.32418
G1 F300 X-28.13614 Y73.50383
G1 F300 X-29.27483 Y74.64254
G1 F300 X-29.45448 Y74.78887
G1 F300 X-29.65418 Y74.89430
G1 F300 X-29.85908 Y74.95646
G1 F300 X-30.08958 Y74.98003
G1 F300 X-48.82777 Y74.98003
G1 F300 X-49.05825 Y74.95646
G1 F300 X-49.27400 Y74.88981
G1 F300 X-49.47263 Y74.78234
G1 F300 X-49.64644 Y74.63819
G1 F300 X-49.78881 Y74.46291
G1 F300 X-49.89424 Y74.26321
G1 F300 X-49.95868 Y74.04678
G1 F300 X-49.97997 Y73.82781
G1 F300 X-49.97997 Y39.27680
G1 F300 X-49.95642 Y39.04644
G1 F300 X-49.88985 Y38.83082
G1 F300 X-49.78251 Y38.63230
G1 F300 X-49.61611 Y38.43568
G1 F300 X-49.44619 Y38.29572
G1 F300 X-49.24748 Y38.18815
G1 F300 X-49.04172 Y38.12448
G1 F300 X-48.74492 Y37.98348
G1 F300 X-48.47273 Y37.92696
G1 F300 X-48.20722 Y37.92696
G1 F300 X-47.92899 Y37.98511
G1 F300 X-47.66971 Y38.10162
G1 F300 X-47.45005 Y38.26164
G1 F300 X-47.26796 Y38.46339
G1 F300 X-47.12272 Y38.71492
G1 F300 X-47.03806 Y38.97969
G1 F300 X-47.01033 Y39.24375
G1 F300 X-47.03806 Y39.52033
G1 F300 X-47.12783 Y39.79656
G1 F300 X-47.26057 Y40.02650
G1 F300 X-47.44561 Y40.23395
G1 F300 X-47.67555 Y40.40179
G1 F300 X-47.67555 Y72.67561
G1 F300 X-30.56682 Y72.67561
G1 F300 X-30.10309 Y72.21186
G1 F300 X-30.10309 Y68.92993
G1 F300 X-30.07952 Y68.69942
G1 F300 X-30.01287 Y68.48367
G1 F300 X-29.90541 Y68.28504
G1 F300 X-29.76561 Y68.11519
G1 F300 X-27.44151 Y65.79109
G1 F300 X-27.27166 Y65.65129
G1 F300 X-27.06218 Y65.53933
G1 F300 X-26.84575 Y65.47489
G1 F300 X-26.62680 Y65.45361
G1 F300 X-22.86760 Y65.45361
G1 F300 X-22.63422 Y65.47781
G1 F300 X-22.39336 Y65.55607
G1 F300 X-22.18546 Y65.67761
G1 F300 X-22.01134 Y65.83483
G1 F300 X-21.87316 Y66.02444
G1 F300 X-21.77403 Y66.24390
G1 F300 X-21.72137 Y66.49165
;G04 P0 ; dwell for no time -- G64 should not smooth over this point 
G1 F3000 Z3.00000 ; retract 

G1 F3000 X-14.50569 Y70.90328 ; rapid move to begin. 
G1 F300 F300.00000
G1 F300 Z-0.07000
;G04 P0 ; dwell for no time -- G64 should not smooth over this point 
G1 F300 F600.00000
G1 F300 X-14.50569 Y70.90328
G1 F300 X-14.54178 Y70.96843
G1 F300 X-14.60803 Y71.17333
G1 F300 X-14.63086 Y71.38745
G1 F300 X-14.60803 Y71.61410
G1 F300 X-14.54178 Y71.81900
G1 F300 X-14.50569 Y71.88417
G1 F300 X-14.75471 Y72.13322
G1 F300 X-14.83988 Y72.10236
G1 F300 X-14.89208 Y72.00472
G1 F300 X-14.98636 Y71.73175
G1 F300 X-15.02512 Y71.44915
G1 F300 X-15.00800 Y71.16444
G1 F300 X-14.93566 Y70.88854
G1 F300 X-14.83599 Y70.68367
G1 F300 X-14.75474 Y70.65423
G1 F300 X-14.50569 Y70.90328
;G04 P0 ; dwell for no time -- G64 should not smooth over this point 
G1 F3000 Z3.00000 ; retract 

G1 F3000 X-12.83168 Y72.57726 ; rapid move to begin. 
G1 F300 F300.00000
G1 F300 Z-0.07000
;G04 P0 ; dwell for no time -- G64 should not smooth over this point 
G1 F300 F600.00000
G1 F300 X-12.83168 Y72.57726
G1 F300 X-13.08037 Y72.32860
G1 F300 X-13.24349 Y72.40180
G1 F300 X-13.46665 Y72.44823
G1 F300 X-13.68819 Y72.44691
G1 F300 X-13.89889 Y72.40180
G1 F300 X-14.06200 Y72.32862
G1 F300 X-14.31067 Y72.57729
G1 F300 X-14.28123 Y72.65854
G1 F300 X-14.07638 Y72.75821
G1 F300 X-13.80044 Y72.83055
G1 F300 X-13.51573 Y72.84767
G1 F300 X-13.23318 Y72.80891
G1 F300 X-12.96015 Y72.71460
G1 F300 X-12.86254 Y72.66243
G1 F300 X-12.83168 Y72.57726
;G04 P0 ; dwell for no time -- G64 should not smooth over this point 
G1 F3000 Z3.00000 ; retract 

G1 F3000 X-12.11723 Y71.33828 ; rapid move to begin. 
G1 F300 F300.00000
G1 F300 Z-0.07000
;G04 P0 ; dwell for no time -- G64 should not smooth over this point 
G1 F300 F600.00000
G1 F300 X-12.11723 Y71.33828
G1 F300 X-12.15599 Y71.05570
G1 F300 X-12.25027 Y70.78270
G1 F300 X-12.30247 Y70.68507
G1 F300 X-12.38761 Y70.65423
G1 F300 X-12.63668 Y70.90330
G1 F300 X-12.60059 Y70.96843
G1 F300 X-12.53435 Y71.17333
G1 F300 X-12.51151 Y71.39997
G1 F300 X-12.53435 Y71.61410
G1 F300 X-12.60059 Y71.81900
G1 F300 X-12.63668 Y71.88415
G1 F300 X-12.38764 Y72.13322
G1 F300 X-12.30636 Y72.10376
G1 F300 X-12.20669 Y71.89891
G1 F300 X-12.13435 Y71.62299
G1 F300 X-12.11723 Y71.33828
;G04 P0 ; dwell for no time -- G64 should not smooth over this point 
G1 F3000 Z3.00000 ; retract 

G1 F3000 X-12.83168 Y70.21019 ; rapid move to begin. 
G1 F300 F300.00000
G1 F300 Z-0.07000
;G04 P0 ; dwell for no time -- G64 should not smooth over this point 
G1 F300 F600.00000
G1 F300 X-12.83168 Y70.21019
G1 F300 X-13.08035 Y70.45883
G1 F300 X-13.24349 Y70.38562
G1 F300 X-13.45418 Y70.34051
G1 F300 X-13.67572 Y70.33919
G1 F300 X-13.89889 Y70.38562
G1 F300 X-14.06203 Y70.45883
G1 F300 X-14.31067 Y70.21016
G1 F300 X-14.27983 Y70.12502
G1 F300 X-14.18220 Y70.07285
G1 F300 X-13.90920 Y69.97854
G1 F300 X-13.62662 Y69.93978
G1 F300 X-13.34189 Y69.95690
G1 F300 X-13.06599 Y70.02924
G1 F300 X-12.86114 Y70.12891
G1 F300 X-12.83168 Y70.21019
;G04 P0 ; dwell for no time -- G64 should not smooth over this point 
G1 F3000 Z3.00000 ; retract 

G1 F3000 X-0.61796 Y67.47095 ; rapid move to begin. 
G1 F300 F300.00000
G1 F300 Z-0.07000
;G04 P0 ; dwell for no time -- G64 should not smooth over this point 
G1 F300 F600.00000
G1 F300 X-0.61796 Y67.47095
G1 F300 X-0.61796 Y74.48501
G1 F300 X-0.63221 Y74.55658
G1 F300 X-0.67275 Y74.61724
G1 F300 X-0.73341 Y74.65778
G1 F300 X-0.79327 Y74.67086
G1 F300 X-28.30417 Y74.67203
G1 F300 X-28.40300 Y74.64353
G1 F300 X-28.45964 Y74.58892
G1 F300 X-28.48755 Y74.52151
G1 F300 X-28.48755 Y74.44853
G1 F300 X-28.45969 Y74.38120
G1 F300 X-27.85667 Y73.78364
G1 F300 X-27.66406 Y73.54897
G1 F300 X-27.52103 Y73.28140
G1 F300 X-27.43295 Y72.99106
G1 F300 X-27.40320 Y72.68890
G1 F300 X-27.41069 Y69.64534
G1 F300 X-27.39645 Y69.57379
G1 F300 X-27.35591 Y69.51313
G1 F300 X-26.04357 Y68.20079
G1 F300 X-25.98291 Y68.16025
G1 F300 X-25.91136 Y68.14601
G1 F300 X-22.79188 Y68.14601
G1 F300 X-22.56564 Y68.12375
G1 F300 X-22.27530 Y68.03567
G1 F300 X-22.00776 Y67.89267
G1 F300 X-21.77324 Y67.70018
G1 F300 X-21.58076 Y67.46564
G1 F300 X-21.43773 Y67.19808
G1 F300 X-21.34965 Y66.90778
G1 F300 X-21.31990 Y66.60583
G1 F300 X-21.34965 Y66.30390
G1 F300 X-21.43773 Y66.01357
G1 F300 X-21.58076 Y65.74601
G1 F300 X-21.77324 Y65.51149
G1 F300 X-22.00776 Y65.31899
G1 F300 X-22.27530 Y65.17598
G1 F300 X-22.56564 Y65.08790
G1 F300 X-22.79198 Y65.06562
G1 F300 X-26.62655 Y65.05815
G1 F300 X-26.92870 Y65.08790
G1 F300 X-27.21905 Y65.17598
G1 F300 X-27.48659 Y65.31899
G1 F300 X-27.72129 Y65.51162
G1 F300 X-30.04508 Y67.83541
G1 F300 X-30.23769 Y68.07011
G1 F300 X-30.38072 Y68.33767
G1 F300 X-30.46880 Y68.62800
G1 F300 X-30.49857 Y68.93013
G1 F300 X-30.49108 Y71.97368
G1 F300 X-30.50533 Y72.04526
G1 F300 X-30.54584 Y72.10592
G1 F300 X-30.69636 Y72.25260
G1 F300 X-30.76850 Y72.28402
G1 F300 X-47.10055 Y72.28763
G1 F300 X-47.21355 Y72.24864
G1 F300 X-47.26158 Y72.19413
G1 F300 X-47.28757 Y72.10061
G1 F300 X-47.28757 Y40.70468
G1 F300 X-47.25617 Y40.60098
G1 F300 X-47.00565 Y40.34537
G1 F300 X-46.81751 Y40.06382
G1 F300 X-46.68800 Y39.75114
G1 F300 X-46.62198 Y39.41921
G1 F300 X-46.62198 Y39.08084
G1 F300 X-46.68800 Y38.74891
G1 F300 X-46.81751 Y38.43626
G1 F300 X-47.00555 Y38.15485
G1 F300 X-47.24482 Y37.91556
G1 F300 X-47.52617 Y37.72755
G1 F300 X-47.83887 Y37.59803
G1 F300 X-48.17078 Y37.53202
G1 F300 X-48.50918 Y37.53202
G1 F300 X-48.84111 Y37.59806
G1 F300 X-49.20979 Y37.76247
G1 F300 X-49.46424 Y37.84281
G1 F300 X-49.54037 Y37.83558
G1 F300 X-49.58629 Y37.81411
G1 F300 X-49.64067 Y37.76037
G1 F300 X-49.66897 Y37.68935
G1 F300 X-49.67199 Y24.38655
G1 F300 X-49.65871 Y24.31792
G1 F300 X-49.61708 Y24.25450
G1 F300 X-49.51692 Y24.20253
G1 F300 X-49.42927 Y24.20827
G1 F300 X-49.36295 Y24.24515
G1 F300 X-49.30511 Y24.31099
G1 F300 X-49.12089 Y24.46217
G1 F300 X-48.91068 Y24.57454
G1 F300 X-48.68256 Y24.64373
G1 F300 X-48.50484 Y24.66121
G1 F300 X-46.86191 Y24.66121
G1 F300 X-46.68416 Y24.64373
G1 F300 X-46.45607 Y24.57454
G1 F300 X-46.13428 Y24.40200
G1 F300 X-44.69918 Y24.40385
G1 F300 X-44.51305 Y24.38551
G1 F300 X-44.33433 Y24.33131
G1 F300 X-44.16964 Y24.24327
G1 F300 X-44.02504 Y24.12458
G1 F300 X-43.01051 Y23.10535
G1 F300 X-42.96281 Y23.07078
G1 F300 X-42.89426 Y23.05001
G1 F300 X-42.78336 Y23.07289
G1 F300 X-42.71884 Y23.13296
G1 F300 X-42.68778 Y23.23576
G1 F300 X-42.69240 Y27.01962
G1 F300 X-42.67406 Y27.20573
G1 F300 X-42.61986 Y27.38447
G1 F300 X-42.53185 Y27.54913
G1 F300 X-42.41313 Y27.69376
G1 F300 X-42.01991 Y28.08695
G1 F300 X-41.87531 Y28.20567
G1 F300 X-41.71062 Y28.29371
G1 F300 X-41.53190 Y28.34791
G1 F300 X-41.34572 Y28.36625
G1 F300 X-19.80472 Y28.36524
G1 F300 X-19.73258 Y28.39666
G1 F300 X-19.66964 Y28.47438
G1 F300 X-19.65780 Y28.58512
G1 F300 X-19.68922 Y28.65726
G1 F300 X-20.80596 Y29.77781
G1 F300 X-20.86661 Y29.81834
G1 F300 X-21.05564 Y29.89665
G1 F300 X-21.33377 Y30.08250
G1 F300 X-21.57030 Y30.31903
G1 F300 X-21.75612 Y30.59713
G1 F300 X-21.88411 Y30.90613
G1 F300 X-21.94936 Y31.23417
G1 F300 X-21.94936 Y31.56868
G1 F300 X-21.88411 Y31.89673
G1 F300 X-21.75612 Y32.20574
G1 F300 X-21.57030 Y32.48382
G1 F300 X-21.33380 Y32.72032
G1 F300 X-21.05567 Y32.90617
G1 F300 X-20.74665 Y33.03419
G1 F300 X-20.41861 Y33.09942
G1 F300 X-20.08414 Y33.09942
G1 F300 X-19.75607 Y33.03416
G1 F300 X-19.44708 Y32.90617
G1 F300 X-19.16895 Y32.72032
G1 F300 X-18.93248 Y32.48385
G1 F300 X-18.74663 Y32.20572
G1 F300 X-18.66829 Y32.01666
G1 F300 X-18.62776 Y31.95601
G1 F300 X-16.68704 Y30.02581
G1 F300 X-16.49441 Y29.79109
G1 F300 X-16.35138 Y29.52355
G1 F300 X-16.26332 Y29.23323
G1 F300 X-16.23358 Y28.93105
G1 F300 X-16.24104 Y26.81698
G1 F300 X-16.22680 Y26.74543
G1 F300 X-16.14849 Y26.55638
G1 F300 X-16.08323 Y26.22831
G1 F300 X-16.08323 Y25.89384
G1 F300 X-16.14849 Y25.56575
G1 F300 X-16.27648 Y25.25678
G1 F300 X-16.46263 Y24.97820
G1 F300 X-16.55204 Y24.88368
G1 F300 X-16.57963 Y24.81686
G1 F300 X-16.58293 Y23.94680
G1 F300 X-16.55171 Y23.84879
G1 F300 X-16.50012 Y23.79720
G1 F300 X-16.42687 Y23.76842
G1 F300 X-16.19088 Y23.76568
G1 F300 X-15.96690 Y23.72613
G1 F300 X-15.52959 Y23.72811
G1 F300 X-15.43940 Y23.76479
G1 F300 X-15.29677 Y23.90243
G1 F300 X-15.21895 Y23.94404
G1 F300 X-15.03747 Y23.97919
G1 F300 X-13.75588 Y23.97919
G1 F300 X-13.65883 Y23.96964
G1 F300 X-13.46500 Y23.90169
G1 F300 X-13.39332 Y23.90858
G1 F300 X-13.23452 Y23.96964
G1 F300 X-12.86053 Y23.97678
G1 F300 X-12.81067 Y23.92692
G1 F300 X-12.81067 Y23.58811
G1 F300 X-13.15840 Y23.58696
G1 F300 X-13.18911 Y23.57053
G1 F300 X-13.20554 Y23.53982
G1 F300 X-13.20668 Y22.02811
G1 F300 X-13.19658 Y21.99479
G1 F300 X-13.15840 Y21.96926
G1 F300 X-11.83498 Y21.96926
G1 F300 X-11.80425 Y21.98570
G1 F300 X-11.78670 Y22.02811
G1 F300 X-11.78670 Y22.46411
G1 F300 X-11.44789 Y22.46411
G1 F300 X-11.39818 Y22.41440
G1 F300 X-11.39566 Y22.03672
G1 F300 X-11.42185 Y21.82110
G1 F300 X-11.37070 Y21.71892
G1 F300 X-11.26960 Y21.66566
G1 F300 X-8.42793 Y21.66512
G1 F300 X-8.33700 Y21.70724
G1 F300 X-8.20814 Y21.85969
G1 F300 X-8.02366 Y22.01110
G1 F300 X-7.81345 Y22.12344
G1 F300 X-7.58539 Y22.19263
G1 F300 X-7.40764 Y22.21011
G1 F300 X-5.76471 Y22.21011
G1 F300 X-5.58696 Y22.19263
G1 F300 X-5.35890 Y22.12344
G1 F300 X-5.14869 Y22.01110
G1 F300 X-4.96444 Y21.85989
G1 F300 X-4.85080 Y21.72187
G1 F300 X-4.79022 Y21.67617
G1 F300 X-4.69055 Y21.65928
G1 F300 X-4.58719 Y21.70457
G1 F300 X-4.54150 Y21.76515
G1 F300 X-4.52631 Y21.81310
G1 F300 X-4.52334 Y22.51971
G1 F300 X-4.51379 Y22.61673
G1 F300 X-4.44584 Y22.81056
G1 F300 X-4.45273 Y22.88227
G1 F300 X-4.51379 Y23.04112
G1 F300 X-4.52334 Y23.13814
G1 F300 X-4.52334 Y24.41973
G1 F300 X-4.48819 Y24.60118
G1 F300 X-4.44658 Y24.67901
G1 F300 X-4.31183 Y24.81716
G1 F300 X-4.27320 Y24.90157
G1 F300 X-4.27338 Y26.01769
G1 F300 X-4.32944 Y26.12031
G1 F300 X-4.58158 Y26.28409
G1 F300 X-4.73594 Y26.43844
G1 F300 X-4.85722 Y26.61998
G1 F300 X-4.94099 Y26.82229
G1 F300 X-4.97198 Y26.95914
G1 F300 X-5.01323 Y27.01993
G1 F300 X-5.07249 Y27.05914
G1 F300 X-5.18496 Y27.06910
G1 F300 X-5.28260 Y27.01238
G1 F300 X-5.31930 Y26.95256
G1 F300 X-5.41455 Y26.65427
G1 F300 X-5.46365 Y26.63778
G1 F300 X-5.73723 Y26.91137
G1 F300 X-5.71033 Y26.99524
G1 F300 X-5.69491 Y27.15129
G1 F300 X-5.71033 Y27.29480
G1 F300 X-5.73726 Y27.37870
G1 F300 X-5.46365 Y27.65228
G1 F300 X-5.42400 Y27.64286
G1 F300 X-5.36266 Y27.50999
G1 F300 X-5.31445 Y27.32450
G1 F300 X-5.27086 Y27.26488
G1 F300 X-5.16647 Y27.21698
G1 F300 X-5.08951 Y27.22396
G1 F300 X-5.04307 Y27.24566
G1 F300 X-4.97170 Y27.33118
G1 F300 X-4.94099 Y27.46780
G1 F300 X-4.85725 Y27.67001
G1 F300 X-4.73594 Y27.85160
G1 F300 X-4.58153 Y28.00598
G1 F300 X-4.40002 Y28.12726
G1 F300 X-4.27211 Y28.18149
G1 F300 X-4.19697 Y28.24730
G1 F300 X-4.17063 Y28.31223
G1 F300 X-4.16947 Y28.37349
G1 F300 X-4.19855 Y28.45261
G1 F300 X-4.25519 Y28.50722
G1 F300 X-4.35412 Y28.53572
G1 F300 X-5.97208 Y28.53201
G1 F300 X-6.04025 Y28.50331
G1 F300 X-6.09197 Y28.45038
G1 F300 X-6.11912 Y28.38154
G1 F300 X-6.11744 Y28.30755
G1 F300 X-6.07932 Y28.23105
G1 F300 X-6.03370 Y28.18985
G1 F300 X-5.91869 Y28.14250
G1 F300 X-5.90772 Y28.09635
G1 F300 X-6.17934 Y27.82472
G1 F300 X-6.34597 Y27.86178
G1 F300 X-6.49029 Y27.86148
G1 F300 X-6.65059 Y27.82472
G1 F300 X-6.92222 Y28.09635
G1 F300 X-6.91264 Y28.13664
G1 F300 X-6.76215 Y28.22071
G1 F300 X-6.71297 Y28.32452
G1 F300 X-6.71904 Y28.40158
G1 F300 X-6.74015 Y28.44827
G1 F300 X-6.79397 Y28.50374
G1 F300 X-6.85346 Y28.53006
G1 F300 X-8.71947 Y28.53110
G1 F300 X-8.90558 Y28.54944
G1 F300 X-9.08429 Y28.60364
G1 F300 X-9.24898 Y28.69165
G1 F300 X-9.39361 Y28.81037
G1 F300 X-9.83763 Y29.25439
G1 F300 X-9.95632 Y29.39899
G1 F300 X-10.04436 Y29.56368
G1 F300 X-10.09856 Y29.74240
G1 F300 X-10.11690 Y29.92858
G1 F300 X-10.11228 Y30.88530
G1 F300 X-10.12653 Y30.95687
G1 F300 X-10.16707 Y31.01756
G1 F300 X-10.23328 Y31.06007
G1 F300 X-10.33290 Y31.06922
G1 F300 X-10.73661 Y30.89647
G1 F300 X-11.06465 Y30.83122
G1 F300 X-11.39909 Y30.83122
G1 F300 X-11.72713 Y30.89647
G1 F300 X-12.03620 Y31.02449
G1 F300 X-12.31431 Y31.21032
G1 F300 X-12.55078 Y31.44679
G1 F300 X-12.73661 Y31.72489
G1 F300 X-12.86462 Y32.03396
G1 F300 X-12.92988 Y32.36198
G1 F300 X-12.92988 Y32.69647
G1 F300 X-12.86462 Y33.02451
G1 F300 X-12.73661 Y33.33355
G1 F300 X-12.55081 Y33.61166
G1 F300 X-12.31377 Y33.84869
G1 F300 X-12.23620 Y33.90416
G1 F300 X-12.18347 Y34.00139
G1 F300 X-12.18263 Y34.76921
G1 F300 X-12.20384 Y34.82883
G1 F300 X-12.29777 Y34.97495
G1 F300 X-12.33295 Y35.15649
G1 F300 X-12.33295 Y36.63797
G1 F300 X-12.29777 Y36.81950
G1 F300 X-12.20021 Y36.96552
G1 F300 X-12.05413 Y37.06314
G1 F300 X-11.96968 Y37.08874
G1 F300 X-10.50044 Y37.09260
G1 F300 X-10.40039 Y37.13250
G1 F300 X-10.33773 Y37.22458
G1 F300 X-10.33059 Y37.29720
G1 F300 X-10.34725 Y37.35615
G1 F300 X-10.46986 Y37.54373
G1 F300 X-10.50504 Y37.72524
G1 F300 X-10.50504 Y39.00682
G1 F300 X-10.49549 Y39.10385
G1 F300 X-10.42754 Y39.29770
G1 F300 X-10.43443 Y39.36938
G1 F300 X-10.49549 Y39.52821
G1 F300 X-10.50263 Y39.90214
G1 F300 X-10.39054 Y40.01589
G1 F300 X-10.34824 Y40.09681
G1 F300 X-10.34682 Y40.17550
G1 F300 X-10.39404 Y40.26689
G1 F300 X-10.49308 Y40.32229
G1 F300 X-10.59671 Y40.32564
G1 F300 X-10.68899 Y40.35137
G1 F300 X-10.76054 Y40.33712
G1 F300 X-10.82119 Y40.29658
G1 F300 X-11.00344 Y40.10377
G1 F300 X-11.23813 Y39.91116
G1 F300 X-11.50572 Y39.76813
G1 F300 X-11.79604 Y39.68007
G1 F300 X-12.09820 Y39.65033
G1 F300 X-20.07820 Y39.65033
G1 F300 X-20.38038 Y39.68007
G1 F300 X-20.67068 Y39.76813
G1 F300 X-20.93827 Y39.91116
G1 F300 X-21.17294 Y40.10374
G1 F300 X-21.40608 Y40.34746
G1 F300 X-21.46405 Y40.38678
G1 F300 X-21.77078 Y40.42157
G1 F300 X-22.02280 Y40.49803
G1 F300 X-22.25505 Y40.62218
G1 F300 X-22.45863 Y40.78924
G1 F300 X-22.62574 Y40.99285
G1 F300 X-22.74987 Y41.22508
G1 F300 X-22.82633 Y41.47710
G1 F300 X-22.85216 Y41.73923
G1 F300 X-22.82633 Y42.00135
G1 F300 X-22.74987 Y42.25337
G1 F300 X-22.62572 Y42.48560
G1 F300 X-22.45866 Y42.68919
G1 F300 X-22.25505 Y42.85627
G1 F300 X-22.02280 Y42.98042
G1 F300 X-21.77078 Y43.05688
G1 F300 X-21.38188 Y43.08375
G1 F300 X-21.21221 Y43.16899
G1 F300 X-20.92166 Y43.25713
G1 F300 X-20.61965 Y43.28687
G1 F300 X-20.31774 Y43.25715
G1 F300 X-20.02742 Y43.16907
G1 F300 X-19.83766 Y43.07877
G1 F300 X-19.46857 Y43.05688
G1 F300 X-19.21655 Y42.98042
G1 F300 X-18.98394 Y42.85609
G1 F300 X-18.86756 Y42.76361
G1 F300 X-18.77348 Y42.73818
G1 F300 X-12.76566 Y42.74519
G1 F300 X-12.68118 Y42.79297
G1 F300 X-11.58449 Y43.90021
G1 F300 X-11.34974 Y44.09284
G1 F300 X-11.08220 Y44.23587
G1 F300 X-10.79186 Y44.32395
G1 F300 X-10.48975 Y44.35370
G1 F300 X-9.39470 Y44.34621
G1 F300 X-9.32313 Y44.36045
G1 F300 X-9.26648 Y44.39731
G1 F300 X-9.13461 Y44.53846
G1 F300 X-9.10862 Y44.62439
G1 F300 X-9.12107 Y44.70074
G1 F300 X-9.15950 Y44.76129
G1 F300 X-9.21756 Y44.80277
G1 F300 X-9.39308 Y44.84780
G1 F300 X-9.45439 Y44.98065
G1 F300 X-9.50547 Y45.19294
G1 F300 X-9.51413 Y45.41107
G1 F300 X-9.48007 Y45.62680
G1 F300 X-9.39976 Y45.84229
G1 F300 X-9.35361 Y45.85326
G1 F300 X-9.08002 Y45.57971
G1 F300 X-9.10695 Y45.49578
G1 F300 X-9.12236 Y45.35227
G1 F300 X-9.10794 Y45.20244
G1 F300 X-9.06041 Y45.05301
G1 F300 X-8.98853 Y44.92784
G1 F300 X-8.88434 Y44.81064
G1 F300 X-8.76776 Y44.72555
G1 F300 X-8.61884 Y44.65923
G1 F300 X-8.47131 Y44.62924
G1 F300 X-8.32699 Y44.62957
G1 F300 X-8.17380 Y44.66312
G1 F300 X-8.03682 Y44.72555
G1 F300 X-7.92023 Y44.81064
G1 F300 X-7.82343 Y44.91768
G1 F300 X-7.74416 Y45.05301
G1 F300 X-7.69664 Y45.20244
G1 F300 X-7.68221 Y45.35227
G1 F300 X-7.69763 Y45.49578
G1 F300 X-7.72453 Y45.57968
G1 F300 X-7.45094 Y45.85326
G1 F300 X-7.41127 Y45.84384
G1 F300 X-7.35016 Y45.71138
G1 F300 X-7.29908 Y45.49911
G1 F300 X-7.29042 Y45.28098
G1 F300 X-7.32448 Y45.06528
G1 F300 X-7.40479 Y44.84976
G1 F300 X-7.61546 Y44.78656
G1 F300 X-7.67825 Y44.71105
G1 F300 X-7.69626 Y44.63307
G1 F300 X-7.65770 Y44.51997
G1 F300 X-7.53301 Y44.39353
G1 F300 X-7.48142 Y44.36045
G1 F300 X-7.42156 Y44.34737
G1 F300 X-7.09842 Y44.34621
G1 F300 X-7.02684 Y44.36045
G1 F300 X-6.96618 Y44.40099
G1 F300 X-6.71549 Y44.66223
G1 F300 X-6.48082 Y44.85484
G1 F300 X-6.21325 Y44.99787
G1 F300 X-5.92290 Y45.08595
G1 F300 X-5.62080 Y45.11570
G1 F300 X-3.18941 Y45.10821
G1 F300 X-3.11783 Y45.12245
G1 F300 X-3.06627 Y45.15553
G1 F300 X-3.01664 Y45.22365
G1 F300 X-3.00239 Y45.29520
G1 F300 X-3.00239 Y50.11018
G1 F300 X-3.01664 Y50.18175
G1 F300 X-3.04971 Y50.23332
G1 F300 X-3.12908 Y50.28638
G1 F300 X-3.18941 Y50.29720
G1 F300 X-3.24971 Y50.28638
G1 F300 X-3.32161 Y50.24241
G1 F300 X-4.22164 Y49.33182
G1 F300 X-4.45633 Y49.13921
G1 F300 X-4.72392 Y48.99618
G1 F300 X-5.01424 Y48.90810
G1 F300 X-5.31640 Y48.87835
G1 F300 X-10.01096 Y48.88582
G1 F300 X-10.08251 Y48.87157
G1 F300 X-10.14317 Y48.83103
G1 F300 X-11.46496 Y47.50924
G1 F300 X-11.50549 Y47.44859
G1 F300 X-11.58383 Y47.25951
G1 F300 X-11.76965 Y46.98140
G1 F300 X-12.00618 Y46.74490
G1 F300 X-12.28428 Y46.55908
G1 F300 X-12.59325 Y46.43109
G1 F300 X-12.92134 Y46.36584
G1 F300 X-13.25581 Y46.36584
G1 F300 X-13.58387 Y46.43109
G1 F300 X-13.89287 Y46.55908
G1 F300 X-14.17097 Y46.74490
G1 F300 X-14.40747 Y46.98140
G1 F300 X-14.59332 Y47.25953
G1 F300 X-14.72131 Y47.56853
G1 F300 X-14.78656 Y47.89657
G1 F300 X-14.78656 Y48.23108
G1 F300 X-14.72131 Y48.55913
G1 F300 X-14.59332 Y48.86812
G1 F300 X-14.40747 Y49.14625
G1 F300 X-14.17097 Y49.38275
G1 F300 X-13.89287 Y49.56857
G1 F300 X-13.70381 Y49.64691
G1 F300 X-13.64316 Y49.68744
G1 F300 X-11.82091 Y51.52021
G1 F300 X-11.58622 Y51.71284
G1 F300 X-11.31865 Y51.85587
G1 F300 X-11.02833 Y51.94395
G1 F300 X-10.72617 Y51.97367
G1 F300 X-6.03162 Y51.96621
G1 F300 X-5.92814 Y51.99745
G1 F300 X-5.81531 Y52.10540
G1 F300 X-5.76728 Y52.20001
G1 F300 X-5.76421 Y53.23217
G1 F300 X-5.74190 Y53.45846
G1 F300 X-5.65382 Y53.74880
G1 F300 X-5.51079 Y54.01634
G1 F300 X-5.31833 Y54.25086
G1 F300 X-5.08382 Y54.44334
G1 F300 X-4.87980 Y54.55241
G1 F300 X-4.82339 Y54.59869
G1 F300 X-4.78758 Y54.66877
G1 F300 X-4.78671 Y54.76010
G1 F300 X-4.80449 Y54.80806
G1 F300 X-4.85745 Y54.86749
G1 F300 X-4.99156 Y54.95766
G1 F300 X-5.07917 Y54.97964
G1 F300 X-13.07316 Y54.97964
G1 F300 X-13.13348 Y54.96879
G1 F300 X-13.25423 Y54.87598
G1 F300 X-13.30536 Y54.78030
G1 F300 X-13.30661 Y54.31200
G1 F300 X-13.26653 Y54.22274
G1 F300 X-13.09716 Y54.01639
G1 F300 X-12.95413 Y53.74878
G1 F300 X-12.86605 Y53.45848
G1 F300 X-12.83630 Y53.15653
G1 F300 X-12.86605 Y52.85457
G1 F300 X-12.95413 Y52.56427
G1 F300 X-13.09716 Y52.29671
G1 F300 X-13.28964 Y52.06219
G1 F300 X-13.52416 Y51.86971
G1 F300 X-13.79172 Y51.72668
G1 F300 X-14.08204 Y51.63860
G1 F300 X-14.30836 Y51.61632
G1 F300 X-18.89250 Y51.61632
G1 F300 X-18.97442 Y51.59653
G1 F300 X-19.02471 Y51.56153
G1 F300 X-19.05971 Y51.51124
G1 F300 X-19.07949 Y51.42930
G1 F300 X-19.07949 Y50.63923
G1 F300 X-19.06840 Y50.57591
G1 F300 X-19.01064 Y50.49435
G1 F300 X-18.78071 Y50.30921
G1 F300 X-18.61363 Y50.10563
G1 F300 X-18.48948 Y49.87337
G1 F300 X-18.41302 Y49.62133
G1 F300 X-18.38719 Y49.35920
G1 F300 X-18.41302 Y49.09712
G1 F300 X-18.48948 Y48.84510
G1 F300 X-18.61363 Y48.61282
G1 F300 X-18.78069 Y48.40927
G1 F300 X-18.98430 Y48.24218
G1 F300 X-19.21655 Y48.11803
G1 F300 X-19.46857 Y48.04157
G1 F300 X-19.83761 Y48.01965
G1 F300 X-20.02737 Y47.92941
G1 F300 X-20.31777 Y47.84130
G1 F300 X-20.61990 Y47.81153
G1 F300 X-24.16300 Y47.81902
G1 F300 X-24.26689 Y47.78750
G1 F300 X-24.31847 Y47.73591
G1 F300 X-24.34298 Y47.67975
G1 F300 X-24.34999 Y40.46709
G1 F300 X-24.31840 Y40.36310
G1 F300 X-24.11748 Y40.06377
G1 F300 X-23.98799 Y39.75114
G1 F300 X-23.92198 Y39.41921
G1 F300 X-23.92198 Y39.08084
G1 F300 X-23.98799 Y38.74891
G1 F300 X-24.11751 Y38.43626
G1 F300 X-24.30552 Y38.15488
G1 F300 X-24.54481 Y37.91556
G1 F300 X-24.82617 Y37.72755
G1 F300 X-25.13887 Y37.59803
G1 F300 X-25.47077 Y37.53202
G1 F300 X-25.80917 Y37.53202
G1 F300 X-26.14110 Y37.59806
G1 F300 X-26.37661 Y37.69557
G1 F300 X-26.44816 Y37.70982
G1 F300 X-37.32866 Y37.70982
G1 F300 X-37.40021 Y37.69557
G1 F300 X-37.46087 Y37.65503
G1 F300 X-42.37516 Y32.74074
G1 F300 X-42.42189 Y32.66281
G1 F300 X-42.48336 Y32.46015
G1 F300 X-42.59573 Y32.24991
G1 F300 X-42.74691 Y32.06566
G1 F300 X-42.93119 Y31.91448
G1 F300 X-43.11452 Y31.81613
G1 F300 X-43.17145 Y31.76520
G1 F300 X-43.20784 Y31.65761
G1 F300 X-43.17518 Y31.54885
G1 F300 X-43.12004 Y31.49596
G1 F300 X-43.04208 Y31.46112
G1 F300 X-42.84305 Y31.33025
G1 F300 X-42.67338 Y31.16315
G1 F300 X-42.53960 Y30.96615
G1 F300 X-42.45118 Y30.75713
G1 F300 X-42.48392 Y30.69942
G1 F300 X-42.85128 Y30.69942
G1 F300 X-42.89824 Y30.80168
G1 F300 X-42.99187 Y30.93056
G1 F300 X-43.12880 Y31.05385
G1 F300 X-43.26675 Y31.13351
G1 F300 X-43.42971 Y31.18784
G1 F300 X-43.60667 Y31.20742
G1 F300 X-45.13070 Y31.20742
G1 F300 X-45.29539 Y31.19043
G1 F300 X-45.47063 Y31.13351
G1 F300 X-45.61874 Y31.04646
G1 F300 X-45.74551 Y30.93056
G1 F300 X-45.83913 Y30.80168
G1 F300 X-45.88610 Y30.69942
G1 F300 X-46.25343 Y30.69942
G1 F300 X-46.28617 Y30.75713
G1 F300 X-46.19775 Y30.96615
G1 F300 X-46.06397 Y31.16315
G1 F300 X-45.89427 Y31.33028
G1 F300 X-45.58701 Y31.51956
G1 F300 X-45.54383 Y31.58258
G1 F300 X-45.52951 Y31.65761
G1 F300 X-45.54642 Y31.73211
G1 F300 X-45.59174 Y31.79363
G1 F300 X-45.80591 Y31.91425
G1 F300 X-45.99041 Y32.06569
G1 F300 X-46.14165 Y32.24994
G1 F300 X-46.25399 Y32.46015
G1 F300 X-46.32318 Y32.68827
G1 F300 X-46.34655 Y32.92543
G1 F300 X-46.32318 Y33.16259
G1 F300 X-46.25399 Y33.39073
G1 F300 X-46.14165 Y33.60091
G1 F300 X-45.99044 Y33.78516
G1 F300 X-45.80616 Y33.93640
G1 F300 X-45.59595 Y34.04874
G1 F300 X-45.38866 Y34.11183
G1 F300 X-45.31536 Y34.15694
G1 F300 X-39.08781 Y40.39501
G1 F300 X-38.85312 Y40.58764
G1 F300 X-38.58555 Y40.73067
G1 F300 X-38.29523 Y40.81875
G1 F300 X-37.99327 Y40.84847
G1 F300 X-37.69134 Y40.81875
G1 F300 X-37.56963 Y40.79021
G1 F300 X-27.61740 Y40.79021
G1 F300 X-27.54582 Y40.80445
G1 F300 X-27.47770 Y40.85409
G1 F300 X-27.44463 Y40.90565
G1 F300 X-27.43038 Y40.97720
G1 F300 X-27.43785 Y48.78752
G1 F300 X-27.40810 Y49.08966
G1 F300 X-27.32002 Y49.38000
G1 F300 X-27.17699 Y49.64754
G1 F300 X-26.98438 Y49.88224
G1 F300 X-26.41321 Y50.45343
G1 F300 X-26.17852 Y50.64604
G1 F300 X-25.91095 Y50.78907
G1 F300 X-25.62060 Y50.87715
G1 F300 X-25.31847 Y50.90687
G1 F300 X-22.34101 Y50.89971
G1 F300 X-22.23390 Y50.93839
G1 F300 X-22.19140 Y50.98251
G1 F300 X-22.16412 Y51.04706
G1 F300 X-22.16194 Y55.72200
G1 F300 X-22.20598 Y55.82215
G1 F300 X-22.45871 Y56.02932
G1 F300 X-22.62572 Y56.23285
G1 F300 X-22.74987 Y56.46508
G1 F300 X-22.82633 Y56.71710
G1 F300 X-22.85216 Y56.97923
G1 F300 X-22.82633 Y57.24135
G1 F300 X-22.74979 Y57.49363
G1 F300 X-22.62363 Y57.73683
G1 F300 X-22.62386 Y57.84735
G1 F300 X-22.68899 Y57.94054
G1 F300 X-22.80227 Y57.97902
G1 F300 X-23.48243 Y57.97628
G1 F300 X-23.55569 Y57.94750
G1 F300 X-23.60727 Y57.89591
G1 F300 X-23.63879 Y57.79200
G1 F300 X-23.63130 Y55.37920
G1 F300 X-23.66105 Y55.07707
G1 F300 X-23.74913 Y54.78675
G1 F300 X-23.89216 Y54.51918
G1 F300 X-24.08477 Y54.28451
G1 F300 X-25.73544 Y52.63382
G1 F300 X-25.97016 Y52.44119
G1 F300 X-26.23770 Y52.29818
G1 F300 X-26.52807 Y52.21010
G1 F300 X-26.83023 Y52.18035
G1 F300 X-34.29199 Y52.18477
G1 F300 X-34.39310 Y52.13148
G1 F300 X-34.43842 Y52.05488
G1 F300 X-34.43052 Y51.41868
G1 F300 X-34.48018 Y51.36903
G1 F300 X-34.81899 Y51.36903
G1 F300 X-34.81899 Y51.85500
G1 F300 X-34.82910 Y51.88835
G1 F300 X-34.86727 Y51.91386
G1 F300 X-37.89068 Y51.91386
G1 F300 X-37.92889 Y51.88835
G1 F300 X-37.93899 Y51.85500
G1 F300 X-37.93899 Y51.36903
G1 F300 X-38.27778 Y51.36903
G1 F300 X-38.32744 Y51.41868
G1 F300 X-38.32998 Y51.84639
G1 F300 X-38.31372 Y52.02925
G1 F300 X-38.35647 Y52.12231
G1 F300 X-38.42878 Y52.17418
G1 F300 X-38.49833 Y52.18782
G1 F300 X-40.46556 Y52.18782
G1 F300 X-40.56944 Y52.15630
G1 F300 X-40.80130 Y51.91960
G1 F300 X-40.82697 Y51.82021
G1 F300 X-40.79576 Y51.72219
G1 F300 X-40.74417 Y51.67060
G1 F300 X-40.67706 Y51.64274
G1 F300 X-40.33165 Y51.62955
G1 F300 X-40.16937 Y51.56232
G1 F300 X-40.04516 Y51.43811
G1 F300 X-40.00358 Y51.36031
G1 F300 X-39.96840 Y51.17886
G1 F300 X-39.96840 Y46.37117
G1 F300 X-39.97795 Y46.27417
G1 F300 X-40.04516 Y46.11194
G1 F300 X-40.16937 Y45.98773
G1 F300 X-40.33165 Y45.92050
G1 F300 X-46.12526 Y45.91097
G1 F300 X-46.30677 Y45.94613
G1 F300 X-46.45277 Y46.04369
G1 F300 X-46.55038 Y46.18976
G1 F300 X-46.58554 Y46.37122
G1 F300 X-46.58554 Y51.17881
G1 F300 X-46.57599 Y51.27583
G1 F300 X-46.50878 Y51.43811
G1 F300 X-46.38457 Y51.56232
G1 F300 X-46.22232 Y51.62953
G1 F300 X-44.87894 Y51.63908
G1 F300 X-44.81163 Y51.65163
G1 F300 X-44.75544 Y51.68571
G1 F300 X-44.69938 Y51.77377
G1 F300 X-44.66794 Y52.06074
G1 F300 X-44.57982 Y52.35127
G1 F300 X-44.43680 Y52.61886
G1 F300 X-44.24421 Y52.85353
G1 F300 X-42.27551 Y54.82223
G1 F300 X-42.04082 Y55.01484
G1 F300 X-41.77325 Y55.15787
G1 F300 X-41.48290 Y55.24595
G1 F300 X-41.18080 Y55.27570
G1 F300 X-36.18213 Y55.26821
G1 F300 X-36.07992 Y55.29886
G1 F300 X-36.04200 Y55.33168
G1 F300 X-36.00451 Y55.39739
G1 F300 X-35.99612 Y55.47255
G1 F300 X-36.01827 Y55.54489
G1 F300 X-36.06305 Y55.59940
G1 F300 X-36.33232 Y55.81469
G1 F300 X-36.52482 Y56.04920
G1 F300 X-36.66783 Y56.31674
G1 F300 X-36.75589 Y56.60709
G1 F300 X-36.78563 Y56.90902
G1 F300 X-36.75589 Y57.21095
G1 F300 X-36.66783 Y57.50127
G1 F300 X-36.52480 Y57.76886
G1 F300 X-36.33234 Y58.00338
G1 F300 X-36.09780 Y58.19586
G1 F300 X-35.83026 Y58.33889
G1 F300 X-35.53991 Y58.42695
G1 F300 X-35.31363 Y58.44922
G1 F300 X-30.67023 Y58.44953
G1 F300 X-30.57221 Y58.48075
G1 F300 X-30.30127 Y58.66177
G1 F300 X-29.99230 Y58.78976
G1 F300 X-29.66421 Y58.85502
G1 F300 X-29.32974 Y58.85502
G1 F300 X-29.00165 Y58.78976
G1 F300 X-28.69268 Y58.66177
G1 F300 X-28.41455 Y58.47592
G1 F300 X-28.17805 Y58.23942
G1 F300 X-27.99223 Y57.96132
G1 F300 X-27.86424 Y57.65233
G1 F300 X-27.79898 Y57.32431
G1 F300 X-27.79898 Y56.98974
G1 F300 X-27.86424 Y56.66170
G1 F300 X-27.99223 Y56.35273
G1 F300 X-28.17805 Y56.07463
G1 F300 X-28.41458 Y55.83810
G1 F300 X-28.81595 Y55.58306
G1 F300 X-28.86251 Y55.49454
G1 F300 X-28.85357 Y55.38639
G1 F300 X-28.78603 Y55.30143
G1 F300 X-28.67976 Y55.26821
G1 F300 X-27.54542 Y55.26821
G1 F300 X-27.47384 Y55.28245
G1 F300 X-27.41318 Y55.32299
G1 F300 X-26.77397 Y55.96223
G1 F300 X-26.72279 Y56.05794
G1 F300 X-26.72665 Y59.31582
G1 F300 X-26.69690 Y59.61796
G1 F300 X-26.60882 Y59.90830
G1 F300 X-26.46581 Y60.17584
G1 F300 X-26.27318 Y60.41056
G1 F300 X-26.07031 Y60.61343
G1 F300 X-25.83562 Y60.80604
G1 F300 X-25.56805 Y60.94907
G1 F300 X-25.27770 Y61.03715
G1 F300 X-24.97557 Y61.06690
G1 F300 X-20.54398 Y61.05941
G1 F300 X-20.31774 Y61.03715
G1 F300 X-20.02740 Y60.94907
G1 F300 X-19.83763 Y60.85877
G1 F300 X-19.46857 Y60.83688
G1 F300 X-19.21655 Y60.76042
G1 F300 X-18.98427 Y60.63627
G1 F300 X-18.82590 Y60.50657
G1 F300 X-18.74340 Y60.47000
G1 F300 X-17.44500 Y60.46723
G1 F300 X-17.37335 Y60.48148
G1 F300 X-17.31270 Y60.52202
G1 F300 X-16.02281 Y61.81841
G1 F300 X-15.87818 Y61.93708
G1 F300 X-15.71351 Y62.02511
G1 F300 X-15.53482 Y62.07932
G1 F300 X-15.34869 Y62.09766
G1 F300 X-7.04800 Y62.09301
G1 F300 X-6.97827 Y62.10652
G1 F300 X-6.73830 Y62.21081
G1 F300 X-6.52415 Y62.25341
G1 F300 X-6.30578 Y62.25341
G1 F300 X-6.09166 Y62.21081
G1 F300 X-5.88994 Y62.12727
G1 F300 X-5.70843 Y62.00599
G1 F300 X-5.55402 Y61.85161
G1 F300 X-5.43271 Y61.67002
G1 F300 X-5.34917 Y61.46832
G1 F300 X-5.30045 Y61.29641
G1 F300 X-5.24381 Y61.24180
G1 F300 X-5.14498 Y61.21330
G1 F300 X-5.04612 Y61.24180
G1 F300 X-4.98948 Y61.29641
G1 F300 X-4.94076 Y61.46837
G1 F300 X-4.85725 Y61.67002
G1 F300 X-4.73594 Y61.85161
G1 F300 X-4.58153 Y62.00599
G1 F300 X-4.40002 Y62.12727
G1 F300 X-4.19827 Y62.21081
G1 F300 X-3.98415 Y62.25341
G1 F300 X-3.76581 Y62.25341
G1 F300 X-3.55166 Y62.21081
G1 F300 X-3.34996 Y62.12727
G1 F300 X-3.28293 Y62.08386
G1 F300 X-3.19530 Y62.05818
G1 F300 X-3.10747 Y62.07767
G1 F300 X-3.05931 Y62.11063
G1 F300 X-3.01915 Y62.16799
G1 F300 X-3.00239 Y62.24487
G1 F300 X-3.00239 Y64.58650
G1 F300 X-3.03391 Y64.69041
G1 F300 X-3.12908 Y64.76270
G1 F300 X-3.18941 Y64.77352
G1 F300 X-13.64682 Y64.77352
G1 F300 X-13.87308 Y64.79580
G1 F300 X-14.16343 Y64.88388
G1 F300 X-14.43099 Y65.02689
G1 F300 X-14.66556 Y65.21942
G1 F300 X-14.85801 Y65.45391
G1 F300 X-15.00102 Y65.72145
G1 F300 X-15.08910 Y66.01180
G1 F300 X-15.11885 Y66.31373
G1 F300 X-15.08910 Y66.61563
G1 F300 X-15.00102 Y66.90600
G1 F300 X-14.85801 Y67.17354
G1 F300 X-14.66553 Y67.40806
G1 F300 X-14.43099 Y67.60054
G1 F300 X-14.16343 Y67.74357
G1 F300 X-13.87313 Y67.83165
G1 F300 X-13.64687 Y67.85391
G1 F300 X-2.09060 Y67.86137
G1 F300 X-1.78844 Y67.83165
G1 F300 X-1.49812 Y67.74357
G1 F300 X-1.23056 Y67.60054
G1 F300 X-0.99584 Y67.40793
G1 F300 X-0.91400 Y67.31939
G1 F300 X-0.86482 Y67.29462
G1 F300 X-0.79289 Y67.28515
G1 F300 X-0.69617 Y67.31913
G1 F300 X-0.63216 Y67.39950
G1 F300 X-0.61796 Y67.47095
;G04 P0 ; dwell for no time -- G64 should not smooth over this point 
G1 F3000 Z3.00000 ; retract 

G1 F3000 X-5.69491 Y61.13873 ; rapid move to begin. 
G1 F300 F300.00000
G1 F300 Z-0.07000
;G04 P0 ; dwell for no time -- G64 should not smooth over this point 
G1 F300 F600.00000
G1 F300 X-5.69491 Y61.13873
G1 F300 X-5.71033 Y60.99524
G1 F300 X-5.75686 Y60.85199
G1 F300 X-5.82875 Y60.72684
G1 F300 X-5.92849 Y60.61409
G1 F300 X-6.06039 Y60.51828
G1 F300 X-6.19844 Y60.45824
G1 F300 X-6.33969 Y60.42857
G1 F300 X-6.49029 Y60.42857
G1 F300 X-6.63154 Y60.45824
G1 F300 X-6.76959 Y60.51828
G1 F300 X-6.86367 Y60.58501
G1 F300 X-15.11702 Y60.58501
G1 F300 X-16.57881 Y59.12324
G1 F300 X-16.66873 Y59.05057
G1 F300 X-16.85981 Y58.97140
G1 F300 X-16.97477 Y58.95921
G1 F300 X-18.97055 Y58.95921
G1 F300 X-19.02544 Y58.88420
G1 F300 X-19.16799 Y58.75540
G1 F300 X-19.35056 Y58.65001
G1 F300 X-19.53959 Y58.58997
G1 F300 X-19.73070 Y58.57021
G1 F300 X-19.97096 Y58.57021
G1 F300 X-20.15104 Y58.46662
G1 F300 X-20.37406 Y58.39383
G1 F300 X-20.61343 Y58.36734
G1 F300 X-24.02678 Y58.36701
G1 F300 X-24.02678 Y55.37900
G1 F300 X-24.05035 Y55.14852
G1 F300 X-24.11700 Y54.93277
G1 F300 X-24.22447 Y54.73414
G1 F300 X-24.36427 Y54.56429
G1 F300 X-26.01527 Y52.91329
G1 F300 X-26.19490 Y52.76697
G1 F300 X-26.39459 Y52.66153
G1 F300 X-26.59950 Y52.59938
G1 F300 X-26.83000 Y52.57581
G1 F300 X-40.70373 Y52.57581
G1 F300 X-41.99776 Y51.28178
G1 F300 X-41.99776 Y51.24802
G1 F300 X-40.41948 Y51.24802
G1 F300 X-40.38616 Y51.23791
G1 F300 X-40.36406 Y51.21096
G1 F300 X-40.35949 Y46.36200
G1 F300 X-40.37706 Y46.31958
G1 F300 X-40.41948 Y46.30201
G1 F300 X-46.13448 Y46.30201
G1 F300 X-46.16783 Y46.31211
G1 F300 X-46.18993 Y46.33906
G1 F300 X-46.19448 Y51.18800
G1 F300 X-46.18437 Y51.22135
G1 F300 X-46.13448 Y51.24802
G1 F300 X-44.30218 Y51.24802
G1 F300 X-44.30218 Y51.75902
G1 F300 X-44.28089 Y51.97799
G1 F300 X-44.21645 Y52.19442
G1 F300 X-44.10449 Y52.40390
G1 F300 X-43.96469 Y52.57375
G1 F300 X-41.99571 Y54.54273
G1 F300 X-41.81608 Y54.68906
G1 F300 X-41.61638 Y54.79450
G1 F300 X-41.39995 Y54.85893
G1 F300 X-41.18097 Y54.88022
G1 F300 X-27.30724 Y54.88022
G1 F300 X-26.33119 Y55.85627
G1 F300 X-26.33119 Y59.31600
G1 F300 X-26.30991 Y59.53497
G1 F300 X-26.24547 Y59.75141
G1 F300 X-26.13351 Y59.96088
G1 F300 X-25.99371 Y60.13073
G1 F300 X-25.78616 Y60.33789
G1 F300 X-25.62066 Y60.47373
G1 F300 X-25.42203 Y60.58120
G1 F300 X-25.19475 Y60.65013
G1 F300 X-24.97580 Y60.67142
G1 F300 X-20.61343 Y60.67109
G1 F300 X-20.37406 Y60.64460
G1 F300 X-20.15104 Y60.57180
G1 F300 X-19.97096 Y60.46822
G1 F300 X-19.73070 Y60.46822
G1 F300 X-19.53959 Y60.44846
G1 F300 X-19.35056 Y60.38841
G1 F300 X-19.16799 Y60.28303
G1 F300 X-19.02544 Y60.15423
G1 F300 X-18.97055 Y60.07922
G1 F300 X-17.20675 Y60.07922
G1 F300 X-15.74059 Y61.54495
G1 F300 X-15.65504 Y61.61366
G1 F300 X-15.55773 Y61.66438
G1 F300 X-15.45240 Y61.69512
G1 F300 X-15.34897 Y61.70502
G1 F300 X-6.86367 Y61.70502
G1 F300 X-6.76959 Y61.77175
G1 F300 X-6.63154 Y61.83177
G1 F300 X-6.49029 Y61.86146
G1 F300 X-6.33969 Y61.86146
G1 F300 X-6.19844 Y61.83177
G1 F300 X-6.06039 Y61.77175
G1 F300 X-5.93294 Y61.68038
G1 F300 X-5.83611 Y61.57332
G1 F300 X-5.75686 Y61.43802
G1 F300 X-5.71196 Y61.30086
G1 F300 X-5.69491 Y61.13873
;G04 P0 ; dwell for no time -- G64 should not smooth over this point 
G1 F3000 Z3.00000 ; retract 

G1 F3000 X-3.10919 Y57.17762 ; rapid move to begin. 
G1 F300 F300.00000
G1 F300 Z-0.07000
;G04 P0 ; dwell for no time -- G64 should not smooth over this point 
G1 F300 F600.00000
G1 F300 X-3.10919 Y57.17762
G1 F300 X-3.11034 Y58.48931
G1 F300 X-3.12677 Y58.52004
G1 F300 X-3.15748 Y58.53645
G1 F300 X-3.35918 Y58.53762
G1 F300 X-3.35918 Y60.64666
G1 F300 X-3.28875 Y60.72684
G1 F300 X-3.21971 Y60.84640
G1 F300 X-3.17196 Y60.98917
G1 F300 X-3.15491 Y61.13873
G1 F300 X-3.17033 Y61.29479
G1 F300 X-3.21686 Y61.43802
G1 F300 X-3.28875 Y61.56319
G1 F300 X-3.39294 Y61.68038
G1 F300 X-3.50952 Y61.76547
G1 F300 X-3.64651 Y61.82791
G1 F300 X-3.79347 Y61.86050
G1 F300 X-3.95649 Y61.86050
G1 F300 X-4.10348 Y61.82791
G1 F300 X-4.22959 Y61.77175
G1 F300 X-4.35702 Y61.68038
G1 F300 X-4.46124 Y61.56319
G1 F300 X-4.53312 Y61.43802
G1 F300 X-4.57965 Y61.29479
G1 F300 X-4.59507 Y61.15128
G1 F300 X-4.57965 Y60.99524
G1 F300 X-4.53312 Y60.85199
G1 F300 X-4.47919 Y60.75796
G1 F300 X-4.47919 Y58.53762
G1 F300 X-4.68090 Y58.53645
G1 F300 X-4.71160 Y58.52004
G1 F300 X-4.72804 Y58.48931
G1 F300 X-4.72804 Y57.16592
G1 F300 X-4.70251 Y57.12771
G1 F300 X-4.66919 Y57.11760
G1 F300 X-3.16919 Y57.11760
G1 F300 X-3.12677 Y57.13518
G1 F300 X-3.10919 Y57.17762
;G04 P0 ; dwell for no time -- G64 should not smooth over this point 
G1 F3000 Z3.00000 ; retract 

G1 F3000 X-3.10919 Y55.27760 ; rapid move to begin. 
G1 F300 F300.00000
G1 F300 Z-0.07000
;G04 P0 ; dwell for no time -- G64 should not smooth over this point 
G1 F300 F600.00000
G1 F300 X-3.10919 Y55.27760
G1 F300 X-3.10919 Y56.57760
G1 F300 X-3.11930 Y56.61095
G1 F300 X-3.15748 Y56.63645
G1 F300 X-4.66919 Y56.63762
G1 F300 X-4.70251 Y56.62751
G1 F300 X-4.72461 Y56.60056
G1 F300 X-4.72918 Y56.48763
G1 F300 X-13.54915 Y56.48733
G1 F300 X-13.75202 Y56.44699
G1 F300 X-13.84933 Y56.39627
G1 F300 X-13.93488 Y56.32756
G1 F300 X-14.65296 Y55.60989
G1 F300 X-14.72563 Y55.51997
G1 F300 X-14.80480 Y55.32889
G1 F300 X-14.81669 Y55.21979
G1 F300 X-14.81699 Y54.30872
G1 F300 X-19.46748 Y54.30869
G1 F300 X-19.46748 Y56.07201
G1 F300 X-19.34470 Y56.11225
G1 F300 X-19.17815 Y56.20803
G1 F300 X-19.02989 Y56.33975
G1 F300 X-18.91226 Y56.49944
G1 F300 X-18.83040 Y56.68009
G1 F300 X-18.78689 Y56.88001
G1 F300 X-18.78689 Y57.07841
G1 F300 X-18.83040 Y57.27834
G1 F300 X-18.91226 Y57.45898
G1 F300 X-19.02544 Y57.61423
G1 F300 X-19.16799 Y57.74303
G1 F300 X-19.34470 Y57.84618
G1 F300 X-19.53959 Y57.90846
G1 F300 X-19.73070 Y57.92822
G1 F300 X-19.97581 Y57.92822
G1 F300 X-20.04919 Y57.97991
G1 F300 X-20.26364 Y58.07503
G1 F300 X-20.49306 Y58.12413
G1 F300 X-20.74632 Y58.12413
G1 F300 X-20.97573 Y58.07503
G1 F300 X-21.19018 Y57.97991
G1 F300 X-21.26356 Y57.92822
G1 F300 X-21.50867 Y57.92822
G1 F300 X-21.69978 Y57.90846
G1 F300 X-21.90027 Y57.84331
G1 F300 X-22.07139 Y57.74303
G1 F300 X-22.21393 Y57.61423
G1 F300 X-22.32711 Y57.45898
G1 F300 X-22.41286 Y57.26640
G1 F300 X-22.45249 Y57.07841
G1 F300 X-22.45282 Y56.88629
G1 F300 X-22.40898 Y56.68009
G1 F300 X-22.32711 Y56.49944
G1 F300 X-22.21393 Y56.34420
G1 F300 X-22.06123 Y56.20803
G1 F300 X-21.89468 Y56.11225
G1 F300 X-21.77189 Y56.07201
G1 F300 X-21.77189 Y50.51142
G1 F300 X-25.31870 Y50.51142
G1 F300 X-25.54918 Y50.48785
G1 F300 X-25.75408 Y50.42570
G1 F300 X-25.95378 Y50.32026
G1 F300 X-26.13341 Y50.17393
G1 F300 X-26.70491 Y49.60243
G1 F300 X-26.84471 Y49.43258
G1 F300 X-26.95217 Y49.23395
G1 F300 X-27.01882 Y49.01820
G1 F300 X-27.04239 Y48.78770
G1 F300 X-27.04239 Y40.40222
G1 F300 X-37.67303 Y40.40222
G1 F300 X-37.77433 Y40.43173
G1 F300 X-37.99917 Y40.45272
G1 F300 X-38.22378 Y40.42945
G1 F300 X-38.43953 Y40.36280
G1 F300 X-38.63816 Y40.25533
G1 F300 X-38.80803 Y40.11553
G1 F300 X-45.17848 Y33.74272
G1 F300 X-45.30766 Y33.72784
G1 F300 X-45.47063 Y33.67351
G1 F300 X-45.61874 Y33.58646
G1 F300 X-45.74154 Y33.47544
G1 F300 X-45.84541 Y33.33081
G1 F300 X-45.91246 Y33.17943
G1 F300 X-45.94721 Y33.01753
G1 F300 X-45.94721 Y32.83330
G1 F300 X-45.91246 Y32.67140
G1 F300 X-45.84541 Y32.52002
G1 F300 X-45.73710 Y32.37094
G1 F300 X-45.60858 Y32.25697
G1 F300 X-45.47063 Y32.17732
G1 F300 X-45.30159 Y32.12136
G1 F300 X-45.17167 Y32.10739
G1 F300 X-45.08871 Y32.02629
G1 F300 X-44.88605 Y31.89624
G1 F300 X-44.66690 Y31.81247
G1 F300 X-44.43522 Y31.77544
G1 F300 X-44.18844 Y31.78740
G1 F300 X-43.96174 Y31.84780
G1 F300 X-43.74096 Y31.95921
G1 F300 X-43.55946 Y32.10805
G1 F300 X-43.43578 Y32.12136
G1 F300 X-43.27820 Y32.17224
G1 F300 X-43.12880 Y32.25697
G1 F300 X-42.99583 Y32.37539
G1 F300 X-42.89197 Y32.52002
G1 F300 X-42.82491 Y32.67140
G1 F300 X-42.78887 Y32.87579
G1 F300 X-37.56683 Y38.09781
G1 F300 X-26.30366 Y38.09781
G1 F300 X-26.05098 Y37.98511
G1 F300 X-25.77275 Y37.92696
G1 F300 X-25.50724 Y37.92696
G1 F300 X-25.23506 Y37.98348
G1 F300 X-24.98058 Y38.09534
G1 F300 X-24.75004 Y38.26164
G1 F300 X-24.56059 Y38.47352
G1 F300 X-24.42272 Y38.71492
G1 F300 X-24.34067 Y38.96742
G1 F300 X-24.30999 Y39.25000
G1 F300 X-24.33806 Y39.52033
G1 F300 X-24.42272 Y39.78510
G1 F300 X-24.56412 Y40.03194
G1 F300 X-24.73798 Y40.22274
G1 F300 X-24.73798 Y48.20701
G1 F300 X-20.61381 Y48.20731
G1 F300 X-20.38920 Y48.23058
G1 F300 X-20.18429 Y48.29273
G1 F300 X-19.96811 Y48.41021
G1 F300 X-19.73070 Y48.41021
G1 F300 X-19.52732 Y48.43258
G1 F300 X-19.34470 Y48.49225
G1 F300 X-19.17815 Y48.58803
G1 F300 X-19.02544 Y48.72420
G1 F300 X-18.90599 Y48.89032
G1 F300 X-18.82651 Y49.07203
G1 F300 X-18.78788 Y49.25382
G1 F300 X-18.78689 Y49.45841
G1 F300 X-18.83040 Y49.65834
G1 F300 X-18.91226 Y49.83898
G1 F300 X-19.02544 Y49.99423
G1 F300 X-19.17815 Y50.13039
G1 F300 X-19.34470 Y50.22618
G1 F300 X-19.46748 Y50.26641
G1 F300 X-19.46748 Y52.00431
G1 F300 X-14.38400 Y52.00431
G1 F300 X-14.14443 Y52.02950
G1 F300 X-13.90976 Y52.10677
G1 F300 X-13.70186 Y52.22831
G1 F300 X-13.52378 Y52.39041
G1 F300 X-13.38329 Y52.58602
G1 F300 X-13.28817 Y52.80047
G1 F300 X-13.23907 Y53.02988
G1 F300 X-13.23907 Y53.28314
G1 F300 X-13.29043 Y53.51842
G1 F300 X-13.38956 Y53.73788
G1 F300 X-13.52774 Y53.92749
G1 F300 X-13.69698 Y54.08032
G1 F300 X-13.69698 Y54.98195
G1 F300 X-13.31131 Y55.36762
G1 F300 X-4.72918 Y55.36762
G1 F300 X-4.72461 Y55.25464
G1 F300 X-4.70251 Y55.22772
G1 F300 X-4.66919 Y55.21761
G1 F300 X-3.16919 Y55.21761
G1 F300 X-3.12677 Y55.23519
G1 F300 X-3.10919 Y55.27760
;G04 P0 ; dwell for no time -- G64 should not smooth over this point 
G1 F3000 Z3.00000 ; retract 

G1 F3000 X-3.07178 Y51.51820 ; rapid move to begin. 
G1 F300 F300.00000
G1 F300 Z-0.07000
;G04 P0 ; dwell for no time -- G64 should not smooth over this point 
G1 F300 F600.00000
G1 F300 X-3.07178 Y51.51820
G1 F300 X-3.07178 Y53.15650
G1 F300 X-3.09698 Y53.39607
G1 F300 X-3.17424 Y53.63074
G1 F300 X-3.29578 Y53.83864
G1 F300 X-3.45301 Y54.01276
G1 F300 X-3.64262 Y54.15094
G1 F300 X-3.86208 Y54.25007
G1 F300 X-4.10983 Y54.30273
G1 F300 X-4.35062 Y54.30143
G1 F300 X-4.58003 Y54.25233
G1 F300 X-4.80536 Y54.15094
G1 F300 X-4.99497 Y54.01276
G1 F300 X-5.15219 Y53.83864
G1 F300 X-5.27658 Y53.62516
G1 F300 X-5.35100 Y53.39607
G1 F300 X-5.37586 Y53.16277
G1 F300 X-5.37619 Y51.99547
G1 F300 X-5.79344 Y51.57822
G1 F300 X-10.72640 Y51.57822
G1 F300 X-10.95688 Y51.55465
G1 F300 X-11.17263 Y51.48800
G1 F300 X-11.37126 Y51.38053
G1 F300 X-11.54111 Y51.24073
G1 F300 X-13.46599 Y49.31587
G1 F300 X-13.74885 Y49.19489
G1 F300 X-13.96515 Y49.03733
G1 F300 X-14.14445 Y48.83870
G1 F300 X-14.28532 Y48.59664
G1 F300 X-14.37094 Y48.32997
G1 F300 X-14.39858 Y48.06380
G1 F300 X-14.37094 Y47.79766
G1 F300 X-14.28758 Y47.53685
G1 F300 X-14.14445 Y47.28892
G1 F300 X-13.96515 Y47.09029
G1 F300 X-13.73800 Y46.92646
G1 F300 X-13.49340 Y46.81793
G1 F300 X-13.23173 Y46.76197
G1 F300 X-12.94545 Y46.76197
G1 F300 X-12.68377 Y46.81793
G1 F300 X-12.43917 Y46.92646
G1 F300 X-12.21202 Y47.09029
G1 F300 X-12.02536 Y47.29908
G1 F300 X-11.89185 Y47.53098
G1 F300 X-11.84314 Y47.67980
G1 F300 X-10.24913 Y49.27381
G1 F300 X-5.31617 Y49.27381
G1 F300 X-5.09723 Y49.29509
G1 F300 X-4.88079 Y49.35953
G1 F300 X-4.68110 Y49.46497
G1 F300 X-4.50147 Y49.61129
G1 F300 X-3.40531 Y50.70784
G1 F300 X-3.26294 Y50.88312
G1 F300 X-3.15750 Y51.08282
G1 F300 X-3.09307 Y51.29925
G1 F300 X-3.07178 Y51.51820
;G04 P0 ; dwell for no time -- G64 should not smooth over this point 
G1 F3000 Z3.00000 ; retract 

G1 F3000 X-7.89504 Y46.29736 ; rapid move to begin. 
G1 F300 F300.00000
G1 F300 Z-0.07000
;G04 P0 ; dwell for no time -- G64 should not smooth over this point 
G1 F300 F600.00000
G1 F300 X-7.89504 Y46.29736
G1 F300 X-7.90601 Y46.34351
G1 F300 X-8.12155 Y46.42385
G1 F300 X-8.33720 Y46.45788
G1 F300 X-8.55536 Y46.44922
G1 F300 X-8.76765 Y46.39814
G1 F300 X-8.90009 Y46.33703
G1 F300 X-8.90951 Y46.29736
G1 F300 X-8.63789 Y46.02573
G1 F300 X-8.47131 Y46.06279
G1 F300 X-8.32699 Y46.06246
G1 F300 X-8.16666 Y46.02573
G1 F300 X-7.89504 Y46.29736
;G04 P0 ; dwell for no time -- G64 should not smooth over this point 
G1 F3000 Z3.00000 ; retract 

G1 F3000 X-0.30999 Y43.56800 ; rapid move to begin. 
G1 F300 F300.00000
G1 F300 Z-0.07000
;G04 P0 ; dwell for no time -- G64 should not smooth over this point 
G1 F300 F600.00000
G1 F300 X-0.30999 Y43.56800
G1 F300 X-0.33127 Y43.34905
G1 F300 X-0.39571 Y43.13262
G1 F300 X-0.50115 Y42.93292
G1 F300 X-0.64351 Y42.75764
G1 F300 X-0.81733 Y42.61349
G1 F300 X-1.01595 Y42.50603
G1 F300 X-1.24323 Y42.43709
G1 F300 X-1.46218 Y42.41581
G1 F300 X-5.14373 Y42.41581
G1 F300 X-5.56827 Y41.99129
G1 F300 X-5.73812 Y41.85149
G1 F300 X-5.94759 Y41.73953
G1 F300 X-6.16403 Y41.67509
G1 F300 X-6.38300 Y41.65381
G1 F300 X-10.01269 Y41.65381
G1 F300 X-11.28764 Y40.37931
G1 F300 X-11.45314 Y40.24347
G1 F300 X-11.65175 Y40.13600
G1 F300 X-11.87903 Y40.06707
G1 F300 X-12.09800 Y40.04578
G1 F300 X-20.07845 Y40.04578
G1 F300 X-20.29740 Y40.06707
G1 F300 X-20.52468 Y40.13600
G1 F300 X-20.72328 Y40.24347
G1 F300 X-20.89316 Y40.38325
G1 F300 X-21.30014 Y40.79021
G1 F300 X-21.51495 Y40.79054
G1 F300 X-21.71205 Y40.81258
G1 F300 X-21.89468 Y40.87225
G1 F300 X-22.06123 Y40.96803
G1 F300 X-22.21393 Y41.10420
G1 F300 X-22.32711 Y41.25944
G1 F300 X-22.41286 Y41.45203
G1 F300 X-22.45249 Y41.64001
G1 F300 X-22.45249 Y41.83841
G1 F300 X-22.40898 Y42.03834
G1 F300 X-22.32711 Y42.21898
G1 F300 X-22.21393 Y42.37423
G1 F300 X-22.06123 Y42.51039
G1 F300 X-21.88881 Y42.60841
G1 F300 X-21.69978 Y42.66846
G1 F300 X-21.50867 Y42.68822
G1 F300 X-21.26290 Y42.68822
G1 F300 X-21.14279 Y42.76582
G1 F300 X-20.91177 Y42.85345
G1 F300 X-20.67373 Y42.88982
G1 F300 X-20.43946 Y42.87722
G1 F300 X-20.20106 Y42.81235
G1 F300 X-19.97025 Y42.68822
G1 F300 X-19.73067 Y42.68822
G1 F300 X-19.52732 Y42.66584
G1 F300 X-19.34470 Y42.60618
G1 F300 X-19.17815 Y42.51039
G1 F300 X-19.00756 Y42.35017
G1 F300 X-12.57524 Y42.35020
G1 F300 X-11.30029 Y43.62469
G1 F300 X-11.13478 Y43.76053
G1 F300 X-10.93618 Y43.86800
G1 F300 X-10.72043 Y43.93465
G1 F300 X-10.48995 Y43.95822
G1 F300 X-6.86024 Y43.95822
G1 F300 X-6.43571 Y44.38273
G1 F300 X-6.26586 Y44.52253
G1 F300 X-6.05638 Y44.63450
G1 F300 X-5.83995 Y44.69893
G1 F300 X-5.62100 Y44.72022
G1 F300 X-2.61440 Y44.72022
G1 F300 X-2.61440 Y65.16151
G1 F300 X-13.57120 Y65.16151
G1 F300 X-13.81075 Y65.18670
G1 F300 X-14.04542 Y65.26397
G1 F300 X-14.25332 Y65.38551
G1 F300 X-14.42743 Y65.54273
G1 F300 X-14.57188 Y65.74322
G1 F300 X-14.66701 Y65.95767
G1 F300 X-14.71611 Y66.18708
G1 F300 X-14.71611 Y66.44034
G1 F300 X-14.66701 Y66.66976
G1 F300 X-14.57188 Y66.88421
G1 F300 X-14.42743 Y67.08469
G1 F300 X-14.24316 Y67.24928
G1 F300 X-14.03983 Y67.36630
G1 F300 X-13.81682 Y67.43910
G1 F300 X-13.57120 Y67.46592
G1 F300 X-2.08451 Y67.46562
G1 F300 X-1.85990 Y67.44235
G1 F300 X-1.65502 Y67.38020
G1 F300 X-1.44554 Y67.26823
G1 F300 X-1.27567 Y67.12846
G1 F300 X-0.64748 Y66.50029
G1 F300 X-0.50115 Y66.32063
G1 F300 X-0.39571 Y66.12094
G1 F300 X-0.33356 Y65.91604
G1 F300 X-0.30999 Y65.68553
G1 F300 X-0.30999 Y43.56800
;G04 P0 ; dwell for no time -- G64 should not smooth over this point 
G1 F3000 Z3.00000 ; retract 

G1 F3000 X-0.61796 Y39.63400 ; rapid move to begin. 
G1 F300 F300.00000
G1 F300 Z-0.07000
;G04 P0 ; dwell for no time -- G64 should not smooth over this point 
G1 F300 F600.00000
G1 F300 X-0.61796 Y39.63400
G1 F300 X-0.63455 Y39.55706
G1 F300 X-0.66866 Y39.50692
G1 F300 X-0.74133 Y39.45841
G1 F300 X-0.80821 Y39.44766
G1 F300 X-0.90171 Y39.47443
G1 F300 X-1.10828 Y39.61177
G1 F300 X-1.41727 Y39.73976
G1 F300 X-1.74532 Y39.80502
G1 F300 X-2.07983 Y39.80502
G1 F300 X-2.40787 Y39.73976
G1 F300 X-2.71687 Y39.61177
G1 F300 X-2.99497 Y39.42595
G1 F300 X-3.23150 Y39.18942
G1 F300 X-3.41732 Y38.91132
G1 F300 X-3.54531 Y38.60233
G1 F300 X-3.61056 Y38.27426
G1 F300 X-3.61056 Y37.93979
G1 F300 X-3.54531 Y37.61173
G1 F300 X-3.41732 Y37.30273
G1 F300 X-3.23150 Y37.02463
G1 F300 X-2.99497 Y36.78810
G1 F300 X-2.71687 Y36.60228
G1 F300 X-2.40787 Y36.47429
G1 F300 X-2.07981 Y36.40904
G1 F300 X-1.93617 Y36.39585
G1 F300 X-1.85697 Y36.33502
G1 F300 X-1.82159 Y36.25851
G1 F300 X-1.81799 Y30.61878
G1 F300 X-1.84951 Y30.51484
G1 F300 X-1.90109 Y30.46325
G1 F300 X-2.00501 Y30.43173
G1 F300 X-8.02928 Y30.43173
G1 F300 X-8.13316 Y30.46325
G1 F300 X-8.18475 Y30.51484
G1 F300 X-8.21627 Y30.61872
G1 F300 X-8.21165 Y35.72943
G1 F300 X-8.23080 Y35.93286
G1 F300 X-8.23080 Y36.63804
G1 F300 X-8.26598 Y36.81950
G1 F300 X-8.35318 Y36.99097
G1 F300 X-8.35597 Y37.21000
G1 F300 X-8.32892 Y37.30731
G1 F300 X-8.17967 Y37.46593
G1 F300 X-8.13806 Y37.54373
G1 F300 X-8.10291 Y37.72524
G1 F300 X-8.10291 Y39.00682
G1 F300 X-8.11246 Y39.10385
G1 F300 X-8.18041 Y39.29770
G1 F300 X-8.17352 Y39.36938
G1 F300 X-8.11246 Y39.52821
G1 F300 X-8.10532 Y39.90214
G1 F300 X-8.15518 Y39.95201
G1 F300 X-8.49399 Y39.95201
G1 F300 X-8.49514 Y39.60430
G1 F300 X-8.51157 Y39.57360
G1 F300 X-8.54228 Y39.55716
G1 F300 X-10.07695 Y39.56059
G1 F300 X-10.10387 Y39.58269
G1 F300 X-10.11398 Y39.61601
G1 F300 X-10.10387 Y40.94934
G1 F300 X-10.05399 Y40.97601
G1 F300 X-8.54228 Y40.97486
G1 F300 X-8.51157 Y40.95843
G1 F300 X-8.49514 Y40.92772
G1 F300 X-8.49399 Y40.58002
G1 F300 X-8.15518 Y40.58002
G1 F300 X-8.10532 Y40.62988
G1 F300 X-8.10299 Y40.90763
G1 F300 X-8.12437 Y41.10735
G1 F300 X-8.09725 Y41.17928
G1 F300 X-8.02064 Y41.24718
G1 F300 X-7.93979 Y41.26582
G1 F300 X-6.38320 Y41.25833
G1 F300 X-6.08104 Y41.28810
G1 F300 X-5.79072 Y41.37618
G1 F300 X-5.52313 Y41.51921
G1 F300 X-5.28846 Y41.71182
G1 F300 X-5.03340 Y41.97699
G1 F300 X-4.94206 Y42.02421
G1 F300 X-1.46241 Y42.02035
G1 F300 X-1.16002 Y42.05012
G1 F300 X-0.83302 Y42.14654
G1 F300 X-0.77646 Y42.14707
G1 F300 X-0.67427 Y42.09592
G1 F300 X-0.63160 Y42.03199
G1 F300 X-0.61829 Y41.96869
G1 F300 X-0.61796 Y39.63400
;G04 P0 ; dwell for no time -- G64 should not smooth over this point 
G1 F3000 Z3.00000 ; retract 

G1 F3000 X-9.92188 Y32.52921 ; rapid move to begin. 
G1 F300 F300.00000
G1 F300 Z-0.07000
;G04 P0 ; dwell for no time -- G64 should not smooth over this point 
G1 F300 F600.00000
G1 F300 X-9.92188 Y32.52921
G1 F300 X-9.94954 Y32.26304
G1 F300 X-10.03290 Y32.00226
G1 F300 X-10.17603 Y31.75433
G1 F300 X-10.35533 Y31.55570
G1 F300 X-10.57161 Y31.39815
G1 F300 X-10.82709 Y31.28334
G1 F300 X-11.08876 Y31.22736
G1 F300 X-11.37501 Y31.22736
G1 F300 X-11.63671 Y31.28334
G1 F300 X-11.88129 Y31.39187
G1 F300 X-12.11288 Y31.56012
G1 F300 X-12.29513 Y31.76449
G1 F300 X-12.42863 Y31.99639
G1 F300 X-12.51426 Y32.26304
G1 F300 X-12.54189 Y32.52921
G1 F300 X-12.51426 Y32.79538
G1 F300 X-12.43089 Y33.05618
G1 F300 X-12.29513 Y33.29395
G1 F300 X-12.11288 Y33.49830
G1 F300 X-11.89216 Y33.66027
G1 F300 X-11.79188 Y33.70637
G1 F300 X-11.79188 Y35.08722
G1 F300 X-11.90486 Y35.09179
G1 F300 X-11.93178 Y35.11389
G1 F300 X-11.94189 Y35.14721
G1 F300 X-11.94189 Y36.64721
G1 F300 X-11.93178 Y36.68054
G1 F300 X-11.90486 Y36.70263
G1 F300 X-10.58190 Y36.70721
G1 F300 X-10.54855 Y36.69710
G1 F300 X-10.52645 Y36.67017
G1 F300 X-10.52188 Y35.14721
G1 F300 X-10.53199 Y35.11389
G1 F300 X-10.55894 Y35.09179
G1 F300 X-10.67187 Y35.08722
G1 F300 X-10.67187 Y33.70635
G1 F300 X-10.57161 Y33.66027
G1 F300 X-10.35533 Y33.50274
G1 F300 X-10.16867 Y33.29395
G1 F300 X-10.03514 Y33.06203
G1 F300 X-9.95213 Y32.80765
G1 F300 X-9.92188 Y32.52921
;G04 P0 ; dwell for no time -- G64 should not smooth over this point 
G1 F3000 Z3.00000 ; retract 

G1 F3000 X-7.09273 Y26.91134 ; rapid move to begin. 
G1 F300 F300.00000
G1 F300 Z-0.07000
;G04 P0 ; dwell for no time -- G64 should not smooth over this point 
G1 F300 F600.00000
G1 F300 X-7.09273 Y26.91134
G1 F300 X-7.11965 Y26.99524
G1 F300 X-7.13507 Y27.13875
G1 F300 X-7.11965 Y27.29480
G1 F300 X-7.09273 Y27.37873
G1 F300 X-7.36628 Y27.65228
G1 F300 X-7.41246 Y27.64131
G1 F300 X-7.49278 Y27.42579
G1 F300 X-7.52684 Y27.21012
G1 F300 X-7.51818 Y26.99193
G1 F300 X-7.46710 Y26.77967
G1 F300 X-7.40596 Y26.64721
G1 F300 X-7.36628 Y26.63776
G1 F300 X-7.09273 Y26.91134
;G04 P0 ; dwell for no time -- G64 should not smooth over this point 
G1 F3000 Z3.00000 ; retract 

G1 F3000 X-5.90772 Y26.19371 ; rapid move to begin. 
G1 F300 F300.00000
G1 F300 Z-0.07000
;G04 P0 ; dwell for no time -- G64 should not smooth over this point 
G1 F300 F600.00000
G1 F300 X-5.90772 Y26.19371
G1 F300 X-5.91716 Y26.15401
G1 F300 X-6.04960 Y26.09290
G1 F300 X-6.26189 Y26.04182
G1 F300 X-6.48003 Y26.03316
G1 F300 X-6.69570 Y26.06722
G1 F300 X-6.91124 Y26.14754
G1 F300 X-6.92224 Y26.19371
G1 F300 X-6.65061 Y26.46532
G1 F300 X-6.48402 Y26.42823
G1 F300 X-6.33969 Y26.42856
G1 F300 X-6.17932 Y26.46532
G1 F300 X-5.90772 Y26.19371
;G04 P0 ; dwell for no time -- G64 should not smooth over this point 
G1 F3000 Z3.00000 ; retract 

G1 F3000 X-2.51229 Y23.12892 ; rapid move to begin. 
G1 F300 F300.00000
G1 F300 Z-0.07000
;G04 P0 ; dwell for no time -- G64 should not smooth over this point 
G1 F300 F600.00000
G1 F300 X-2.51229 Y23.12892
G1 F300 X-2.51344 Y24.44061
G1 F300 X-2.52987 Y24.47134
G1 F300 X-2.56058 Y24.48775
G1 F300 X-2.76228 Y24.48892
G1 F300 X-2.76228 Y26.59234
G1 F300 X-2.77219 Y26.69575
G1 F300 X-2.80292 Y26.80108
G1 F300 X-2.85364 Y26.89839
G1 F300 X-2.92235 Y26.98393
G1 F300 X-3.16264 Y27.22465
G1 F300 X-3.17033 Y27.29480
G1 F300 X-3.21971 Y27.44362
G1 F300 X-3.29611 Y27.57334
G1 F300 X-3.39781 Y27.68434
G1 F300 X-3.50952 Y27.76547
G1 F300 X-3.64651 Y27.82790
G1 F300 X-3.79347 Y27.86049
G1 F300 X-3.95029 Y27.86148
G1 F300 X-4.10348 Y27.82790
G1 F300 X-4.24046 Y27.76547
G1 F300 X-4.35214 Y27.68434
G1 F300 X-4.46124 Y27.56318
G1 F300 X-4.53312 Y27.43803
G1 F300 X-4.57803 Y27.30085
G1 F300 X-4.59507 Y27.15129
G1 F300 X-4.57965 Y26.99524
G1 F300 X-4.53312 Y26.85201
G1 F300 X-4.46124 Y26.72683
G1 F300 X-4.36146 Y26.61408
G1 F300 X-4.22959 Y26.51828
G1 F300 X-4.09154 Y26.45826
G1 F300 X-3.95049 Y26.42859
G1 F300 X-3.88229 Y26.36039
G1 F300 X-3.88229 Y24.48892
G1 F300 X-4.08400 Y24.48775
G1 F300 X-4.11470 Y24.47134
G1 F300 X-4.13114 Y24.44061
G1 F300 X-4.12771 Y23.10596
G1 F300 X-4.10561 Y23.07901
G1 F300 X-4.07229 Y23.06890
G1 F300 X-2.57229 Y23.06890
G1 F300 X-2.52987 Y23.08648
G1 F300 X-2.51229 Y23.12892
;G04 P0 ; dwell for no time -- G64 should not smooth over this point 
G1 F3000 Z3.00000 ; retract 

G1 F3000 X-5.00637 Y20.92047 ; rapid move to begin. 
G1 F300 F300.00000
G1 F300 Z-0.07000
;G04 P0 ; dwell for no time -- G64 should not smooth over this point 
G1 F300 F600.00000
G1 F300 X-5.00637 Y20.92047
G1 F300 X-5.00767 Y21.09223
G1 F300 X-5.04241 Y21.25413
G1 F300 X-5.11574 Y21.41638
G1 F300 X-5.21333 Y21.55014
G1 F300 X-5.33614 Y21.66116
G1 F300 X-5.48425 Y21.74821
G1 F300 X-5.64721 Y21.80254
G1 F300 X-5.82417 Y21.82212
G1 F300 X-7.34820 Y21.82212
G1 F300 X-7.52516 Y21.80254
G1 F300 X-7.68813 Y21.74821
G1 F300 X-7.83624 Y21.66116
G1 F300 X-7.96301 Y21.54526
G1 F300 X-8.05663 Y21.41638
G1 F300 X-8.12120 Y21.27462
G1 F300 X-16.12169 Y21.27462
G1 F300 X-16.13180 Y21.34795
G1 F300 X-16.18169 Y21.37462
G1 F300 X-19.18168 Y21.37462
G1 F300 X-19.22412 Y21.35705
G1 F300 X-19.24170 Y21.31460
G1 F300 X-19.24170 Y20.11461
G1 F300 X-19.22412 Y20.07219
G1 F300 X-19.18168 Y20.05461
G1 F300 X-16.18169 Y20.05461
G1 F300 X-16.13180 Y20.08128
G1 F300 X-16.12169 Y20.15461
G1 F300 X-7.64637 Y20.15461
G1 F300 X-7.45933 Y20.18946
G1 F300 X-7.34820 Y20.17811
G1 F300 X-5.81793 Y20.17844
G1 F300 X-5.64721 Y20.19769
G1 F300 X-5.48425 Y20.25202
G1 F300 X-5.34630 Y20.33167
G1 F300 X-5.21778 Y20.44564
G1 F300 X-5.11574 Y20.58384
G1 F300 X-5.04467 Y20.74023
G1 F300 X-5.00637 Y20.92047
;G04 P0 ; dwell for no time -- G64 should not smooth over this point 
G1 F3000 Z3.00000 ; retract 

G1 F3000 X-5.00637 Y18.38047 ; rapid move to begin. 
G1 F300 F300.00000
G1 F300 Z-0.07000
;G04 P0 ; dwell for no time -- G64 should not smooth over this point 
G1 F300 F600.00000
G1 F300 X-5.00637 Y18.38047
G1 F300 X-5.00767 Y18.55223
G1 F300 X-5.04241 Y18.71413
G1 F300 X-5.11574 Y18.87638
G1 F300 X-5.21333 Y19.01014
G1 F300 X-5.33614 Y19.12116
G1 F300 X-5.48425 Y19.20821
G1 F300 X-5.64721 Y19.26254
G1 F300 X-5.81793 Y19.28179
G1 F300 X-16.12169 Y19.27463
G1 F300 X-16.13180 Y19.34796
G1 F300 X-16.18169 Y19.37460
G1 F300 X-19.18168 Y19.37460
G1 F300 X-19.22412 Y19.35705
G1 F300 X-19.24170 Y19.31461
G1 F300 X-19.24170 Y18.11461
G1 F300 X-19.22412 Y18.07219
G1 F300 X-19.18168 Y18.05461
G1 F300 X-16.18169 Y18.05461
G1 F300 X-16.13180 Y18.08128
G1 F300 X-16.12169 Y18.15461
G1 F300 X-8.10741 Y18.15461
G1 F300 X-8.05663 Y18.04384
G1 F300 X-7.96301 Y17.91497
G1 F300 X-7.83624 Y17.79906
G1 F300 X-7.68813 Y17.71202
G1 F300 X-7.52516 Y17.65769
G1 F300 X-7.34820 Y17.63811
G1 F300 X-5.82417 Y17.63811
G1 F300 X-5.65948 Y17.65510
G1 F300 X-5.49570 Y17.70694
G1 F300 X-5.34630 Y17.79167
G1 F300 X-5.21778 Y17.90564
G1 F300 X-5.11574 Y18.04384
G1 F300 X-5.04467 Y18.20023
G1 F300 X-5.00637 Y18.38047
;G04 P0 ; dwell for no time -- G64 should not smooth over this point 
G1 F3000 Z3.00000 ; retract 

G1 F3000 X-5.00637 Y15.84047 ; rapid move to begin. 
G1 F300 F300.00000
G1 F300 Z-0.07000
;G04 P0 ; dwell for no time -- G64 should not smooth over this point 
G1 F300 F600.00000
G1 F300 X-5.00637 Y15.84047
G1 F300 X-5.00767 Y16.01223
G1 F300 X-5.04241 Y16.17413
G1 F300 X-5.10947 Y16.32551
G1 F300 X-5.20937 Y16.46526
G1 F300 X-5.34630 Y16.58855
G1 F300 X-5.48425 Y16.66821
G1 F300 X-5.64721 Y16.72254
G1 F300 X-5.82417 Y16.74212
G1 F300 X-7.35445 Y16.74179
G1 F300 X-7.52516 Y16.72254
G1 F300 X-7.67667 Y16.67329
G1 F300 X-7.83171 Y16.58487
G1 F300 X-7.94518 Y16.48012
G1 F300 X-8.55132 Y16.48012
G1 F300 X-9.18614 Y17.11456
G1 F300 X-9.35815 Y17.22947
G1 F300 X-9.47436 Y17.26473
G1 F300 X-16.12169 Y17.27463
G1 F300 X-16.13180 Y17.34794
G1 F300 X-16.18169 Y17.37461
G1 F300 X-19.18168 Y17.37461
G1 F300 X-19.21503 Y17.36450
G1 F300 X-19.24053 Y17.32632
G1 F300 X-19.24170 Y16.11461
G1 F300 X-19.22412 Y16.07220
G1 F300 X-19.19339 Y16.05576
G1 F300 X-16.18169 Y16.05462
G1 F300 X-16.13180 Y16.08129
G1 F300 X-16.12169 Y16.15462
G1 F300 X-9.80974 Y16.15462
G1 F300 X-9.17929 Y15.52414
G1 F300 X-9.09915 Y15.45800
G1 F300 X-9.00291 Y15.40527
G1 F300 X-8.89826 Y15.37230
G1 F300 X-8.78327 Y15.36011
G1 F300 X-7.94518 Y15.36011
G1 F300 X-7.83171 Y15.25536
G1 F300 X-7.67667 Y15.16694
G1 F300 X-7.51289 Y15.11510
G1 F300 X-7.34820 Y15.09811
G1 F300 X-5.82417 Y15.09811
G1 F300 X-5.64721 Y15.11769
G1 F300 X-5.48425 Y15.17202
G1 F300 X-5.34630 Y15.25167
G1 F300 X-5.21333 Y15.37009
G1 F300 X-5.11574 Y15.50384
G1 F300 X-5.04467 Y15.66023
G1 F300 X-5.00637 Y15.84047
;G04 P0 ; dwell for no time -- G64 should not smooth over this point 
G1 F3000 Z3.00000 ; retract 

G1 F3000 X-5.00637 Y13.30047 ; rapid move to begin. 
G1 F300 F300.00000
G1 F300 Z-0.07000
;G04 P0 ; dwell for no time -- G64 should not smooth over this point 
G1 F300 F600.00000
G1 F300 X-5.00637 Y13.30047
G1 F300 X-5.00767 Y13.47223
G1 F300 X-5.04241 Y13.63413
G1 F300 X-5.10947 Y13.78551
G1 F300 X-5.20937 Y13.92526
G1 F300 X-5.33614 Y14.04116
G1 F300 X-5.48425 Y14.12821
G1 F300 X-5.65948 Y14.18513
G1 F300 X-5.82417 Y14.20212
G1 F300 X-7.35445 Y14.20179
G1 F300 X-7.52516 Y14.18254
G1 F300 X-7.67667 Y14.13329
G1 F300 X-7.83171 Y14.04487
G1 F300 X-7.94518 Y13.94012
G1 F300 X-8.88152 Y13.94012
G1 F300 X-10.05635 Y15.11456
G1 F300 X-10.22836 Y15.22947
G1 F300 X-10.34456 Y15.26473
G1 F300 X-16.12169 Y15.27464
G1 F300 X-16.13180 Y15.34794
G1 F300 X-16.18169 Y15.37461
G1 F300 X-19.18168 Y15.37461
G1 F300 X-19.21503 Y15.36450
G1 F300 X-19.24053 Y15.32632
G1 F300 X-19.24170 Y14.11462
G1 F300 X-19.22412 Y14.07217
G1 F300 X-19.19339 Y14.05577
G1 F300 X-16.18169 Y14.05462
G1 F300 X-16.13180 Y14.08127
G1 F300 X-16.12169 Y14.15462
G1 F300 X-10.67994 Y14.15462
G1 F300 X-9.50946 Y12.98414
G1 F300 X-9.42935 Y12.91800
G1 F300 X-9.33311 Y12.86527
G1 F300 X-9.22846 Y12.83230
G1 F300 X-9.11347 Y12.82011
G1 F300 X-7.94518 Y12.82011
G1 F300 X-7.83171 Y12.71536
G1 F300 X-7.67667 Y12.62694
G1 F300 X-7.52516 Y12.57769
G1 F300 X-7.35445 Y12.55844
G1 F300 X-5.82417 Y12.55811
G1 F300 X-5.64721 Y12.57769
G1 F300 X-5.48425 Y12.63202
G1 F300 X-5.34630 Y12.71167
G1 F300 X-5.21333 Y12.83009
G1 F300 X-5.11574 Y12.96384
G1 F300 X-5.04467 Y13.12023
G1 F300 X-5.00637 Y13.30047
;G04 P0 ; dwell for no time -- G64 should not smooth over this point 
G1 F3000 Z3.00000 ; retract 

G1 F3000 X-4.66868 Y10.46845 ; rapid move to begin. 
G1 F300 F300.00000
G1 F300 Z-0.07000
;G04 P0 ; dwell for no time -- G64 should not smooth over this point 
G1 F300 F600.00000
G1 F300 X-4.66868 Y10.46845
G1 F300 X-4.70139 Y10.52613
G1 F300 X-5.06878 Y10.52613
G1 F300 X-5.11231 Y10.42913
G1 F300 X-5.21778 Y10.28564
G1 F300 X-5.34102 Y10.17513
G1 F300 X-5.48986 Y10.08917
G1 F300 X-5.65328 Y10.03606
G1 F300 X-5.81793 Y10.01844
G1 F300 X-6.27218 Y10.01811
G1 F300 X-6.27218 Y9.63012
G1 F300 X-5.71490 Y9.63012
G1 F300 X-5.48028 Y9.67498
G1 F300 X-5.25956 Y9.76446
G1 F300 X-5.06055 Y9.89530
G1 F300 X-4.89090 Y10.06240
G1 F300 X-4.75712 Y10.25941
G1 F300 X-4.66868 Y10.46845
;G04 P0 ; dwell for no time -- G64 should not smooth over this point 
G1 F3000 Z3.00000 ; retract 

G1 F3000 X-6.90019 Y9.63012 ; rapid move to begin. 
G1 F300 F300.00000
G1 F300 Z-0.07000
;G04 P0 ; dwell for no time -- G64 should not smooth over this point 
G1 F300 F600.00000
G1 F300 X-6.90019 Y9.63012
G1 F300 X-6.90019 Y10.01811
G1 F300 X-7.35445 Y10.01844
G1 F300 X-7.51909 Y10.03606
G1 F300 X-7.68251 Y10.08917
G1 F300 X-7.83136 Y10.17513
G1 F300 X-7.95460 Y10.28564
G1 F300 X-8.06006 Y10.42913
G1 F300 X-8.10360 Y10.52613
G1 F300 X-8.47096 Y10.52613
G1 F300 X-8.50367 Y10.46845
G1 F300 X-8.41523 Y10.25941
G1 F300 X-8.28145 Y10.06240
G1 F300 X-8.11177 Y9.89530
G1 F300 X-7.91279 Y9.76446
G1 F300 X-7.69207 Y9.67498
G1 F300 X-7.45747 Y9.63012
G1 F300 X-6.90019 Y9.63012
;G04 P0 ; dwell for no time -- G64 should not smooth over this point 
G1 F3000 Z3.00000 ; retract 

G1 F3000 X-1.64400 Y3.05500 ; rapid move to begin. 
G1 F300 F300.00000
G1 F300 Z-0.07000
;G04 P0 ; dwell for no time -- G64 should not smooth over this point 
G1 F300 F600.00000
G1 F300 X-1.64400 Y3.05500
G1 F300 X-1.67163 Y2.78886
G1 F300 X-1.75499 Y2.52805
G1 F300 X-1.89812 Y2.28012
G1 F300 X-2.08230 Y2.07753
G1 F300 X-2.30457 Y1.91766
G1 F300 X-2.55525 Y1.80750
G1 F300 X-2.81704 Y1.75218
G1 F300 X-3.09093 Y1.75218
G1 F300 X-3.35273 Y1.80750
G1 F300 X-3.60340 Y1.91766
G1 F300 X-3.82568 Y2.07753
G1 F300 X-4.01379 Y2.28502
G1 F300 X-4.14788 Y2.51660
G1 F300 X-4.23634 Y2.78886
G1 F300 X-4.26398 Y3.05500
G1 F300 X-4.23634 Y3.32119
G1 F300 X-4.15072 Y3.58784
G1 F300 X-4.01379 Y3.82500
G1 F300 X-3.83500 Y4.02409
G1 F300 X-3.61425 Y4.18609
G1 F300 X-3.51399 Y4.23219
G1 F300 X-3.51399 Y19.58705
G1 F300 X-3.78440 Y19.87148
G1 F300 X-3.83713 Y19.96769
G1 F300 X-3.87010 Y20.07234
G1 F300 X-3.88229 Y20.18733
G1 F300 X-3.88229 Y21.16891
G1 F300 X-4.08400 Y21.17008
G1 F300 X-4.11470 Y21.18649
G1 F300 X-4.13114 Y21.21722
G1 F300 X-4.13228 Y22.52890
G1 F300 X-4.12217 Y22.56225
G1 F300 X-4.08400 Y22.58775
G1 F300 X-2.57229 Y22.58892
G1 F300 X-2.53896 Y22.57881
G1 F300 X-2.51344 Y22.54061
G1 F300 X-2.51344 Y21.21722
G1 F300 X-2.52987 Y21.18649
G1 F300 X-2.56058 Y21.17008
G1 F300 X-2.76228 Y21.16891
G1 F300 X-2.76228 Y20.41928
G1 F300 X-2.48534 Y20.12507
G1 F300 X-2.40617 Y19.93399
G1 F300 X-2.39398 Y19.81903
G1 F300 X-2.39398 Y4.23219
G1 F300 X-2.29373 Y4.18609
G1 F300 X-2.08230 Y4.03252
G1 F300 X-1.89076 Y3.81977
G1 F300 X-1.75725 Y3.58784
G1 F300 X-1.67425 Y3.33343
G1 F300 X-1.64400 Y3.05500
;G04 P0 ; dwell for no time -- G64 should not smooth over this point 
G1 F3000 Z3.00000 ; retract 

G1 F3000 X-0.30999 Y1.25279 ; rapid move to begin. 
G1 F300 F300.00000
G1 F300 Z-0.07000
;G04 P0 ; dwell for no time -- G64 should not smooth over this point 
G1 F300 F600.00000
G1 F300 X-0.30999 Y1.25279
G1 F300 X-0.30999 Y37.06443
G1 F300 X-0.32218 Y37.17942
G1 F300 X-0.40135 Y37.37053
G1 F300 X-0.68418 Y37.67058
G1 F300 X-0.63023 Y37.84086
G1 F300 X-0.60293 Y38.10075
G1 F300 X-0.63285 Y38.38543
G1 F300 X-0.71585 Y38.63984
G1 F300 X-0.84936 Y38.87174
G1 F300 X-1.04090 Y39.08449
G1 F300 X-1.26317 Y39.24436
G1 F300 X-1.50777 Y39.35290
G1 F300 X-1.76945 Y39.40885
G1 F300 X-2.04326 Y39.41017
G1 F300 X-2.31740 Y39.35290
G1 F300 X-2.56200 Y39.24436
G1 F300 X-2.79360 Y39.07609
G1 F300 X-2.97582 Y38.87174
G1 F300 X-3.10932 Y38.63984
G1 F300 X-3.19233 Y38.38543
G1 F300 X-3.22225 Y38.11327
G1 F300 X-3.19494 Y37.84086
G1 F300 X-3.10648 Y37.56860
G1 F300 X-2.96845 Y37.33212
G1 F300 X-2.78915 Y37.13349
G1 F300 X-2.57285 Y36.97594
G1 F300 X-2.31740 Y36.86113
G1 F300 X-2.05573 Y36.80517
G1 F300 X-1.76945 Y36.80517
G1 F300 X-1.47354 Y36.87601
G1 F300 X-1.43000 Y36.83248
G1 F300 X-1.43000 Y30.04372
G1 F300 X-8.48782 Y30.04372
G1 F300 X-8.60428 Y30.16018
G1 F300 X-8.60428 Y35.72964
G1 F300 X-8.62188 Y35.86240
G1 F300 X-8.62188 Y36.64721
G1 F300 X-8.63199 Y36.68054
G1 F300 X-8.65892 Y36.70263
G1 F300 X-8.74398 Y36.70721
G1 F300 X-8.74398 Y37.65602
G1 F300 X-8.54228 Y37.65717
G1 F300 X-8.51157 Y37.67357
G1 F300 X-8.49514 Y37.70431
G1 F300 X-8.49514 Y39.02772
G1 F300 X-8.52066 Y39.06590
G1 F300 X-8.55399 Y39.07601
G1 F300 X-10.06570 Y39.07487
G1 F300 X-10.10387 Y39.04934
G1 F300 X-10.11398 Y39.01602
G1 F300 X-10.11284 Y37.70431
G1 F300 X-10.09640 Y37.67357
G1 F300 X-10.06570 Y37.65717
G1 F300 X-9.86399 Y37.65602
G1 F300 X-9.86399 Y36.70721
G1 F300 X-10.00484 Y36.70263
G1 F300 X-10.03179 Y36.68054
G1 F300 X-10.04190 Y36.64721
G1 F300 X-10.04190 Y35.14721
G1 F300 X-10.03179 Y35.11389
G1 F300 X-9.99358 Y35.08836
G1 F300 X-9.72429 Y35.08722
G1 F300 X-9.72429 Y29.92820
G1 F300 X-9.71439 Y29.82480
G1 F300 X-9.68365 Y29.71946
G1 F300 X-9.63293 Y29.62216
G1 F300 X-9.56422 Y29.53661
G1 F300 X-9.03562 Y29.02160
G1 F300 X-8.92854 Y28.96435
G1 F300 X-8.72567 Y28.92401
G1 F300 X-1.43000 Y28.92371
G1 F300 X-1.43000 Y1.48477
G1 F300 X-1.48474 Y1.43003
G1 F300 X-17.12166 Y1.43003
G1 F300 X-17.12166 Y8.05461
G1 F300 X-16.18169 Y8.05461
G1 F300 X-16.13180 Y8.08128
G1 F300 X-16.12283 Y9.32634
G1 F300 X-16.14836 Y9.36451
G1 F300 X-16.18169 Y9.37462
G1 F300 X-19.19339 Y9.37348
G1 F300 X-19.22412 Y9.35704
G1 F300 X-19.24170 Y9.31460
G1 F300 X-19.23156 Y8.08128
G1 F300 X-19.18168 Y8.05461
G1 F300 X-18.24168 Y8.05461
G1 F300 X-18.24168 Y1.01873
G1 F300 X-18.22948 Y0.90375
G1 F300 X-18.19651 Y0.79910
G1 F300 X-18.14378 Y0.70288
G1 F300 X-17.92458 Y0.47009
G1 F300 X-17.83904 Y0.40139
G1 F300 X-17.74173 Y0.35066
G1 F300 X-17.63639 Y0.31993
G1 F300 X-17.53299 Y0.31002
G1 F300 X-0.87001 Y0.31002
G1 F300 X-0.74750 Y0.32389
G1 F300 X-0.64222 Y0.35843
G1 F300 X-0.54611 Y0.41355
G1 F300 X-0.45827 Y0.49087
G1 F300 X-0.38502 Y0.59003
G1 F300 X-0.33739 Y0.69699
G1 F300 X-0.31405 Y0.80530
G1 F300 X-0.31405 Y0.93476
G1 F300 X-0.34562 Y1.06234
G1 F300 X-0.30999 Y1.25279
;G04 P0 ; dwell for no time -- G64 should not smooth over this point 
G1 F3000 Z3.00000 ; retract 

G1 F3000 X-3.90198 Y4.56371 ; rapid move to begin. 
G1 F300 F300.00000
G1 F300 Z-0.07000
;G04 P0 ; dwell for no time -- G64 should not smooth over this point 
G1 F300 F600.00000
G1 F300 X-3.90198 Y4.56371
G1 F300 X-3.91620 Y4.49218
G1 F300 X-3.95618 Y4.43211
G1 F300 X-4.03581 Y4.37453
G1 F300 X-4.27290 Y4.13742
G1 F300 X-4.45872 Y3.85932
G1 F300 X-4.58671 Y3.55033
G1 F300 X-4.65196 Y3.22231
G1 F300 X-4.65196 Y2.88777
G1 F300 X-4.58671 Y2.55975
G1 F300 X-4.45859 Y2.25038
G1 F300 X-4.34656 Y2.07624
G1 F300 X-4.33246 Y2.00501
G1 F300 X-4.36568 Y1.89872
G1 F300 X-4.41557 Y1.84954
G1 F300 X-4.47173 Y1.82503
G1 F300 X-10.11830 Y1.82160
G1 F300 X-10.18546 Y1.84931
G1 F300 X-10.22955 Y1.89150
G1 F300 X-10.26862 Y1.99800
G1 F300 X-10.18949 Y2.36153
G1 F300 X-10.18949 Y2.91883
G1 F300 X-10.57748 Y2.91883
G1 F300 X-10.57748 Y2.47083
G1 F300 X-10.59447 Y2.30611
G1 F300 X-10.64631 Y2.14233
G1 F300 X-10.73448 Y1.98764
G1 F300 X-10.85434 Y1.85599
G1 F300 X-10.99409 Y1.75609
G1 F300 X-11.15155 Y1.68741
G1 F300 X-11.31357 Y1.65333
G1 F300 X-11.47913 Y1.65300
G1 F300 X-11.65937 Y1.69130
G1 F300 X-11.81576 Y1.76237
G1 F300 X-11.95396 Y1.86440
G1 F300 X-12.06450 Y1.98764
G1 F300 X-12.14758 Y2.13087
G1 F300 X-12.20191 Y2.29384
G1 F300 X-12.22116 Y2.46455
G1 F300 X-12.22149 Y3.99480
G1 F300 X-12.20450 Y4.15954
G1 F300 X-12.14758 Y4.33475
G1 F300 X-12.06054 Y4.48286
G1 F300 X-11.94463 Y4.60966
G1 F300 X-11.81576 Y4.70328
G1 F300 X-11.71349 Y4.75025
G1 F300 X-11.71349 Y5.11761
G1 F300 X-11.77118 Y5.15032
G1 F300 X-11.98019 Y5.06193
G1 F300 X-12.17720 Y4.92810
G1 F300 X-12.34433 Y4.75845
G1 F300 X-12.53361 Y4.45119
G1 F300 X-12.63341 Y4.39696
G1 F300 X-12.72172 Y4.40143
G1 F300 X-12.81357 Y4.46262
G1 F300 X-12.95675 Y4.71070
G1 F300 X-12.97880 Y4.79848
G1 F300 X-12.97877 Y5.81855
G1 F300 X-12.95987 Y5.89988
G1 F300 X-12.91248 Y5.96106
G1 F300 X-12.84435 Y5.99772
G1 F300 X-12.39063 Y5.99657
G1 F300 X-12.34077 Y6.04643
G1 F300 X-12.34077 Y6.38522
G1 F300 X-12.68850 Y6.38636
G1 F300 X-12.71921 Y6.40280
G1 F300 X-12.73564 Y6.43350
G1 F300 X-12.73221 Y7.96817
G1 F300 X-12.71011 Y7.99512
G1 F300 X-12.67679 Y8.00521
G1 F300 X-11.36508 Y8.00406
G1 F300 X-11.33435 Y7.98763
G1 F300 X-11.31680 Y7.94521
G1 F300 X-11.31680 Y7.50922
G1 F300 X-10.97799 Y7.50922
G1 F300 X-10.92828 Y7.55893
G1 F300 X-10.92576 Y7.93665
G1 F300 X-10.96087 Y8.11750
G1 F300 X-11.05848 Y8.26355
G1 F300 X-11.25703 Y8.39718
G1 F300 X-11.29500 Y8.44524
G1 F300 X-11.31619 Y8.51503
G1 F300 X-11.30707 Y8.59319
G1 F300 X-11.25706 Y8.66962
G1 F300 X-11.14901 Y8.74264
G1 F300 X-11.07979 Y8.76393
G1 F300 X-10.98434 Y8.74910
G1 F300 X-10.92790 Y8.71036
G1 F300 X-10.17230 Y7.95316
G1 F300 X-10.13923 Y7.90157
G1 F300 X-10.12498 Y7.83000
G1 F300 X-10.13580 Y7.55146
G1 F300 X-10.16394 Y7.49876
G1 F300 X-10.49605 Y7.18532
G1 F300 X-10.70029 Y6.88397
G1 F300 X-10.75782 Y6.84021
G1 F300 X-10.84563 Y6.82073
G1 F300 X-10.93326 Y6.84641
G1 F300 X-10.97651 Y6.88121
G1 F300 X-11.31680 Y6.88121
G1 F300 X-11.32134 Y6.42228
G1 F300 X-11.34344 Y6.39533
G1 F300 X-11.37679 Y6.38522
G1 F300 X-11.71276 Y6.38522
G1 F300 X-11.71276 Y6.04643
G1 F300 X-11.66290 Y5.99657
G1 F300 X-11.38520 Y5.99424
G1 F300 X-11.28893 Y6.00371
G1 F300 X-11.11591 Y6.07326
G1 F300 X-11.03948 Y6.08166
G1 F300 X-10.95553 Y6.05215
G1 F300 X-10.88464 Y5.96655
G1 F300 X-10.80981 Y5.60793
G1 F300 X-10.70829 Y5.36289
G1 F300 X-10.69683 Y5.26033
G1 F300 X-10.74532 Y5.16295
G1 F300 X-10.81591 Y5.11626
G1 F300 X-10.91759 Y5.10790
G1 F300 X-11.02985 Y5.14913
G1 F300 X-11.08548 Y5.11758
G1 F300 X-11.08548 Y4.75025
G1 F300 X-10.98322 Y4.70328
G1 F300 X-10.84502 Y4.60122
G1 F300 X-10.73448 Y4.47798
G1 F300 X-10.64631 Y4.32330
G1 F300 X-10.59706 Y4.17179
G1 F300 X-10.57781 Y4.00107
G1 F300 X-10.57748 Y3.54685
G1 F300 X-10.18949 Y3.54685
G1 F300 X-10.18949 Y4.10410
G1 F300 X-10.25752 Y4.44027
G1 F300 X-10.22587 Y4.53780
G1 F300 X-10.16923 Y4.59200
G1 F300 X-10.08233 Y4.61908
G1 F300 X-10.03158 Y4.61601
G1 F300 X-9.67245 Y4.47034
G1 F300 X-9.34421 Y4.40504
G1 F300 X-9.00974 Y4.40504
G1 F300 X-8.68167 Y4.47029
G1 F300 X-8.37268 Y4.59828
G1 F300 X-8.09458 Y4.78413
G1 F300 X-7.85805 Y5.02063
G1 F300 X-7.67223 Y5.29873
G1 F300 X-7.54424 Y5.60773
G1 F300 X-7.47898 Y5.93579
G1 F300 X-7.47898 Y6.27028
G1 F300 X-7.54424 Y6.59833
G1 F300 X-7.67223 Y6.90734
G1 F300 X-7.85805 Y7.18545
G1 F300 X-8.09514 Y7.42250
G1 F300 X-8.17479 Y7.48009
G1 F300 X-8.21475 Y7.54016
G1 F300 X-8.22900 Y7.61171
G1 F300 X-8.22435 Y8.29987
G1 F300 X-8.24269 Y8.48595
G1 F300 X-8.29689 Y8.66464
G1 F300 X-8.38493 Y8.82933
G1 F300 X-8.50362 Y8.97396
G1 F300 X-9.78411 Y10.24795
G1 F300 X-9.88353 Y10.41683
G1 F300 X-10.00199 Y10.56121
G1 F300 X-10.14637 Y10.67967
G1 F300 X-10.31103 Y10.76771
G1 F300 X-10.48975 Y10.82191
G1 F300 X-10.96516 Y10.84764
G1 F300 X-11.04220 Y10.90225
G1 F300 X-11.12940 Y11.02989
G1 F300 X-11.14227 Y11.09788
G1 F300 X-11.13948 Y11.54104
G1 F300 X-11.11832 Y11.60050
G1 F300 X-11.02437 Y11.74665
G1 F300 X-10.98921 Y11.92813
G1 F300 X-10.99208 Y13.49448
G1 F300 X-10.95152 Y13.58708
G1 F300 X-10.88142 Y13.63999
G1 F300 X-10.78124 Y13.65358
G1 F300 X-10.69955 Y13.62132
G1 F300 X-9.78731 Y12.70677
G1 F300 X-9.64268 Y12.58805
G1 F300 X-9.47802 Y12.50004
G1 F300 X-9.29930 Y12.44584
G1 F300 X-9.11314 Y12.42750
G1 F300 X-8.13527 Y12.42935
G1 F300 X-8.07594 Y12.40827
G1 F300 X-7.80924 Y12.24833
G1 F300 X-7.76941 Y12.19786
G1 F300 X-7.74762 Y12.12463
G1 F300 X-7.77304 Y12.01394
G1 F300 X-7.82458 Y11.95755
G1 F300 X-8.11180 Y11.78501
G1 F300 X-8.28145 Y11.61787
G1 F300 X-8.41525 Y11.42087
G1 F300 X-8.50367 Y11.21185
G1 F300 X-8.47093 Y11.15415
G1 F300 X-8.10360 Y11.15415
G1 F300 X-8.06006 Y11.25115
G1 F300 X-7.96301 Y11.38529
G1 F300 X-7.83624 Y11.50116
G1 F300 X-7.68251 Y11.59105
G1 F300 X-7.51909 Y11.64416
G1 F300 X-7.34820 Y11.66212
G1 F300 X-5.82417 Y11.66212
G1 F300 X-5.64721 Y11.64254
G1 F300 X-5.48986 Y11.59105
G1 F300 X-5.34102 Y11.50515
G1 F300 X-5.20937 Y11.38529
G1 F300 X-5.11231 Y11.25115
G1 F300 X-5.06878 Y11.15415
G1 F300 X-4.70142 Y11.15415
G1 F300 X-4.66868 Y11.21185
G1 F300 X-4.75710 Y11.42087
G1 F300 X-4.89090 Y11.61787
G1 F300 X-5.06057 Y11.78501
G1 F300 X-5.36784 Y11.97426
G1 F300 X-5.41102 Y12.03728
G1 F300 X-5.42534 Y12.11231
G1 F300 X-5.40843 Y12.18681
G1 F300 X-5.36311 Y12.24833
G1 F300 X-5.14894 Y12.36895
G1 F300 X-4.96441 Y12.52039
G1 F300 X-4.81323 Y12.70461
G1 F300 X-4.70086 Y12.91482
G1 F300 X-4.63167 Y13.14294
G1 F300 X-4.60830 Y13.38013
G1 F300 X-4.63167 Y13.61731
G1 F300 X-4.70086 Y13.84543
G1 F300 X-4.81320 Y14.05561
G1 F300 X-4.96444 Y14.23986
G1 F300 X-5.14892 Y14.39127
G1 F300 X-5.36357 Y14.51385
G1 F300 X-5.41358 Y14.59028
G1 F300 X-5.42273 Y14.66844
G1 F300 X-5.40157 Y14.73826
G1 F300 X-5.35552 Y14.79445
G1 F300 X-5.14894 Y14.90895
G1 F300 X-4.96444 Y15.06039
G1 F300 X-4.81323 Y15.24461
G1 F300 X-4.70086 Y15.45482
G1 F300 X-4.63167 Y15.68294
G1 F300 X-4.60830 Y15.92013
G1 F300 X-4.63167 Y16.15731
G1 F300 X-4.70086 Y16.38543
G1 F300 X-4.81323 Y16.59564
G1 F300 X-4.96444 Y16.77989
G1 F300 X-5.14892 Y16.93127
G1 F300 X-5.36357 Y17.05385
G1 F300 X-5.41358 Y17.13028
G1 F300 X-5.42273 Y17.20844
G1 F300 X-5.40157 Y17.27826
G1 F300 X-5.35552 Y17.33445
G1 F300 X-5.14892 Y17.44898
G1 F300 X-4.96444 Y17.60036
G1 F300 X-4.81320 Y17.78464
G1 F300 X-4.70086 Y17.99482
G1 F300 X-4.63167 Y18.22294
G1 F300 X-4.60830 Y18.46013
G1 F300 X-4.63167 Y18.69731
G1 F300 X-4.70086 Y18.92543
G1 F300 X-4.81323 Y19.13564
G1 F300 X-4.96441 Y19.31986
G1 F300 X-5.14892 Y19.47127
G1 F300 X-5.36357 Y19.59385
G1 F300 X-5.41358 Y19.67028
G1 F300 X-5.42273 Y19.74844
G1 F300 X-5.40157 Y19.81826
G1 F300 X-5.35552 Y19.87445
G1 F300 X-5.14892 Y19.98898
G1 F300 X-4.96444 Y20.14039
G1 F300 X-4.81323 Y20.32464
G1 F300 X-4.70073 Y20.53510
G1 F300 X-4.61841 Y20.78819
G1 F300 X-4.54610 Y20.85801
G1 F300 X-4.46169 Y20.88042
G1 F300 X-4.35390 Y20.84925
G1 F300 X-4.28341 Y20.76195
G1 F300 X-4.27490 Y20.18766
G1 F300 X-4.25656 Y20.00150
G1 F300 X-4.20236 Y19.82278
G1 F300 X-4.11435 Y19.65812
G1 F300 X-3.93050 Y19.44719
G1 F300 X-3.90198 Y19.34824
G1 F300 X-3.90198 Y4.56371
;G04 P0 ; dwell for no time -- G64 should not smooth over this point 
G1 F3000 Z3.00000 ; retract 

G1 F3000 X-7.86700 Y6.10300 ; rapid move to begin. 
G1 F300 F300.00000
G1 F300 Z-0.07000
;G04 P0 ; dwell for no time -- G64 should not smooth over this point 
G1 F300 F600.00000
G1 F300 X-7.86700 Y6.10300
G1 F300 X-7.89725 Y6.38146
G1 F300 X-7.98025 Y6.63587
G1 F300 X-8.11376 Y6.86774
G1 F300 X-8.30530 Y7.08049
G1 F300 X-8.51673 Y7.23411
G1 F300 X-8.61698 Y7.28016
G1 F300 X-8.61729 Y8.30602
G1 F300 X-8.65762 Y8.50889
G1 F300 X-8.71487 Y8.61597
G1 F300 X-10.14205 Y10.05717
G1 F300 X-10.19404 Y10.17289
G1 F300 X-10.26387 Y10.26680
G1 F300 X-10.34642 Y10.34069
G1 F300 X-10.45368 Y10.40147
G1 F300 X-10.56536 Y10.43642
G1 F300 X-10.66933 Y10.44731
G1 F300 X-11.38030 Y10.44764
G1 F300 X-11.38484 Y10.71061
G1 F300 X-11.42858 Y10.74648
G1 F300 X-11.53026 Y10.74762
G1 F300 X-11.53026 Y11.85892
G1 F300 X-11.41733 Y11.86349
G1 F300 X-11.39041 Y11.88561
G1 F300 X-11.38030 Y11.91891
G1 F300 X-11.39041 Y13.45224
G1 F300 X-11.44029 Y13.47891
G1 F300 X-12.77361 Y13.46880
G1 F300 X-12.80028 Y13.41891
G1 F300 X-12.80028 Y11.91891
G1 F300 X-12.79018 Y11.88561
G1 F300 X-12.76325 Y11.86349
G1 F300 X-12.65027 Y11.85892
G1 F300 X-12.65027 Y10.74762
G1 F300 X-12.76325 Y10.74305
G1 F300 X-12.79018 Y10.72097
G1 F300 X-12.80028 Y10.68762
G1 F300 X-12.79018 Y9.05428
G1 F300 X-12.74029 Y9.02761
G1 F300 X-11.42858 Y9.02878
G1 F300 X-11.39785 Y9.04518
G1 F300 X-11.38144 Y9.07592
G1 F300 X-11.38030 Y9.32763
G1 F300 X-10.99645 Y9.32763
G1 F300 X-9.73699 Y8.06820
G1 F300 X-9.73699 Y7.28016
G1 F300 X-9.83725 Y7.23411
G1 F300 X-10.04868 Y7.08049
G1 F300 X-10.24022 Y6.86774
G1 F300 X-10.37372 Y6.63587
G1 F300 X-10.45673 Y6.38146
G1 F300 X-10.48698 Y6.10300
G1 F300 X-10.45673 Y5.82459
G1 F300 X-10.37088 Y5.56462
G1 F300 X-10.23285 Y5.32812
G1 F300 X-10.04868 Y5.12553
G1 F300 X-9.83725 Y4.97194
G1 F300 X-9.57573 Y4.85550
G1 F300 X-9.30766 Y4.79985
G1 F300 X-9.03385 Y4.80120
G1 F300 X-8.77825 Y4.85550
G1 F300 X-8.52757 Y4.96566
G1 F300 X-8.30530 Y5.12553
G1 F300 X-8.11376 Y5.33828
G1 F300 X-7.98025 Y5.57018
G1 F300 X-7.89725 Y5.82459
G1 F300 X-7.86700 Y6.10300
;G04 P0 ; dwell for no time -- G64 should not smooth over this point 
G1 F3000 Z3.00000 ; retract 

G1 F3000 X-13.11748 Y2.47083 ; rapid move to begin. 
G1 F300 F300.00000
G1 F300 Z-0.07000
;G04 P0 ; dwell for no time -- G64 should not smooth over this point 
G1 F300 F600.00000
G1 F300 X-13.11748 Y2.47083
G1 F300 X-13.11748 Y3.99480
G1 F300 X-13.13447 Y4.15954
G1 F300 X-13.19139 Y4.33475
G1 F300 X-13.27448 Y4.47798
G1 F300 X-13.36678 Y4.58098
G1 F300 X-13.36678 Y6.38522
G1 F300 X-13.25383 Y6.38979
G1 F300 X-13.22690 Y6.41189
G1 F300 X-13.21679 Y6.44524
G1 F300 X-13.21794 Y7.95692
G1 F300 X-13.23437 Y7.98763
G1 F300 X-13.26508 Y8.00406
G1 F300 X-13.43028 Y8.00521
G1 F300 X-13.43028 Y9.02761
G1 F300 X-13.31733 Y9.03218
G1 F300 X-13.29040 Y9.05428
G1 F300 X-13.28029 Y9.08760
G1 F300 X-13.29040 Y10.72097
G1 F300 X-13.34029 Y10.74762
G1 F300 X-14.05830 Y10.74762
G1 F300 X-14.50142 Y11.17678
G1 F300 X-14.60851 Y11.23403
G1 F300 X-14.71387 Y11.26476
G1 F300 X-16.12169 Y11.27467
G1 F300 X-16.13180 Y11.34797
G1 F300 X-16.18169 Y11.37462
G1 F300 X-19.21503 Y11.36451
G1 F300 X-19.24170 Y11.31462
G1 F300 X-19.24170 Y10.11463
G1 F300 X-19.23156 Y10.08127
G1 F300 X-19.20464 Y10.05920
G1 F300 X-16.18169 Y10.05460
G1 F300 X-16.13180 Y10.08127
G1 F300 X-16.12169 Y10.15466
G1 F300 X-15.04925 Y10.15466
G1 F300 X-14.70028 Y9.80568
G1 F300 X-14.69914 Y9.07592
G1 F300 X-14.66325 Y9.03218
G1 F300 X-14.55029 Y9.02761
G1 F300 X-14.55029 Y8.00521
G1 F300 X-14.61011 Y7.99512
G1 F300 X-14.63678 Y7.94521
G1 F300 X-14.63678 Y6.44524
G1 F300 X-14.62667 Y6.41189
G1 F300 X-14.59975 Y6.38979
G1 F300 X-14.48679 Y6.38522
G1 F300 X-14.48679 Y4.60791
G1 F300 X-14.60450 Y4.47798
G1 F300 X-14.68758 Y4.33475
G1 F300 X-14.74450 Y4.15954
G1 F300 X-14.76149 Y3.99480
G1 F300 X-14.76149 Y2.47083
G1 F300 X-14.74191 Y2.29384
G1 F300 X-14.68758 Y2.13087
G1 F300 X-14.60450 Y1.98764
G1 F300 X-14.49396 Y1.86440
G1 F300 X-14.35576 Y1.76237
G1 F300 X-14.18743 Y1.68741
G1 F300 X-14.02540 Y1.65333
G1 F300 X-13.85357 Y1.65333
G1 F300 X-13.69155 Y1.68741
G1 F300 X-13.53409 Y1.75609
G1 F300 X-13.39434 Y1.85599
G1 F300 X-13.27844 Y1.98276
G1 F300 X-13.18631 Y2.14233
G1 F300 X-13.13447 Y2.30611
G1 F300 X-13.11748 Y2.47083
;G04 P0 ; dwell for no time -- G64 should not smooth over this point 
G1 F3000 Z3.00000 ; retract 

G1 F3000 X-13.28029 Y11.91891 ; rapid move to begin. 
G1 F300 F300.00000
G1 F300 Z-0.07000
;G04 P0 ; dwell for no time -- G64 should not smooth over this point 
G1 F300 F600.00000
G1 F300 X-13.28029 Y11.91891
G1 F300 X-13.28029 Y13.41891
G1 F300 X-13.29040 Y13.45224
G1 F300 X-13.32858 Y13.47776
G1 F300 X-14.65200 Y13.47776
G1 F300 X-14.68270 Y13.46133
G1 F300 X-14.69914 Y13.43062
G1 F300 X-14.70028 Y13.27464
G1 F300 X-16.12169 Y13.27464
G1 F300 X-16.13180 Y13.34794
G1 F300 X-16.18169 Y13.37461
G1 F300 X-19.18168 Y13.37461
G1 F300 X-19.21503 Y13.36450
G1 F300 X-19.24053 Y13.32633
G1 F300 X-19.24170 Y12.11462
G1 F300 X-19.22412 Y12.07218
G1 F300 X-19.19339 Y12.05577
G1 F300 X-16.18169 Y12.05460
G1 F300 X-16.13180 Y12.08127
G1 F300 X-16.12169 Y12.15463
G1 F300 X-14.70028 Y12.15463
G1 F300 X-14.69914 Y11.90720
G1 F300 X-14.68270 Y11.87652
G1 F300 X-14.65200 Y11.86006
G1 F300 X-13.34029 Y11.85892
G1 F300 X-13.29787 Y11.87652
G1 F300 X-13.28029 Y11.91891
;G04 P0 ; dwell for no time -- G64 should not smooth over this point 
G1 F3000 Z3.00000 ; retract 

G1 F3000 X-11.39566 Y23.51953 ; rapid move to begin. 
G1 F300 F300.00000
G1 F300 Z-0.07000
;G04 P0 ; dwell for no time -- G64 should not smooth over this point 
G1 F300 F600.00000
G1 F300 X-11.39566 Y23.51953
G1 F300 X-11.40516 Y23.61597
G1 F300 X-11.47237 Y23.77822
G1 F300 X-11.59658 Y23.90243
G1 F300 X-11.67438 Y23.94404
G1 F300 X-11.85510 Y23.97911
G1 F300 X-12.13280 Y23.97678
G1 F300 X-12.18266 Y23.92692
G1 F300 X-12.18266 Y23.58811
G1 F300 X-11.84669 Y23.58811
G1 F300 X-11.81334 Y23.57800
G1 F300 X-11.79124 Y23.55107
G1 F300 X-11.78670 Y23.09212
G1 F300 X-11.44789 Y23.09212
G1 F300 X-11.39818 Y23.14183
G1 F300 X-11.39566 Y23.51953
;G04 P0 ; dwell for no time -- G64 should not smooth over this point 
G1 F3000 Z3.00000 ; retract 

G1 F3000 X-13.68669 Y22.02811 ; rapid move to begin. 
G1 F300 F300.00000
G1 F300 Z-0.07000
;G04 P0 ; dwell for no time -- G64 should not smooth over this point 
G1 F300 F600.00000
G1 F300 X-13.68669 Y22.02811
G1 F300 X-13.70427 Y21.98570
G1 F300 X-13.74669 Y21.96812
G1 F300 X-15.05840 Y21.96926
G1 F300 X-15.08910 Y21.98570
G1 F300 X-15.10554 Y22.01640
G1 F300 X-15.10668 Y22.21811
G1 F300 X-16.12169 Y22.21811
G1 F300 X-16.12283 Y22.10292
G1 F300 X-16.13927 Y22.07218
G1 F300 X-16.16998 Y22.05577
G1 F300 X-17.21831 Y22.05461
G1 F300 X-17.31394 Y21.99291
G1 F300 X-17.46606 Y21.93416
G1 F300 X-17.64556 Y21.90571
G1 F300 X-17.80838 Y21.91458
G1 F300 X-17.96598 Y21.95646
G1 F300 X-18.14721 Y22.05461
G1 F300 X-19.18168 Y22.05461
G1 F300 X-19.22412 Y22.07218
G1 F300 X-19.24170 Y22.11460
G1 F300 X-19.23713 Y23.33759
G1 F300 X-19.21503 Y23.36451
G1 F300 X-19.18168 Y23.37462
G1 F300 X-18.59123 Y23.37462
G1 F300 X-18.59123 Y25.03878
G1 F300 X-18.66225 Y25.09199
G1 F300 X-18.84447 Y25.29633
G1 F300 X-18.97797 Y25.52823
G1 F300 X-19.06098 Y25.78264
G1 F300 X-19.09090 Y26.06732
G1 F300 X-19.06359 Y26.32722
G1 F300 X-19.00964 Y26.49750
G1 F300 X-19.36575 Y26.85361
G1 F300 X-41.11412 Y26.85361
G1 F300 X-41.17978 Y26.78795
G1 F300 X-41.17978 Y19.26142
G1 F300 X-40.74549 Y19.26142
G1 F300 X-40.74432 Y19.46312
G1 F300 X-40.72791 Y19.49383
G1 F300 X-40.69718 Y19.51026
G1 F300 X-39.38550 Y19.51141
G1 F300 X-39.34306 Y19.49383
G1 F300 X-39.32548 Y19.45141
G1 F300 X-39.32548 Y17.95141
G1 F300 X-39.33559 Y17.91809
G1 F300 X-39.36254 Y17.89599
G1 F300 X-39.47547 Y17.89142
G1 F300 X-39.47547 Y17.28891
G1 F300 X-39.36503 Y17.28433
G1 F300 X-39.33810 Y17.26224
G1 F300 X-39.32799 Y17.22891
G1 F300 X-39.33257 Y15.70595
G1 F300 X-39.35466 Y15.67903
G1 F300 X-39.38799 Y15.66892
G1 F300 X-40.69970 Y15.67006
G1 F300 X-40.73787 Y15.69559
G1 F300 X-40.74798 Y15.72891
G1 F300 X-40.74798 Y17.22891
G1 F300 X-40.73787 Y17.26224
G1 F300 X-40.71095 Y17.28433
G1 F300 X-40.59548 Y17.28891
G1 F300 X-40.59548 Y17.89142
G1 F300 X-40.69718 Y17.89256
G1 F300 X-40.73538 Y17.91809
G1 F300 X-40.74549 Y18.14141
G1 F300 X-41.68549 Y18.14141
G1 F300 X-41.80046 Y18.15360
G1 F300 X-41.90510 Y18.18657
G1 F300 X-42.00132 Y18.23930
G1 F300 X-42.13972 Y18.36411
G1 F300 X-42.25463 Y18.53610
G1 F300 X-42.28989 Y18.65230
G1 F300 X-42.28989 Y27.12333
G1 F300 X-42.25915 Y27.22866
G1 F300 X-42.20190 Y27.33575
G1 F300 X-41.73769 Y27.81355
G1 F300 X-41.65214 Y27.88226
G1 F300 X-41.55484 Y27.93298
G1 F300 X-41.44950 Y27.96371
G1 F300 X-41.34610 Y27.97362
G1 F300 X-19.13380 Y27.97362
G1 F300 X-18.93344 Y27.93552
G1 F300 X-18.93344 Y28.45401
G1 F300 X-20.62879 Y30.14936
G1 F300 X-20.90080 Y30.26406
G1 F300 X-21.13240 Y30.43234
G1 F300 X-21.30725 Y30.62652
G1 F300 X-21.44528 Y30.86300
G1 F300 X-21.53113 Y31.12299
G1 F300 X-21.56138 Y31.40140
G1 F300 X-21.53374 Y31.66757
G1 F300 X-21.44812 Y31.93424
G1 F300 X-21.30725 Y32.17630
G1 F300 X-21.12308 Y32.37889
G1 F300 X-20.90080 Y32.53876
G1 F300 X-20.66207 Y32.64503
G1 F300 X-20.38206 Y32.70457
G1 F300 X-20.10825 Y32.70325
G1 F300 X-19.84657 Y32.64730
G1 F300 X-19.60197 Y32.53876
G1 F300 X-19.37482 Y32.37493
G1 F300 X-19.18816 Y32.16614
G1 F300 X-19.05465 Y31.93424
G1 F300 X-19.00594 Y31.78542
G1 F300 X-16.96652 Y29.74598
G1 F300 X-16.82019 Y29.56635
G1 F300 X-16.71475 Y29.36666
G1 F300 X-16.65032 Y29.15022
G1 F300 X-16.62903 Y28.93128
G1 F300 X-16.62903 Y26.67169
G1 F300 X-16.58224 Y26.58802
G1 F300 X-16.50150 Y26.33948
G1 F300 X-16.47125 Y26.06105
G1 F300 X-16.49888 Y25.79491
G1 F300 X-16.58450 Y25.52823
G1 F300 X-16.72537 Y25.28617
G1 F300 X-16.90023 Y25.09199
G1 F300 X-16.97124 Y25.03878
G1 F300 X-16.97124 Y23.37462
G1 F300 X-16.18169 Y23.37462
G1 F300 X-16.12654 Y23.33812
G1 F300 X-15.10668 Y23.33812
G1 F300 X-15.10554 Y23.53982
G1 F300 X-15.08910 Y23.57053
G1 F300 X-15.05840 Y23.58696
G1 F300 X-13.72373 Y23.58353
G1 F300 X-13.69680 Y23.56144
G1 F300 X-13.68669 Y23.52811
G1 F300 X-13.68669 Y22.02811
;G04 P0 ; dwell for no time -- G64 should not smooth over this point 
G1 F3000 Z3.00000 ; retract 

G1 F3000 X-20.52168 Y23.31462 ; rapid move to begin. 
G1 F300 F300.00000
G1 F300 Z-0.07000
;G04 P0 ; dwell for no time -- G64 should not smooth over this point 
G1 F300 F600.00000
G1 F300 X-20.52168 Y23.31462
G1 F300 X-20.52625 Y26.33758
G1 F300 X-20.54835 Y26.36450
G1 F300 X-20.58168 Y26.37461
G1 F300 X-21.80466 Y26.37004
G1 F300 X-21.83158 Y26.34794
G1 F300 X-21.84169 Y26.31462
G1 F300 X-21.83712 Y23.29166
G1 F300 X-21.81502 Y23.26471
G1 F300 X-21.78170 Y23.25460
G1 F300 X-20.58168 Y23.25460
G1 F300 X-20.53926 Y23.27218
G1 F300 X-20.52168 Y23.31462
;G04 P0 ; dwell for no time -- G64 should not smooth over this point 
G1 F3000 Z3.00000 ; retract 

G1 F3000 X-22.52168 Y23.31462 ; rapid move to begin. 
G1 F300 F300.00000
G1 F300 Z-0.07000
;G04 P0 ; dwell for no time -- G64 should not smooth over this point 
G1 F300 F600.00000
G1 F300 X-22.52168 Y23.31462
G1 F300 X-22.52625 Y26.33758
G1 F300 X-22.54835 Y26.36450
G1 F300 X-22.58170 Y26.37461
G1 F300 X-23.80466 Y26.37004
G1 F300 X-23.83158 Y26.34794
G1 F300 X-23.84169 Y26.31462
G1 F300 X-23.83712 Y23.29166
G1 F300 X-23.81502 Y23.26471
G1 F300 X-23.78170 Y23.25460
G1 F300 X-22.58170 Y23.25460
G1 F300 X-22.53925 Y23.27218
G1 F300 X-22.52168 Y23.31462
;G04 P0 ; dwell for no time -- G64 should not smooth over this point 
G1 F3000 Z3.00000 ; retract 

G1 F3000 X-24.52170 Y23.31462 ; rapid move to begin. 
G1 F300 F300.00000
G1 F300 Z-0.07000
;G04 P0 ; dwell for no time -- G64 should not smooth over this point 
G1 F300 F600.00000
G1 F300 X-24.52170 Y23.31462
G1 F300 X-24.52625 Y26.33758
G1 F300 X-24.54834 Y26.36450
G1 F300 X-24.58169 Y26.37461
G1 F300 X-25.80465 Y26.37004
G1 F300 X-25.83158 Y26.34794
G1 F300 X-25.84169 Y26.31462
G1 F300 X-25.83711 Y23.29166
G1 F300 X-25.81502 Y23.26471
G1 F300 X-25.78169 Y23.25460
G1 F300 X-24.58169 Y23.25460
G1 F300 X-24.53925 Y23.27218
G1 F300 X-24.52170 Y23.31462
;G04 P0 ; dwell for no time -- G64 should not smooth over this point 
G1 F3000 Z3.00000 ; retract 

G1 F3000 X-26.52169 Y23.31462 ; rapid move to begin. 
G1 F300 F300.00000
G1 F300 Z-0.07000
;G04 P0 ; dwell for no time -- G64 should not smooth over this point 
G1 F300 F600.00000
G1 F300 X-26.52169 Y23.31462
G1 F300 X-26.52627 Y26.33758
G1 F300 X-26.54836 Y26.36450
G1 F300 X-26.58169 Y26.37461
G1 F300 X-27.80465 Y26.37004
G1 F300 X-27.83157 Y26.34794
G1 F300 X-27.84168 Y26.31462
G1 F300 X-27.83711 Y23.29166
G1 F300 X-27.81501 Y23.26471
G1 F300 X-27.78169 Y23.25460
G1 F300 X-26.58169 Y23.25460
G1 F300 X-26.53927 Y23.27218
G1 F300 X-26.52169 Y23.31462
;G04 P0 ; dwell for no time -- G64 should not smooth over this point 
G1 F3000 Z3.00000 ; retract 

G1 F3000 X-28.52144 Y23.31462 ; rapid move to begin. 
G1 F300 F300.00000
G1 F300 Z-0.07000
;G04 P0 ; dwell for no time -- G64 should not smooth over this point 
G1 F300 F600.00000
G1 F300 X-28.52144 Y23.31462
G1 F300 X-28.52601 Y26.33768
G1 F300 X-28.54811 Y26.36461
G1 F300 X-28.58146 Y26.37471
G1 F300 X-29.80475 Y26.37029
G1 F300 X-29.83167 Y26.34820
G1 F300 X-29.84178 Y26.31485
G1 F300 X-29.83736 Y23.29156
G1 F300 X-29.81526 Y23.26464
G1 F300 X-29.78191 Y23.25453
G1 F300 X-28.58143 Y23.25460
G1 F300 X-28.53901 Y23.27218
G1 F300 X-28.52144 Y23.31462
;G04 P0 ; dwell for no time -- G64 should not smooth over this point 
G1 F3000 Z3.00000 ; retract 

G1 F3000 X-30.52169 Y23.31462 ; rapid move to begin. 
G1 F300 F300.00000
G1 F300 Z-0.07000
;G04 P0 ; dwell for no time -- G64 should not smooth over this point 
G1 F300 F600.00000
G1 F300 X-30.52169 Y23.31462
G1 F300 X-30.52626 Y26.33758
G1 F300 X-30.54836 Y26.36450
G1 F300 X-30.58168 Y26.37461
G1 F300 X-31.80464 Y26.37004
G1 F300 X-31.83156 Y26.34794
G1 F300 X-31.84170 Y26.31462
G1 F300 X-31.83713 Y23.29166
G1 F300 X-31.81503 Y23.26471
G1 F300 X-31.78168 Y23.25460
G1 F300 X-30.58168 Y23.25460
G1 F300 X-30.53926 Y23.27218
G1 F300 X-30.52169 Y23.31462
;G04 P0 ; dwell for no time -- G64 should not smooth over this point 
G1 F3000 Z3.00000 ; retract 

G1 F3000 X-32.23273 Y23.92908 ; rapid move to begin. 
G1 F300 F300.00000
G1 F300 Z-0.07000
;G04 P0 ; dwell for no time -- G64 should not smooth over this point 
G1 F300 F600.00000
G1 F300 X-32.23273 Y23.92908
G1 F300 X-32.23273 Y26.27860
G1 F300 X-32.26425 Y26.38251
G1 F300 X-32.35092 Y26.45244
G1 F300 X-32.41975 Y26.46562
G1 F300 X-40.60478 Y26.46562
G1 F300 X-40.68164 Y26.44886
G1 F300 X-40.76025 Y26.38251
G1 F300 X-40.79177 Y26.27863
G1 F300 X-40.79180 Y22.19713
G1 F300 X-40.75893 Y22.09131
G1 F300 X-40.68273 Y22.02735
G1 F300 X-40.60638 Y22.01013
G1 F300 X-40.38916 Y22.00828
G1 F300 X-40.33929 Y21.95842
G1 F300 X-40.33929 Y21.61961
G1 F300 X-40.68700 Y21.61846
G1 F300 X-40.71770 Y21.60203
G1 F300 X-40.73414 Y21.57132
G1 F300 X-40.73071 Y20.03665
G1 F300 X-40.70861 Y20.00973
G1 F300 X-40.67529 Y19.99962
G1 F300 X-39.37529 Y19.99962
G1 F300 X-39.32540 Y20.02629
G1 F300 X-39.31644 Y21.57132
G1 F300 X-39.33287 Y21.60203
G1 F300 X-39.36358 Y21.61846
G1 F300 X-39.71128 Y21.61961
G1 F300 X-39.71128 Y21.95842
G1 F300 X-39.66142 Y22.00828
G1 F300 X-39.28746 Y22.00114
G1 F300 X-39.12863 Y21.94008
G1 F300 X-39.06871 Y21.93319
G1 F300 X-38.86310 Y22.00114
G1 F300 X-38.76607 Y22.01069
G1 F300 X-37.38743 Y22.00114
G1 F300 X-37.22518 Y21.93393
G1 F300 X-37.15695 Y21.87792
G1 F300 X-37.03554 Y21.71084
G1 F300 X-36.95414 Y21.66850
G1 F300 X-36.16021 Y21.66261
G1 F300 X-36.04680 Y21.70109
G1 F300 X-35.98165 Y21.79426
G1 F300 X-35.97441 Y21.87038
G1 F300 X-36.02320 Y22.02682
G1 F300 X-36.03267 Y22.12291
G1 F300 X-36.03044 Y22.35064
G1 F300 X-35.98048 Y22.40061
G1 F300 X-35.64190 Y22.40061
G1 F300 X-35.64057 Y22.10264
G1 F300 X-35.61505 Y22.06446
G1 F300 X-35.58175 Y22.05435
G1 F300 X-32.55854 Y22.05900
G1 F300 X-32.53161 Y22.08110
G1 F300 X-32.52151 Y22.11442
G1 F300 X-32.53161 Y23.34813
G1 F300 X-32.58150 Y23.37480
G1 F300 X-33.76768 Y23.37487
G1 F300 X-33.76768 Y23.71343
G1 F300 X-33.71828 Y23.76283
G1 F300 X-32.59059 Y23.76565
G1 F300 X-32.39120 Y23.74449
G1 F300 X-32.31927 Y23.77162
G1 F300 X-32.27159 Y23.81531
G1 F300 X-32.23273 Y23.92908
;G04 P0 ; dwell for no time -- G64 should not smooth over this point 
G1 F3000 Z3.00000 ; retract 

G1 F3000 X-34.39569 Y23.37487 ; rapid move to begin. 
G1 F300 F300.00000
G1 F300 Z-0.07000
;G04 P0 ; dwell for no time -- G64 should not smooth over this point 
G1 F300 F600.00000
G1 F300 X-34.39569 Y23.37487
G1 F300 X-34.39569 Y23.71343
G1 F300 X-34.44510 Y23.76283
G1 F300 X-35.66948 Y23.75615
G1 F300 X-35.83179 Y23.68892
G1 F300 X-35.95597 Y23.56474
G1 F300 X-35.99757 Y23.48691
G1 F300 X-36.03267 Y23.30634
G1 F300 X-36.03044 Y23.07858
G1 F300 X-35.98048 Y23.02862
G1 F300 X-35.64190 Y23.02862
G1 F300 X-35.64057 Y23.32659
G1 F300 X-35.62414 Y23.35730
G1 F300 X-35.59343 Y23.37370
G1 F300 X-34.39569 Y23.37487
;G04 P0 ; dwell for no time -- G64 should not smooth over this point 
G1 F3000 Z3.00000 ; retract 

G1 F3000 X-32.52168 Y20.11461 ; rapid move to begin. 
G1 F300 F300.00000
G1 F300 Z-0.07000
;G04 P0 ; dwell for no time -- G64 should not smooth over this point 
G1 F300 F600.00000
G1 F300 X-32.52168 Y20.11461
G1 F300 X-32.52168 Y21.31460
G1 F300 X-32.53179 Y21.34795
G1 F300 X-32.56999 Y21.37345
G1 F300 X-35.58170 Y21.37462
G1 F300 X-35.63158 Y21.34795
G1 F300 X-35.64169 Y21.27462
G1 F300 X-37.41530 Y21.27462
G1 F300 X-37.41644 Y21.57132
G1 F300 X-37.43285 Y21.60203
G1 F300 X-37.46358 Y21.61846
G1 F300 X-38.77529 Y21.61961
G1 F300 X-38.80861 Y21.60950
G1 F300 X-38.83414 Y21.57132
G1 F300 X-38.83528 Y20.05961
G1 F300 X-38.82518 Y20.02629
G1 F300 X-38.78700 Y20.00076
G1 F300 X-37.46358 Y20.00076
G1 F300 X-37.41984 Y20.03665
G1 F300 X-37.41530 Y20.15461
G1 F300 X-35.64169 Y20.15461
G1 F300 X-35.63158 Y20.08128
G1 F300 X-35.58170 Y20.05461
G1 F300 X-32.58168 Y20.05461
G1 F300 X-32.53926 Y20.07219
G1 F300 X-32.52168 Y20.11461
;G04 P0 ; dwell for no time -- G64 should not smooth over this point 
G1 F3000 Z3.00000 ; retract 

G1 F3000 X-32.52168 Y18.11461 ; rapid move to begin. 
G1 F300 F300.00000
G1 F300 Z-0.07000
;G04 P0 ; dwell for no time -- G64 should not smooth over this point 
G1 F300 F600.00000
G1 F300 X-32.52168 Y18.11461
G1 F300 X-32.52168 Y19.31461
G1 F300 X-32.53179 Y19.34796
G1 F300 X-32.56999 Y19.37346
G1 F300 X-35.58170 Y19.37460
G1 F300 X-35.63158 Y19.34796
G1 F300 X-35.64169 Y19.27463
G1 F300 X-37.42548 Y19.27463
G1 F300 X-37.42665 Y19.46312
G1 F300 X-37.44306 Y19.49383
G1 F300 X-37.47379 Y19.51026
G1 F300 X-38.78548 Y19.51141
G1 F300 X-38.81883 Y19.50130
G1 F300 X-38.84433 Y19.46312
G1 F300 X-38.84550 Y17.95141
G1 F300 X-38.83539 Y17.91809
G1 F300 X-38.79718 Y17.89256
G1 F300 X-37.47379 Y17.89256
G1 F300 X-37.44306 Y17.90900
G1 F300 X-37.42665 Y17.93970
G1 F300 X-37.42548 Y18.15461
G1 F300 X-35.64169 Y18.15461
G1 F300 X-35.63158 Y18.08128
G1 F300 X-35.58170 Y18.05461
G1 F300 X-32.58168 Y18.05461
G1 F300 X-32.53926 Y18.07219
G1 F300 X-32.52168 Y18.11461
;G04 P0 ; dwell for no time -- G64 should not smooth over this point 
G1 F3000 Z3.00000 ; retract 

G1 F3000 X-32.52168 Y16.11461 ; rapid move to begin. 
G1 F300 F300.00000
G1 F300 Z-0.07000
;G04 P0 ; dwell for no time -- G64 should not smooth over this point 
G1 F300 F600.00000
G1 F300 X-32.52168 Y16.11461
G1 F300 X-32.52168 Y17.31461
G1 F300 X-32.53179 Y17.34794
G1 F300 X-32.56999 Y17.37346
G1 F300 X-35.58170 Y17.37461
G1 F300 X-35.63158 Y17.34794
G1 F300 X-35.64169 Y17.27463
G1 F300 X-38.78799 Y17.28891
G1 F300 X-38.83041 Y17.27133
G1 F300 X-38.84798 Y17.22891
G1 F300 X-38.84798 Y15.72891
G1 F300 X-38.83788 Y15.69559
G1 F300 X-38.81095 Y15.67349
G1 F300 X-38.69797 Y15.66892
G1 F300 X-38.69797 Y15.22462
G1 F300 X-42.22080 Y15.22462
G1 F300 X-43.09748 Y16.10128
G1 F300 X-43.09748 Y22.40980
G1 F300 X-43.10739 Y22.51323
G1 F300 X-43.13812 Y22.61856
G1 F300 X-43.19537 Y22.72565
G1 F300 X-44.30291 Y23.84719
G1 F300 X-44.38305 Y23.91333
G1 F300 X-44.47927 Y23.96606
G1 F300 X-44.59547 Y24.00131
G1 F300 X-46.32440 Y24.01122
G1 F300 X-46.43786 Y24.11597
G1 F300 X-46.58145 Y24.19931
G1 F300 X-46.75668 Y24.25623
G1 F300 X-46.92140 Y24.27322
G1 F300 X-48.44540 Y24.27322
G1 F300 X-48.62236 Y24.25364
G1 F300 X-48.78533 Y24.19931
G1 F300 X-48.92328 Y24.11965
G1 F300 X-49.05624 Y24.00124
G1 F300 X-49.16011 Y23.85661
G1 F300 X-49.22716 Y23.70523
G1 F300 X-49.26320 Y23.53085
G1 F300 X-49.26191 Y23.35910
G1 F300 X-49.22716 Y23.19720
G1 F300 X-49.15383 Y23.03494
G1 F300 X-49.05624 Y22.90119
G1 F300 X-48.92328 Y22.78277
G1 F300 X-48.77387 Y22.69804
G1 F300 X-48.61009 Y22.64620
G1 F300 X-48.44540 Y22.62921
G1 F300 X-46.92140 Y22.62921
G1 F300 X-46.75668 Y22.64620
G1 F300 X-46.59290 Y22.69804
G1 F300 X-46.43786 Y22.78646
G1 F300 X-46.32440 Y22.89121
G1 F300 X-44.93085 Y22.89121
G1 F300 X-44.21749 Y22.17785
G1 F300 X-44.20759 Y15.76590
G1 F300 X-44.17233 Y15.64969
G1 F300 X-44.11960 Y15.55345
G1 F300 X-44.05346 Y15.47334
G1 F300 X-42.84874 Y14.26864
G1 F300 X-42.76860 Y14.20250
G1 F300 X-42.67239 Y14.14977
G1 F300 X-42.56774 Y14.11680
G1 F300 X-42.45278 Y14.10461
G1 F300 X-38.20229 Y14.10461
G1 F300 X-38.09886 Y14.11452
G1 F300 X-37.99353 Y14.14525
G1 F300 X-37.88644 Y14.20250
G1 F300 X-37.73803 Y14.33732
G1 F300 X-37.66932 Y14.42287
G1 F300 X-37.59015 Y14.61396
G1 F300 X-37.57796 Y14.72894
G1 F300 X-37.57796 Y15.66892
G1 F300 X-37.47628 Y15.67006
G1 F300 X-37.43254 Y15.70595
G1 F300 X-37.42800 Y16.15462
G1 F300 X-35.64169 Y16.15462
G1 F300 X-35.63158 Y16.08129
G1 F300 X-35.58170 Y16.05462
G1 F300 X-32.58168 Y16.05462
G1 F300 X-32.53926 Y16.07220
G1 F300 X-32.52168 Y16.11461
;G04 P0 ; dwell for no time -- G64 should not smooth over this point 
G1 F3000 Z3.00000 ; retract 

G1 F3000 X-30.56388 Y14.70875 ; rapid move to begin. 
G1 F300 F300.00000
G1 F300 Z-0.07000
;G04 P0 ; dwell for no time -- G64 should not smooth over this point 
G1 F300 F600.00000
G1 F300 X-30.56388 Y14.70875
G1 F300 X-30.57348 Y14.81804
