; pcb2gcode 2.0.0 
; Software-independent Gcode 

; This file uses only one drill bit. Forced by 'onedrill' option 

G94       ;Millimeters per minute feed rate.
G21       ;Units == Millimeters.
G90       ;Absolute coordinates.
;G1 F3000 S10000     ;RPM spindle speed.

G1 F3000 Z3.00000 ;Retract
;T1
;M5      ;Spindle stop.
;G04 P1.00000
;MSG, Change tool bit to drill size 0.8 mm
;M6      ;Tool change.
;M0      ;Temporary machine stop.
;M3      ;Spindle on clockwise.
G1 F3000 Z3.00000
;G04 P1.00000

;F1000.00000
G1 F3000 X-48.34000 Y39.25000
G1 F300 Z-2.50000
G1 F300 Z3.00000
G1 F3000 X-44.36900 Y32.92500
G1 F300 Z-2.50000
G1 F300 Z3.00000
G1 F3000 X-44.36900 Y30.38500
G1 F300 Z-2.50000
G1 F300 Z3.00000
G1 F3000 X-44.39400 Y27.64200
G1 F300 Z-2.50000
G1 F300 Z3.00000
G1 F3000 X-47.27700 Y27.52800
G1 F300 Z-2.50000
G1 F300 Z3.00000
G1 F3000 X-47.68300 Y23.45100
G1 F300 Z-2.50000
G1 F300 Z3.00000
G1 F3000 X-47.68300 Y20.91100
G1 F300 Z-2.50000
G1 F300 Z3.00000
G1 F3000 X-47.69600 Y15.75500
G1 F300 Z-2.50000
G1 F300 Z3.00000
G1 F3000 X-47.69600 Y13.21500
G1 F300 Z-2.50000
G1 F300 Z3.00000
G1 F3000 X-47.69600 Y10.67500
G1 F300 Z-2.50000
G1 F300 Z3.00000
G1 F3000 X-47.69600 Y8.13500
G1 F300 Z-2.50000
G1 F300 Z3.00000
G1 F3000 X-47.69600 Y5.59500
G1 F300 Z-2.50000
G1 F300 Z3.00000
G1 F3000 X-47.69600 Y3.05500
G1 F300 Z-2.50000
G1 F300 Z3.00000
G1 F3000 X-38.00600 Y2.92800
G1 F300 Z-2.50000
G1 F300 Z3.00000
G1 F3000 X-42.88300 Y12.65600
G1 F300 Z-2.50000
G1 F300 Z3.00000
G1 F3000 X-39.06800 Y12.71500
G1 F300 Z-2.50000
G1 F300 Z3.00000
G1 F3000 X-38.64100 Y24.30200
G1 F300 Z-2.50000
G1 F300 Z3.00000
G1 F3000 X-25.64000 Y39.25000
G1 F300 Z-2.50000
G1 F300 Z3.00000
G1 F3000 X-20.62000 Y41.73900
G1 F300 Z-2.50000
G1 F300 Z3.00000
G1 F3000 X-29.86500 Y46.14600
G1 F300 Z-2.50000
G1 F300 Z3.00000
G1 F3000 X-29.49700 Y57.15700
G1 F300 Z-2.50000
G1 F300 Z3.00000
G1 F3000 X-31.65600 Y64.26900
G1 F300 Z-2.50000
G1 F300 Z3.00000
G1 F3000 X-34.06900 Y68.20600
G1 F300 Z-2.50000
G1 F300 Z3.00000
G1 F3000 X-39.14900 Y68.20600
G1 F300 Z-2.50000
G1 F300 Z3.00000
G1 F3000 X-20.62000 Y49.35900
G1 F300 Z-2.50000
G1 F300 Z3.00000
G1 F3000 X-14.38400 Y53.15700
G1 F300 Z-2.50000
G1 F300 Z3.00000
G1 F3000 X-20.62000 Y56.97900
G1 F300 Z-2.50000
G1 F300 Z3.00000
G1 F3000 X-20.62000 Y59.51900
G1 F300 Z-2.50000
G1 F300 Z3.00000
G1 F3000 X-22.86800 Y66.60600
G1 F300 Z-2.50000
G1 F300 Z3.00000
G1 F3000 X-22.86800 Y71.68600
G1 F300 Z-2.50000
G1 F300 Z3.00000
G1 F3000 X-13.57100 Y71.39400
G1 F300 Z-2.50000
G1 F300 Z3.00000
G1 F3000 X-13.57100 Y66.31400
G1 F300 Z-2.50000
G1 F300 Z3.00000
G1 F3000 X-6.41500 Y61.14500
G1 F300 Z-2.50000
G1 F300 Z3.00000
G1 F3000 X-3.87500 Y61.14500
G1 F300 Z-2.50000
G1 F300 Z3.00000
G1 F3000 X-4.22400 Y53.15700
G1 F300 Z-2.50000
G1 F300 Z3.00000
G1 F3000 X-8.40200 Y50.42600
G1 F300 Z-2.50000
G1 F300 Z3.00000
G1 F3000 X-13.08900 Y48.06400
G1 F300 Z-2.50000
G1 F300 Z3.00000
G1 F3000 X-13.05000 Y44.91400
G1 F300 Z-2.50000
G1 F300 Z3.00000
G1 F3000 X-8.40200 Y45.34600
G1 F300 Z-2.50000
G1 F300 Z3.00000
G1 F3000 X-5.49400 Y38.25900
G1 F300 Z-2.50000
G1 F300 Z3.00000
G1 F3000 X-1.91300 Y38.10700
G1 F300 Z-2.50000
G1 F300 Z3.00000
G1 F3000 X-4.97300 Y33.04000
G1 F300 Z-2.50000
G1 F300 Z3.00000
G1 F3000 X-11.23200 Y32.52900
G1 F300 Z-2.50000
G1 F300 Z3.00000
G1 F3000 X-14.57400 Y37.47200
G1 F300 Z-2.50000
G1 F300 Z3.00000
G1 F3000 X-20.25100 Y31.40100
G1 F300 Z-2.50000
G1 F300 Z3.00000
G1 F3000 X-17.78100 Y26.06100
G1 F300 Z-2.50000
G1 F300 Z3.00000
G1 F3000 X-10.85300 Y27.13400
G1 F300 Z-2.50000
G1 F300 Z3.00000
G1 F3000 X-6.41500 Y27.14500
G1 F300 Z-2.50000
G1 F300 Z3.00000
G1 F3000 X-3.87500 Y27.14500
G1 F300 Z-2.50000
G1 F300 Z3.00000
G1 F3000 X-8.44000 Y24.08600
G1 F300 Z-2.50000
G1 F300 Z3.00000
G1 F3000 X-6.58600 Y21.00000
G1 F300 Z-2.50000
G1 F300 Z3.00000
G1 F3000 X-6.58600 Y18.46000
G1 F300 Z-2.50000
G1 F300 Z3.00000
G1 F3000 X-6.58600 Y15.92000
G1 F300 Z-2.50000
G1 F300 Z3.00000
G1 F3000 X-6.58600 Y13.38000
G1 F300 Z-2.50000
G1 F300 Z3.00000
G1 F3000 X-6.58600 Y10.84000
G1 F300 Z-2.50000
G1 F300 Z3.00000
G1 F3000 X-13.93900 Y3.23300
G1 F300 Z-2.50000
G1 F300 Z3.00000
G1 F3000 X-11.40000 Y3.23300
G1 F300 Z-2.50000
G1 F300 Z3.00000
G1 F3000 X-9.17700 Y6.10300
G1 F300 Z-2.50000
G1 F300 Z3.00000
G1 F3000 X-6.12900 Y5.97600
G1 F300 Z-2.50000
G1 F300 Z3.00000
G1 F3000 X-2.95400 Y3.05500
G1 F300 Z-2.50000
G1 F300 Z3.00000

G1 F3000 Z3.000 ; All done -- retract 

;M5      ;Spindle off.
;G04 P1.000000
;M9      ;Coolant off.
M0      ;Program end.

