; generated by Slic3r 1.0.0RC2 on 2014-01-07 at 23:04:54

; layer_height = 0.24
; perimeters = 2
; top_solid_layers = 4
; bottom_solid_layers = 3
; fill_density = 0.4
; perimeter_speed = 30
; infill_speed = 40
; travel_speed = 60
; nozzle_diameter = 0.3
; filament_diameter = 1.75
; extrusion_multiplier = 1
; perimeters extrusion width = 0.30mm
; infill extrusion width = 0.32mm
; solid infill extrusion width = 0.32mm
; top infill extrusion width = 0.32mm
; first layer extrusion width = 0.48mm

G21 ; set units to millimeters
M107
M104 S205 ; set temperature
G28 ; home all axes
G1 Z5 F200 ; lift nozzle
M109 S205 ; wait for temperature to be reached
G90 ; use absolute coordinates
M83 ; use relative distances for extrusion
G1 F1800.000 E-1.00000
G1 Z0.240 F3600.000
G1 X23.530 Y57.550 F3600.000
G1 E1.00000 F1800.000
G1 X24.740 Y57.180 E0.05572 F540.000
G1 X26.000 Y57.060 E0.05574
G1 X174.000 Y57.060 E6.51796
G1 X175.260 Y57.180 E0.05574
G1 X176.470 Y57.550 E0.05572
G1 X177.580 Y58.140 E0.05536
G1 X178.550 Y58.950 E0.05565
G1 X179.360 Y59.920 E0.05565
G1 X179.950 Y61.030 E0.05536
G1 X180.320 Y62.240 E0.05572
G1 X180.440 Y63.500 E0.05574
G1 X180.440 Y136.500 E3.21494
G1 X180.320 Y137.760 E0.05574
G1 X179.950 Y138.970 E0.05572
G1 X179.360 Y140.080 E0.05536
G1 X178.550 Y141.050 E0.05565
G1 X177.580 Y141.860 E0.05565
G1 X176.470 Y142.450 E0.05536
G1 X175.260 Y142.820 E0.05572
G1 X174.000 Y142.940 E0.05574
G1 X26.000 Y142.940 E6.51796
G1 X24.740 Y142.820 E0.05574
G1 X23.530 Y142.450 E0.05572
G1 X22.420 Y141.860 E0.05536
G1 X21.450 Y141.050 E0.05565
G1 X20.640 Y140.080 E0.05565
G1 X20.050 Y138.970 E0.05536
G1 X19.680 Y137.760 E0.05572
G1 X19.560 Y136.500 E0.05574
G1 X19.560 Y63.500 E3.21494
G1 X19.680 Y62.240 E0.05574
G1 X20.050 Y61.030 E0.05572
G1 X20.640 Y59.920 E0.05536
G1 X21.450 Y58.950 E0.05565
G1 X22.420 Y58.140 E0.05565
G1 X23.472 Y57.581 E0.05245
G1 F1800.000 E-1.00000
G1 X33.772 Y71.309 F3600.000
G1 E1.00000 F1800.000
G1 X34.354 Y71.012 E0.02880 F540.000
G1 X35.000 Y70.910 E0.02880
G1 X35.646 Y71.012 E0.02879
G1 X36.228 Y71.309 E0.02880
G1 X36.691 Y71.772 E0.02879
G1 X36.988 Y72.354 E0.02880
G1 X37.090 Y73.000 E0.02880
G1 X36.988 Y73.646 E0.02879
G1 X36.691 Y74.228 E0.02880
G1 X36.228 Y74.691 E0.02879
G1 X35.646 Y74.988 E0.02880
G1 X35.000 Y75.090 E0.02880
G1 X34.354 Y74.988 E0.02880
G1 X33.772 Y74.691 E0.02880
G1 X33.309 Y74.228 E0.02879
G1 X33.012 Y73.646 E0.02880
G1 X32.910 Y73.000 E0.02879
G1 X33.012 Y72.354 E0.02880
G1 X33.309 Y71.772 E0.02880
G1 X33.725 Y71.356 E0.02588
G1 X34.034 Y71.671 F3600.000
G1 X34.492 Y71.437 E0.02264 F540.000
G1 X35.000 Y71.357 E0.02264
G1 X35.508 Y71.437 E0.02264
G1 X35.966 Y71.671 E0.02264
G1 X36.329 Y72.034 E0.02264
G1 X36.563 Y72.492 E0.02264
G1 X36.643 Y73.000 E0.02264
G1 X36.563 Y73.508 E0.02264
G1 X36.329 Y73.966 E0.02264
G1 X35.966 Y74.329 E0.02264
G1 X35.508 Y74.563 E0.02264
G1 X35.000 Y74.643 E0.02264
G1 X34.492 Y74.563 E0.02264
G1 X34.034 Y74.329 E0.02264
G1 X33.671 Y73.966 E0.02264
G1 X33.437 Y73.508 E0.02264
G1 X33.357 Y73.000 E0.02264
G1 X33.437 Y72.492 E0.02264
G1 X33.671 Y72.034 E0.02264
G1 X33.987 Y71.718 E0.01972
G1 X34.011 Y71.230 F3600.000
G1 X85.910 Y73.000 F3600.000
G1 X86.012 Y72.354 E0.02880 F540.000
G1 X86.309 Y71.772 E0.02880
G1 X86.772 Y71.309 E0.02879
G1 X87.354 Y71.012 E0.02880
G1 X88.000 Y70.910 E0.02880
G1 X88.646 Y71.012 E0.02879
G1 X89.228 Y71.309 E0.02880
G1 X89.691 Y71.772 E0.02879
G1 X89.988 Y72.354 E0.02880
G1 X90.090 Y73.000 E0.02880
G1 X89.988 Y73.646 E0.02879
G1 X89.691 Y74.228 E0.02880
G1 X89.228 Y74.691 E0.02879
G1 X88.646 Y74.988 E0.02880
G1 X88.000 Y75.090 E0.02880
G1 X87.354 Y74.988 E0.02880
G1 X86.772 Y74.691 E0.02880
G1 X86.309 Y74.228 E0.02879
G1 X86.012 Y73.646 E0.02880
G1 X85.920 Y73.065 E0.02588
G1 X86.357 Y73.000 F3600.000
G1 X86.437 Y72.492 E0.02264 F540.000
G1 X86.671 Y72.034 E0.02264
G1 X87.034 Y71.671 E0.02264
G1 X87.492 Y71.437 E0.02264
G1 X88.000 Y71.357 E0.02264
G1 X88.508 Y71.437 E0.02264
G1 X88.966 Y71.671 E0.02264
G1 X89.329 Y72.034 E0.02264
G1 X89.563 Y72.492 E0.02264
G1 X89.643 Y73.000 E0.02264
G1 X89.563 Y73.508 E0.02264
G1 X89.329 Y73.966 E0.02264
G1 X88.966 Y74.329 E0.02264
G1 X88.508 Y74.563 E0.02264
G1 X88.000 Y74.643 E0.02264
G1 X87.492 Y74.563 E0.02264
G1 X87.034 Y74.329 E0.02264
G1 X86.671 Y73.966 E0.02264
G1 X86.437 Y73.508 E0.02264
G1 X86.367 Y73.065 E0.01972
G1 X85.987 Y72.760 F3600.000
G1 X79.684 Y84.526 F3600.000
G1 X80.224 Y85.066 E0.03362 F540.000
G1 X80.570 Y85.746 E0.03361
G1 X80.690 Y86.500 E0.03362
G1 X80.570 Y87.254 E0.03362
G1 X80.224 Y87.934 E0.03361
G1 X79.684 Y88.474 E0.03362
G1 X79.004 Y88.820 E0.03361
G1 X78.304 Y88.931 E0.03123
G1 X71.967 Y88.931 E0.27905
G1 X71.967 Y89.054 E0.00538
G1 X70.496 Y88.820 E0.06561
G1 X69.816 Y88.474 E0.03362
G1 X69.276 Y87.934 E0.03362
G1 X68.930 Y87.254 E0.03362
G1 X68.810 Y86.500 E0.03362
G1 X68.930 Y85.746 E0.03362
G1 X69.276 Y85.066 E0.03362
G1 X69.816 Y84.526 E0.03362
G1 X70.496 Y84.180 E0.03362
G1 X71.967 Y83.946 E0.06561
G1 X71.967 Y84.069 E0.00538
G1 X78.304 Y84.069 E0.27905
G1 X79.004 Y84.180 E0.03123
G1 X79.625 Y84.496 E0.03070
G1 X79.421 Y84.888 F3600.000
G1 X79.862 Y85.329 E0.02746 F540.000
G1 X80.145 Y85.884 E0.02746
G1 X80.243 Y86.500 E0.02746
G1 X80.145 Y87.116 E0.02746
G1 X79.862 Y87.671 E0.02746
G1 X79.421 Y88.112 E0.02746
G1 X78.866 Y88.395 E0.02746
G1 X78.269 Y88.490 E0.02662
G1 X71.526 Y88.490 E0.29696
G1 X71.526 Y88.537 E0.00206
G1 X70.634 Y88.395 E0.03977
G1 X70.079 Y88.112 E0.02746
G1 X69.638 Y87.671 E0.02746
G1 X69.355 Y87.116 E0.02746
G1 X69.257 Y86.500 E0.02746
G1 X69.355 Y85.884 E0.02746
G1 X69.638 Y85.329 E0.02746
G1 X70.079 Y84.888 E0.02746
G1 X70.634 Y84.605 E0.02746
G1 X71.526 Y84.463 E0.03977
G1 X71.526 Y84.510 E0.00206
G1 X78.269 Y84.510 E0.29696
G1 X78.866 Y84.605 E0.02662
G1 X79.362 Y84.858 E0.02454
G1 X79.833 Y84.729 F3600.000
G1 F1800.000 E-1.00000
G1 X50.224 Y108.566 F3600.000
G1 E1.00000 F1800.000
G1 X50.570 Y109.246 E0.03362 F540.000
G1 X50.804 Y110.717 E0.06561
G1 X50.681 Y110.717 E0.00538
G1 X50.681 Y117.054 E0.27905
G1 X50.570 Y117.754 E0.03123
G1 X50.224 Y118.434 E0.03362
G1 X49.684 Y118.974 E0.03362
G1 X49.004 Y119.320 E0.03361
G1 X48.250 Y119.440 E0.03362
G1 X47.496 Y119.320 E0.03362
G1 X46.816 Y118.974 E0.03361
G1 X46.276 Y118.434 E0.03362
G1 X45.930 Y117.754 E0.03361
G1 X45.819 Y117.054 E0.03123
G1 X45.819 Y109.946 E0.31301
G1 X45.930 Y109.246 E0.03123
G1 X46.276 Y108.566 E0.03362
G1 X46.816 Y108.026 E0.03362
G1 X47.496 Y107.680 E0.03362
G1 X48.250 Y107.560 E0.03362
G1 X49.004 Y107.680 E0.03362
G1 X49.684 Y108.026 E0.03362
G1 X50.177 Y108.519 E0.03071
G1 X49.862 Y108.829 F3600.000
G1 X50.145 Y109.384 E0.02746 F540.000
G1 X50.287 Y110.276 E0.03977
G1 X50.240 Y110.276 E0.00206
G1 X50.240 Y117.019 E0.29696
G1 X50.145 Y117.616 E0.02662
G1 X49.862 Y118.171 E0.02746
G1 X49.421 Y118.612 E0.02746
G1 X48.866 Y118.895 E0.02746
G1 X48.250 Y118.993 E0.02746
G1 X47.634 Y118.895 E0.02746
G1 X47.079 Y118.612 E0.02746
G1 X46.638 Y118.171 E0.02746
G1 X46.355 Y117.616 E0.02746
G1 X46.260 Y117.019 E0.02662
G1 X46.260 Y109.981 E0.30995
G1 X46.355 Y109.384 E0.02662
G1 X46.638 Y108.829 E0.02746
G1 X47.079 Y108.388 E0.02746
G1 X47.634 Y108.105 E0.02746
G1 X48.250 Y108.007 E0.02746
G1 X48.866 Y108.105 E0.02746
G1 X49.421 Y108.388 E0.02746
G1 X49.816 Y108.782 E0.02455
G1 X50.303 Y108.805 F3600.000
G1 F1800.000 E-1.00000
G1 X36.228 Y125.309 F3600.000
G1 E1.00000 F1800.000
G1 X36.691 Y125.772 E0.02879 F540.000
G1 X36.988 Y126.354 E0.02880
G1 X37.090 Y127.000 E0.02880
G1 X36.988 Y127.646 E0.02879
G1 X36.691 Y128.228 E0.02880
G1 X36.228 Y128.691 E0.02879
G1 X35.646 Y128.988 E0.02880
G1 X35.000 Y129.090 E0.02880
G1 X34.354 Y128.988 E0.02880
G1 X33.772 Y128.691 E0.02880
G1 X33.309 Y128.228 E0.02879
G1 X33.012 Y127.646 E0.02880
G1 X32.910 Y127.000 E0.02879
G1 X33.012 Y126.354 E0.02880
G1 X33.309 Y125.772 E0.02880
G1 X33.772 Y125.309 E0.02879
G1 X34.354 Y125.012 E0.02880
G1 X35.000 Y124.910 E0.02880
G1 X35.646 Y125.012 E0.02880
G1 X36.169 Y125.279 E0.02588
G1 X35.966 Y125.671 F3600.000
G1 X36.329 Y126.034 E0.02264 F540.000
G1 X36.563 Y126.492 E0.02264
G1 X36.643 Y127.000 E0.02264
G1 X36.563 Y127.508 E0.02264
G1 X36.329 Y127.966 E0.02264
G1 X35.966 Y128.329 E0.02264
G1 X35.508 Y128.563 E0.02264
G1 X35.000 Y128.643 E0.02264
G1 X34.492 Y128.563 E0.02264
G1 X34.034 Y128.329 E0.02264
G1 X33.671 Y127.966 E0.02264
G1 X33.437 Y127.508 E0.02264
G1 X33.357 Y127.000 E0.02264
G1 X33.437 Y126.492 E0.02264
G1 X33.671 Y126.034 E0.02264
G1 X34.034 Y125.671 E0.02264
G1 X34.492 Y125.437 E0.02264
G1 X35.000 Y125.357 E0.02264
G1 X35.508 Y125.437 E0.02264
G1 X35.907 Y125.641 E0.01972
G1 X36.378 Y125.513 F3600.000
G1 X85.910 Y127.000 F3600.000
G1 X86.012 Y126.354 E0.02880 F540.000
G1 X86.309 Y125.772 E0.02880
G1 X86.772 Y125.309 E0.02879
G1 X87.354 Y125.012 E0.02880
G1 X88.000 Y124.910 E0.02880
G1 X88.646 Y125.012 E0.02880
G1 X89.228 Y125.309 E0.02880
G1 X89.691 Y125.772 E0.02879
G1 X89.988 Y126.354 E0.02880
G1 X90.090 Y127.000 E0.02880
G1 X89.988 Y127.646 E0.02879
G1 X89.691 Y128.228 E0.02880
G1 X89.228 Y128.691 E0.02879
G1 X88.646 Y128.988 E0.02880
G1 X88.000 Y129.090 E0.02880
G1 X87.354 Y128.988 E0.02880
G1 X86.772 Y128.691 E0.02880
G1 X86.309 Y128.228 E0.02879
G1 X86.012 Y127.646 E0.02880
G1 X85.920 Y127.065 E0.02588
G1 X86.357 Y127.000 F3600.000
G1 X86.437 Y126.492 E0.02264 F540.000
G1 X86.671 Y126.034 E0.02264
G1 X87.034 Y125.671 E0.02264
G1 X87.492 Y125.437 E0.02264
G1 X88.000 Y125.357 E0.02264
G1 X88.508 Y125.437 E0.02264
G1 X88.966 Y125.671 E0.02264
G1 X89.329 Y126.034 E0.02264
G1 X89.563 Y126.492 E0.02264
G1 X89.643 Y127.000 E0.02264
G1 X89.563 Y127.508 E0.02264
G1 X89.329 Y127.966 E0.02264
G1 X88.966 Y128.329 E0.02264
G1 X88.508 Y128.563 E0.02264
G1 X88.000 Y128.643 E0.02264
G1 X87.492 Y128.563 E0.02264
G1 X87.034 Y128.329 E0.02264
G1 X86.671 Y127.966 E0.02264
G1 X86.437 Y127.508 E0.02264
G1 X86.367 Y127.065 E0.01972
G1 X85.987 Y126.760 F3600.000
G1 F1800.000 E-1.00000
G1 X96.319 Y135.819 F3600.000
G1 E1.00000 F1800.000
G1 X26.681 Y135.819 E3.06684 F540.000
G1 X26.681 Y64.181 E3.15492
G1 X96.319 Y64.181 E3.06684
G1 X96.319 Y135.752 E3.15201
G1 X96.760 Y136.260 F3600.000
G1 X26.240 Y136.260 E3.10572 F378.000
G1 X26.240 Y63.740 E3.19380
G1 X96.760 Y63.740 E3.10572
G1 X96.760 Y136.194 E3.19088
G1 X96.378 Y136.039 F3600.000
G1 X87.723 Y129.348 F3600.000
G1 X93.896 Y135.521 E0.38496 F720.000
G1 X94.521 Y135.521 E0.02756
G1 X88.338 Y129.338 E0.38556
G1 X88.845 Y129.220 E0.02296
G1 X95.146 Y135.521 E0.39290
G1 X95.771 Y135.521 E0.02756
G1 X89.259 Y129.009 E0.40606
G1 X89.608 Y128.733 E0.01961
G1 X96.021 Y135.146 E0.39992
G1 X96.021 Y134.521 E0.02756
G1 X89.920 Y128.420 E0.38043
G1 X90.136 Y128.011 E0.02040
G1 X96.021 Y133.896 E0.36698
G1 X96.021 Y133.271 E0.02756
G1 X90.304 Y127.554 E0.35651
G1 X90.389 Y127.014 E0.02409
G1 X96.021 Y132.646 E0.35119
G1 X96.021 Y132.021 E0.02756
G1 X90.277 Y126.277 E0.35819
G1 X88.723 Y124.723 F3600.000
G1 X37.338 Y73.338 E3.20440 F720.000
G1 X37.220 Y73.845 E0.02296
G1 X87.986 Y124.611 E3.16576
G1 X87.446 Y124.696 E0.02409
G1 X37.009 Y74.259 E3.14527
G1 X36.733 Y74.608 E0.01962
G1 X86.989 Y124.864 E3.13401
G1 X86.580 Y125.080 E0.02040
G1 X36.420 Y74.920 E3.12798
G1 X36.011 Y75.136 E0.02040
G1 X86.267 Y125.392 E3.13401
G1 X85.991 Y125.741 E0.01961
G1 X35.554 Y75.304 E3.14527
G1 X35.014 Y75.389 E0.02409
G1 X85.780 Y126.155 E3.16576
G1 X85.662 Y126.662 E0.02296
G1 X34.277 Y75.277 E3.20439
G1 X32.723 Y73.723 F3600.000
G1 X26.979 Y67.979 E0.35818 F720.000
G1 X26.979 Y68.604 E0.02756
G1 X85.652 Y127.277 E3.65889
G1 X85.971 Y128.221 F3600.000
G1 X26.979 Y69.229 E3.67876 F720.000
G1 X26.979 Y67.354 F3600.000
G1 X32.611 Y72.986 E0.35119 F720.000
G1 X32.696 Y72.446 E0.02409
G1 X26.979 Y66.729 E0.35651
G1 X26.979 Y66.104 E0.02756
G1 X32.864 Y71.989 E0.36699
G1 X33.080 Y71.580 E0.02040
G1 X26.979 Y65.479 E0.38044
G1 X26.979 Y64.854 E0.02756
G1 X33.392 Y71.267 E0.39992
G1 X33.741 Y70.991 E0.01962
G1 X27.229 Y64.479 E0.40606
G1 X27.854 Y64.479 E0.02756
G1 X34.155 Y70.780 E0.39290
G1 X34.662 Y70.662 E0.02296
G1 X28.479 Y64.479 E0.38556
G1 X29.104 Y64.479 E0.02756
G1 X35.277 Y70.652 E0.38497
G1 X36.221 Y70.971 F3600.000
G1 X29.729 Y64.479 E0.40485 F720.000
G1 X30.354 Y64.479 E0.02756
G1 X96.021 Y130.146 E4.09500
G1 X96.021 Y129.521 E0.02756
G1 X30.979 Y64.479 E4.05602
G1 X31.604 Y64.479 E0.02756
G1 X96.021 Y128.896 E4.01705
G1 X96.021 Y128.271 E0.02756
G1 X32.229 Y64.479 E3.97807
G1 X32.854 Y64.479 E0.02756
G1 X96.021 Y127.646 E3.93910
G1 X96.021 Y127.021 E0.02756
G1 X33.479 Y64.479 E3.90013
G1 X34.104 Y64.479 E0.02756
G1 X96.021 Y126.396 E3.86115
G1 X96.021 Y125.771 E0.02756
G1 X34.729 Y64.479 E3.82218
G1 X35.354 Y64.479 E0.02756
G1 X96.021 Y125.146 E3.78321
G1 X96.021 Y124.521 E0.02756
G1 X35.979 Y64.479 E3.74423
G1 X36.604 Y64.479 E0.02756
G1 X96.021 Y123.896 E3.70526
G1 X96.021 Y123.271 E0.02756
G1 X37.229 Y64.479 E3.66628
G1 X37.854 Y64.479 E0.02756
G1 X96.021 Y122.646 E3.62731
G1 X96.021 Y122.021 E0.02756
G1 X38.479 Y64.479 E3.58834
G1 X39.104 Y64.479 E0.02756
G1 X96.021 Y121.396 E3.54936
G1 X96.021 Y120.771 E0.02756
G1 X39.729 Y64.479 E3.51039
G1 X40.354 Y64.479 E0.02756
G1 X96.021 Y120.146 E3.47141
G1 X96.021 Y119.521 E0.02756
G1 X40.979 Y64.479 E3.43244
G1 X41.604 Y64.479 E0.02756
G1 X96.021 Y118.896 E3.39347
G1 X96.021 Y118.271 E0.02756
G1 X42.229 Y64.479 E3.35449
G1 X42.854 Y64.479 E0.02756
G1 X96.021 Y117.646 E3.31552
G1 X96.021 Y117.021 E0.02756
G1 X43.479 Y64.479 E3.27655
G1 X44.104 Y64.479 E0.02756
G1 X96.021 Y116.396 E3.23757
G1 X96.021 Y115.771 E0.02756
G1 X44.729 Y64.479 E3.19860
G1 X45.354 Y64.479 E0.02756
G1 X96.021 Y115.146 E3.15962
G1 X96.021 Y114.521 E0.02756
G1 X70.645 Y89.146 E1.58245
G1 X71.388 Y89.263 E0.03316
G1 X96.021 Y113.896 E1.53613
G1 X96.021 Y113.271 E0.02756
G1 X72.130 Y89.381 E1.48982
G1 X72.604 Y89.229 E0.02191
G1 X96.021 Y112.646 E1.46031
G1 X96.021 Y112.021 E0.02756
G1 X73.229 Y89.229 E1.42133
G1 X73.853 Y89.229 E0.02756
G1 X96.021 Y111.396 E1.38236
G1 X96.021 Y110.772 E0.02756
G1 X74.478 Y89.229 E1.34339
G1 X75.103 Y89.229 E0.02756
G1 X96.021 Y110.147 E1.30441
G1 X96.021 Y109.522 E0.02756
G1 X75.728 Y89.229 E1.26544
G1 X76.353 Y89.229 E0.02756
G1 X96.021 Y108.897 E1.22646
G1 X96.021 Y108.272 E0.02756
G1 X76.978 Y89.229 E1.18749
G1 X77.603 Y89.229 E0.02756
G1 X96.021 Y107.647 E1.14852
G1 X96.021 Y107.022 E0.02756
G1 X78.228 Y89.229 E1.10954
G1 X78.781 Y89.157 E0.02459
G1 X96.021 Y106.397 E1.07506
G1 X96.021 Y105.772 E0.02756
G1 X79.269 Y89.020 E1.04466
G1 X79.683 Y88.809 E0.02049
G1 X96.021 Y105.147 E1.01884
G1 X96.021 Y104.522 E0.02756
G1 X80.039 Y88.540 E0.99662
G1 X80.352 Y88.228 E0.01949
G1 X96.021 Y103.897 E0.97713
G1 X96.021 Y103.272 E0.02756
G1 X80.600 Y87.851 E0.96162
G1 X80.811 Y87.437 E0.02049
G1 X96.021 Y102.647 E0.94847
G1 X96.021 Y102.022 E0.02756
G1 X80.924 Y86.925 E0.94143
G1 X80.967 Y86.343 E0.02576
G1 X96.021 Y101.397 E0.93879
G1 X96.021 Y100.772 E0.02756
G1 X80.811 Y85.562 E0.94848
G1 X79.188 Y83.939 F3600.000
G1 X59.728 Y64.479 E1.21352 F720.000
G1 X60.353 Y64.479 E0.02756
G1 X96.021 Y100.147 E2.22425
G1 X96.021 Y99.522 E0.02756
G1 X60.978 Y64.479 E2.18528
G1 X61.603 Y64.479 E0.02756
G1 X96.021 Y98.897 E2.14630
G1 X96.021 Y98.272 E0.02756
G1 X62.228 Y64.479 E2.10733
G1 X62.853 Y64.479 E0.02756
G1 X96.021 Y97.647 E2.06836
G1 X96.021 Y97.022 E0.02756
G1 X63.478 Y64.479 E2.02938
G1 X64.103 Y64.479 E0.02756
G1 X96.021 Y96.397 E1.99041
G1 X96.021 Y95.772 E0.02756
G1 X64.728 Y64.479 E1.95143
G1 X65.353 Y64.479 E0.02756
G1 X96.021 Y95.147 E1.91246
G1 X96.021 Y94.522 E0.02756
G1 X65.978 Y64.479 E1.87349
G1 X66.603 Y64.479 E0.02756
G1 X96.021 Y93.897 E1.83451
G1 X96.021 Y93.272 E0.02756
G1 X67.228 Y64.479 E1.79554
G1 X67.853 Y64.479 E0.02756
G1 X96.021 Y92.647 E1.75657
G1 X96.021 Y92.022 E0.02756
G1 X68.478 Y64.479 E1.71759
G1 X69.103 Y64.479 E0.02756
G1 X96.021 Y91.397 E1.67862
G1 X96.021 Y90.772 E0.02756
G1 X69.728 Y64.479 E1.63964
G1 X70.353 Y64.479 E0.02756
G1 X96.021 Y90.147 E1.60067
G1 X96.021 Y89.522 E0.02756
G1 X70.978 Y64.479 E1.56170
G1 X71.603 Y64.479 E0.02756
