; generated by Slic3r 1.0.0RC2 on 2014-07-21 at 21:42:32

; layer_height = 0.24
; perimeters = 2
; top_solid_layers = 4
; bottom_solid_layers = 3
; fill_density = 0.4
; perimeter_speed = 30
; infill_speed = 40
; travel_speed = 60
; nozzle_diameter = 0.3
; filament_diameter = 1.75
; extrusion_multiplier = 1
; perimeters extrusion width = 0.30mm
; infill extrusion width = 0.32mm
; solid infill extrusion width = 0.32mm
; top infill extrusion width = 0.32mm
; first layer extrusion width = 0.48mm

G21 ; set units to millimeters
M107
M104 S205 ; set temperature
G28 ; home all axes
G1 Z5 F200 ; lift nozzle
M109 S205 ; wait for temperature to be reached
G90 ; use absolute coordinates
M83 ; use relative distances for extrusion
G1 F1800.000 E-1.00000
G1 Z0.240 F3600.000
G1 X59.950 Y58.950 F3600.000
G1 E1.00000 F1800.000
G1 X60.920 Y58.140 E0.05565 F540.000
G1 X62.030 Y57.550 E0.05536
G1 X63.240 Y57.180 E0.05572
G1 X64.500 Y57.060 E0.05574
G1 X135.500 Y57.060 E3.12686
G1 X136.760 Y57.180 E0.05574
G1 X137.970 Y57.550 E0.05572
G1 X139.080 Y58.140 E0.05536
G1 X140.050 Y58.950 E0.05565
G1 X140.860 Y59.920 E0.05565
G1 X141.450 Y61.030 E0.05536
G1 X141.820 Y62.240 E0.05572
G1 X141.940 Y63.500 E0.05574
G1 X141.940 Y136.500 E3.21494
G1 X141.820 Y137.760 E0.05574
G1 X141.450 Y138.970 E0.05572
G1 X140.860 Y140.080 E0.05536
G1 X140.050 Y141.050 E0.05565
G1 X139.080 Y141.860 E0.05565
G1 X137.970 Y142.450 E0.05536
G1 X136.760 Y142.820 E0.05572
G1 X135.500 Y142.940 E0.05574
G1 X64.500 Y142.940 E3.12686
G1 X63.240 Y142.820 E0.05574
G1 X62.030 Y142.450 E0.05572
G1 X60.920 Y141.860 E0.05536
G1 X59.950 Y141.050 E0.05565
G1 X59.140 Y140.080 E0.05565
G1 X58.550 Y138.970 E0.05536
G1 X58.180 Y137.760 E0.05572
G1 X58.060 Y136.500 E0.05574
G1 X58.060 Y63.500 E3.21494
G1 X58.180 Y62.240 E0.05574
G1 X58.550 Y61.030 E0.05572
G1 X59.140 Y59.920 E0.05536
G1 X59.908 Y59.001 E0.05274
G1 F1800.000 E-1.00000
G1 X89.893 Y69.478 F3600.000
G1 E1.00000 F1800.000
G1 X90.133 Y69.007 E0.02329 F540.000
G1 X90.507 Y68.633 E0.02328
G1 X90.978 Y68.393 E0.02329
G1 X91.500 Y68.310 E0.02328
G1 X92.022 Y68.393 E0.02328
G1 X92.493 Y68.633 E0.02329
G1 X92.867 Y69.007 E0.02328
G1 X93.107 Y69.478 E0.02329
G1 X93.190 Y70.000 E0.02328
G1 X93.107 Y70.522 E0.02328
G1 X92.867 Y70.993 E0.02329
G1 X92.493 Y71.367 E0.02328
G1 X92.022 Y71.607 E0.02329
G1 X91.500 Y71.690 E0.02328
G1 X90.978 Y71.607 E0.02328
G1 X90.507 Y71.367 E0.02329
G1 X90.133 Y70.993 E0.02328
G1 X89.893 Y70.522 E0.02329
G1 X89.810 Y70.000 E0.02328
G1 X89.882 Y69.543 E0.02037
G1 X90.318 Y69.616 F3600.000
G1 X90.494 Y69.269 E0.01713 F540.000
G1 X90.769 Y68.994 E0.01713
G1 X91.116 Y68.818 E0.01713
G1 X91.500 Y68.757 E0.01713
G1 X91.884 Y68.818 E0.01713
G1 X92.231 Y68.994 E0.01713
G1 X92.506 Y69.269 E0.01713
G1 X92.682 Y69.616 E0.01713
G1 X92.743 Y70.000 E0.01713
G1 X92.682 Y70.384 E0.01713
G1 X92.506 Y70.731 E0.01713
G1 X92.231 Y71.006 E0.01713
G1 X91.884 Y71.182 E0.01713
G1 X91.500 Y71.243 E0.01713
G1 X91.116 Y71.182 E0.01713
G1 X90.769 Y71.006 E0.01713
G1 X90.494 Y70.731 E0.01712
G1 X90.318 Y70.384 E0.01713
G1 X90.257 Y70.000 E0.01713
G1 X90.307 Y69.681 E0.01421
G1 X90.073 Y69.314 F3600.000
G1 F1800.000 E-1.00000
G1 X93.810 Y70.000 F3600.000
G1 E1.00000 F1800.000
G1 X93.893 Y69.478 E0.02328 F540.000
G1 X94.133 Y69.007 E0.02329
G1 X94.507 Y68.633 E0.02328
G1 X94.978 Y68.393 E0.02329
G1 X95.500 Y68.310 E0.02328
G1 X96.022 Y68.393 E0.02328
G1 X96.493 Y68.633 E0.02329
G1 X96.867 Y69.007 E0.02328
G1 X97.107 Y69.478 E0.02329
G1 X97.190 Y70.000 E0.02328
G1 X97.107 Y70.522 E0.02328
G1 X96.867 Y70.993 E0.02329
G1 X96.493 Y71.367 E0.02328
G1 X96.022 Y71.607 E0.02329
G1 X95.500 Y71.690 E0.02328
G1 X94.978 Y71.607 E0.02328
G1 X94.507 Y71.367 E0.02329
G1 X94.133 Y70.993 E0.02328
G1 X93.893 Y70.522 E0.02329
G1 X93.820 Y70.065 E0.02037
G1 X94.257 Y70.000 F3600.000
G1 X94.318 Y69.616 E0.01713 F540.000
G1 X94.494 Y69.269 E0.01713
G1 X94.769 Y68.994 E0.01713
G1 X95.116 Y68.818 E0.01713
G1 X95.500 Y68.757 E0.01713
G1 X95.884 Y68.818 E0.01713
G1 X96.231 Y68.994 E0.01713
G1 X96.506 Y69.269 E0.01713
G1 X96.682 Y69.616 E0.01713
G1 X96.743 Y70.000 E0.01713
G1 X96.682 Y70.384 E0.01713
G1 X96.506 Y70.731 E0.01713
G1 X96.231 Y71.006 E0.01713
G1 X95.884 Y71.182 E0.01713
G1 X95.500 Y71.243 E0.01713
G1 X95.116 Y71.182 E0.01713
G1 X94.769 Y71.006 E0.01713
G1 X94.494 Y70.731 E0.01713
G1 X94.318 Y70.384 E0.01713
G1 X94.267 Y70.065 E0.01421
G1 X93.931 Y69.788 F3600.000
G1 F1800.000 E-1.00000
G1 X78.037 Y72.857 F3600.000
G1 E1.00000 F1800.000
G1 X78.060 Y73.000 E0.00641 F540.000
G1 X77.837 Y74.409 E0.06282
G1 X77.189 Y75.680 E0.06283
G1 X76.180 Y76.689 E0.06284
G1 X75.036 Y77.272 E0.05656
G1 X74.909 Y77.337 E0.00628
G1 X73.500 Y77.560 E0.06283
G1 X72.091 Y77.337 E0.06282
G1 X70.925 Y76.743 E0.05765
G1 X70.819 Y76.689 E0.00521
G1 X69.811 Y75.680 E0.06282
G1 X69.163 Y74.407 E0.06295
G1 X68.940 Y73.000 E0.06273
G1 X69.163 Y71.591 E0.06282
G1 X69.811 Y70.320 E0.06283
G1 X70.820 Y69.311 E0.06284
G1 X72.091 Y68.663 E0.06284
G1 X73.500 Y68.440 E0.06285
G1 X74.909 Y68.663 E0.06280
G1 X76.181 Y69.311 E0.06286
G1 X77.189 Y70.320 E0.06282
G1 X77.837 Y71.593 E0.06294
G1 X78.027 Y72.791 E0.05341
G1 X77.602 Y72.926 F3600.000
G1 X77.613 Y73.000 E0.00332 F540.000
G1 X77.412 Y74.271 E0.05667
G1 X76.828 Y75.418 E0.05668
G1 X75.918 Y76.328 E0.05668
G1 X74.837 Y76.878 E0.05340
G1 X74.771 Y76.912 E0.00327
G1 X73.500 Y77.113 E0.05667
G1 X72.229 Y76.912 E0.05667
G1 X71.125 Y76.350 E0.05455
G1 X71.082 Y76.328 E0.00214
G1 X70.172 Y75.418 E0.05667
G1 X69.588 Y74.270 E0.05672
G1 X69.387 Y73.000 E0.05664
G1 X69.588 Y71.729 E0.05667
G1 X70.172 Y70.582 E0.05668
G1 X71.082 Y69.672 E0.05668
G1 X72.229 Y69.088 E0.05668
G1 X73.500 Y68.887 E0.05668
G1 X74.771 Y69.088 E0.05666
G1 X75.918 Y69.672 E0.05669
G1 X76.828 Y70.582 E0.05667
G1 X77.412 Y71.730 E0.05672
G1 X77.591 Y72.860 E0.05040
G1 X77.672 Y72.953 F3600.000
G1 X121.940 Y73.000 F3600.000
G1 X122.163 Y71.591 E0.06282 F540.000
G1 X122.811 Y70.320 E0.06283
G1 X123.820 Y69.311 E0.06283
G1 X125.091 Y68.663 E0.06283
G1 X126.500 Y68.440 E0.06285
G1 X127.909 Y68.663 E0.06280
G1 X129.075 Y69.257 E0.05765
G1 X129.181 Y69.311 E0.00521
G1 X130.189 Y70.320 E0.06282
G1 X130.837 Y71.593 E0.06294
G1 X131.060 Y73.000 E0.06273
G1 X130.837 Y74.409 E0.06282
G1 X130.255 Y75.551 E0.05645
G1 X130.189 Y75.680 E0.00638
G1 X129.180 Y76.689 E0.06283
G1 X127.909 Y77.337 E0.06284
G1 X126.500 Y77.560 E0.06283
G1 X125.091 Y77.337 E0.06284
G1 X123.819 Y76.689 E0.06284
G1 X122.811 Y75.680 E0.06283
G1 X122.163 Y74.407 E0.06295
G1 X121.950 Y73.065 E0.05982
G1 X122.387 Y73.000 F3600.000
G1 X122.588 Y71.729 E0.05667 F540.000
G1 X123.138 Y70.649 E0.05337
G1 X123.172 Y70.582 E0.00331
G1 X124.082 Y69.672 E0.05668
G1 X125.229 Y69.088 E0.05668
G1 X126.500 Y68.887 E0.05668
G1 X127.771 Y69.088 E0.05666
G1 X128.875 Y69.650 E0.05455
G1 X128.918 Y69.672 E0.00214
G1 X129.828 Y70.582 E0.05667
G1 X130.412 Y71.730 E0.05672
G1 X130.613 Y73.000 E0.05664
G1 X130.412 Y74.271 E0.05667
G1 X129.862 Y75.351 E0.05337
G1 X129.828 Y75.418 E0.00331
G1 X128.918 Y76.328 E0.05668
G1 X127.771 Y76.912 E0.05668
G1 X126.500 Y77.113 E0.05667
G1 X125.229 Y76.912 E0.05667
G1 X124.082 Y76.328 E0.05668
G1 X123.172 Y75.418 E0.05667
G1 X122.588 Y74.270 E0.05672
G1 X122.397 Y73.065 E0.05372
G1 X122.017 Y72.759 F3600.000
G1 X83.905 Y123.067 F3600.000
G1 X84.433 Y123.595 E0.03293 F540.000
G1 X84.773 Y124.261 E0.03293
G1 X84.890 Y125.000 E0.03293
G1 X84.773 Y125.738 E0.03293
G1 X84.433 Y126.405 E0.03293
G1 X83.905 Y126.933 E0.03293
G1 X83.239 Y127.273 E0.03293
G1 X82.500 Y127.390 E0.03293
G1 X81.761 Y127.273 E0.03293
G1 X81.095 Y126.933 E0.03293
G1 X80.567 Y126.405 E0.03293
G1 X80.227 Y125.739 E0.03293
G1 X80.110 Y125.000 E0.03293
G1 X80.227 Y124.261 E0.03293
G1 X80.567 Y123.595 E0.03293
G1 X81.095 Y123.067 E0.03293
G1 X81.761 Y122.727 E0.03293
G1 X82.500 Y122.610 E0.03293
G1 X83.239 Y122.727 E0.03293
G1 X83.846 Y123.037 E0.03001
G1 X83.642 Y123.428 F3600.000
G1 X84.072 Y123.858 E0.02677 F540.000
G1 X84.348 Y124.400 E0.02677
G1 X84.443 Y125.000 E0.02677
G1 X84.348 Y125.600 E0.02677
G1 X84.072 Y126.142 E0.02677
G1 X83.642 Y126.572 E0.02677
G1 X83.100 Y126.848 E0.02677
G1 X82.500 Y126.943 E0.02677
G1 X81.900 Y126.848 E0.02677
G1 X81.358 Y126.572 E0.02677
G1 X80.928 Y126.142 E0.02677
G1 X80.652 Y125.600 E0.02677
G1 X80.557 Y125.000 E0.02677
G1 X80.652 Y124.400 E0.02677
G1 X80.928 Y123.858 E0.02677
G1 X81.358 Y123.428 E0.02677
G1 X81.900 Y123.152 E0.02677
G1 X82.500 Y123.057 E0.02677
G1 X83.100 Y123.152 E0.02677
G1 X83.583 Y123.398 E0.02386
G1 X84.054 Y123.270 F3600.000
G1 X86.727 Y124.261 F3600.000
G1 X87.067 Y123.595 E0.03293 F540.000
G1 X87.595 Y123.067 E0.03293
G1 X88.261 Y122.727 E0.03293
G1 X89.000 Y122.610 E0.03293
G1 X89.739 Y122.727 E0.03293
G1 X90.405 Y123.067 E0.03293
G1 X90.933 Y123.595 E0.03293
G1 X91.273 Y124.262 E0.03293
G1 X91.390 Y125.000 E0.03293
G1 X91.273 Y125.738 E0.03293
G1 X90.933 Y126.405 E0.03293
G1 X90.405 Y126.933 E0.03293
G1 X89.739 Y127.273 E0.03293
G1 X89.000 Y127.390 E0.03293
G1 X88.261 Y127.273 E0.03293
G1 X87.595 Y126.933 E0.03293
G1 X87.067 Y126.405 E0.03293
G1 X86.727 Y125.738 E0.03293
G1 X86.610 Y125.000 E0.03293
G1 X86.717 Y124.327 E0.03001
G1 X87.152 Y124.400 F3600.000
G1 X87.428 Y123.858 E0.02677 F540.000
G1 X87.858 Y123.428 E0.02677
G1 X88.400 Y123.152 E0.02677
G1 X89.000 Y123.057 E0.02677
G1 X89.600 Y123.152 E0.02677
G1 X90.142 Y123.428 E0.02677
G1 X90.572 Y123.858 E0.02677
G1 X90.848 Y124.400 E0.02677
G1 X90.943 Y125.000 E0.02677
G1 X90.848 Y125.600 E0.02677
G1 X90.572 Y126.142 E0.02677
G1 X90.142 Y126.572 E0.02677
G1 X89.600 Y126.848 E0.02677
G1 X89.000 Y126.943 E0.02677
G1 X88.400 Y126.848 E0.02677
G1 X87.858 Y126.572 E0.02677
G1 X87.428 Y126.142 E0.02677
G1 X87.152 Y125.600 E0.02677
G1 X87.057 Y125.000 E0.02677
G1 X87.142 Y124.465 E0.02386
G1 X86.874 Y124.057 F3600.000
G1 F1800.000 E-1.00000
G1 X92.910 Y125.000 F3600.000
G1 E1.00000 F1800.000
G1 X93.027 Y124.262 E0.03293 F540.000
G1 X93.367 Y123.595 E0.03293
G1 X93.895 Y123.067 E0.03293
G1 X94.561 Y122.727 E0.03293
G1 X95.300 Y122.610 E0.03293
G1 X96.039 Y122.727 E0.03293
G1 X96.705 Y123.067 E0.03293
G1 X97.233 Y123.595 E0.03293
G1 X97.573 Y124.262 E0.03293
G1 X97.690 Y125.000 E0.03293
G1 X97.573 Y125.738 E0.03293
G1 X97.233 Y126.405 E0.03293
G1 X96.705 Y126.933 E0.03293
G1 X96.039 Y127.273 E0.03293
G1 X95.300 Y127.390 E0.03293
G1 X94.561 Y127.273 E0.03293
G1 X93.895 Y126.933 E0.03293
G1 X93.367 Y126.405 E0.03293
G1 X93.027 Y125.738 E0.03293
G1 X92.920 Y125.065 E0.03001
G1 X93.357 Y125.000 F3600.000
G1 X93.452 Y124.400 E0.02677 F540.000
G1 X93.728 Y123.858 E0.02677
G1 X94.158 Y123.428 E0.02677
G1 X94.700 Y123.152 E0.02677
G1 X95.300 Y123.057 E0.02677
G1 X95.900 Y123.152 E0.02677
G1 X96.442 Y123.428 E0.02677
G1 X96.872 Y123.858 E0.02677
G1 X97.148 Y124.400 E0.02677
G1 X97.243 Y125.000 E0.02677
G1 X97.148 Y125.600 E0.02677
G1 X96.872 Y126.142 E0.02677
G1 X96.442 Y126.572 E0.02677
G1 X95.900 Y126.848 E0.02677
G1 X95.300 Y126.943 E0.02677
G1 X94.700 Y126.848 E0.02677
G1 X94.158 Y126.572 E0.02677
G1 X93.728 Y126.142 E0.02677
G1 X93.452 Y125.600 E0.02677
G1 X93.367 Y125.065 E0.02386
G1 X92.987 Y124.760 F3600.000
G1 F1800.000 E-1.00000
G1 X121.940 Y127.000 F3600.000
G1 E1.00000 F1800.000
G1 X122.163 Y125.591 E0.06281 F540.000
G1 X122.745 Y124.449 E0.05646
G1 X122.811 Y124.320 E0.00638
G1 X123.820 Y123.311 E0.06284
G1 X125.091 Y122.663 E0.06283
G1 X126.500 Y122.440 E0.06285
G1 X127.909 Y122.663 E0.06280
G1 X129.075 Y123.257 E0.05766
G1 X129.181 Y123.311 E0.00521
G1 X130.189 Y124.320 E0.06281
G1 X130.837 Y125.593 E0.06294
G1 X131.060 Y127.000 E0.06273
G1 X130.837 Y128.409 E0.06282
G1 X130.255 Y129.551 E0.05646
G1 X130.189 Y129.680 E0.00637
G1 X129.180 Y130.689 E0.06283
G1 X127.909 Y131.337 E0.06284
G1 X126.500 Y131.560 E0.06283
G1 X125.091 Y131.337 E0.06283
G1 X123.819 Y130.689 E0.06286
G1 X122.811 Y129.680 E0.06281
G1 X122.163 Y128.407 E0.06295
G1 X121.950 Y127.065 E0.05982
G1 X122.387 Y127.000 F3600.000
G1 X122.588 Y125.729 E0.05667 F540.000
G1 X123.172 Y124.582 E0.05668
G1 X124.036 Y123.718 E0.05382
G1 X124.082 Y123.672 E0.00286
G1 X125.229 Y123.088 E0.05668
G1 X126.500 Y122.887 E0.05668
G1 X127.771 Y123.088 E0.05666
G1 X128.875 Y123.650 E0.05455
G1 X128.918 Y123.672 E0.00214
G1 X129.828 Y124.582 E0.05667
G1 X130.412 Y125.730 E0.05672
G1 X130.613 Y127.000 E0.05664
G1 X130.412 Y128.271 E0.05667
G1 X129.862 Y129.351 E0.05337
G1 X129.828 Y129.418 E0.00331
G1 X128.918 Y130.328 E0.05668
G1 X127.771 Y130.912 E0.05668
G1 X126.500 Y131.113 E0.05667
G1 X125.229 Y130.912 E0.05667
G1 X124.082 Y130.328 E0.05669
G1 X123.172 Y129.418 E0.05667
G1 X122.588 Y128.270 E0.05672
G1 X122.397 Y127.065 E0.05372
G1 X122.017 Y126.759 F3600.000
G1 X78.060 Y127.000 F3600.000
G1 X77.837 Y128.409 E0.06282 F540.000
G1 X77.189 Y129.680 E0.06283
G1 X76.180 Y130.689 E0.06284
G1 X74.909 Y131.337 E0.06283
G1 X73.500 Y131.560 E0.06283
G1 X72.091 Y131.337 E0.06283
G1 X70.925 Y130.743 E0.05765
G1 X70.819 Y130.689 E0.00521
G1 X69.811 Y129.680 E0.06282
G1 X69.163 Y128.407 E0.06295
G1 X68.940 Y127.000 E0.06273
G1 X69.163 Y125.591 E0.06281
G1 X69.811 Y124.320 E0.06283
G1 X70.820 Y123.311 E0.06284
G1 X72.091 Y122.663 E0.06283
G1 X73.500 Y122.440 E0.06285
G1 X74.909 Y122.663 E0.06280
G1 X76.181 Y123.311 E0.06287
G1 X77.189 Y124.320 E0.06281
G1 X77.837 Y125.593 E0.06294
G1 X78.050 Y126.935 E0.05982
G1 X77.613 Y127.000 F3600.000
G1 X77.412 Y128.271 E0.05667 F540.000
G1 X76.862 Y129.351 E0.05337
G1 X76.828 Y129.418 E0.00331
G1 X75.918 Y130.328 E0.05668
G1 X74.771 Y130.912 E0.05668
G1 X73.500 Y131.113 E0.05667
G1 X72.229 Y130.912 E0.05667
G1 X71.125 Y130.350 E0.05455
G1 X71.082 Y130.328 E0.00214
G1 X70.172 Y129.418 E0.05667
G1 X69.588 Y128.270 E0.05672
G1 X69.387 Y127.000 E0.05664
G1 X69.588 Y125.729 E0.05667
G1 X70.172 Y124.582 E0.05668
G1 X71.036 Y123.718 E0.05382
G1 X71.082 Y123.672 E0.00286
G1 X72.229 Y123.088 E0.05668
G1 X73.500 Y122.887 E0.05668
G1 X74.771 Y123.088 E0.05666
G1 X75.918 Y123.672 E0.05669
G1 X76.828 Y124.582 E0.05667
G1 X77.412 Y125.730 E0.05672
G1 X77.603 Y126.935 E0.05372
G1 X77.983 Y127.241 F3600.000
G1 F1800.000 E-1.00000
G1 X65.181 Y135.819 F3600.000
G1 E1.00000 F1800.000
G1 X65.181 Y64.181 E3.15492 F540.000
G1 X134.819 Y64.181 E3.06684
G1 X134.819 Y135.819 E3.15492
G1 X65.248 Y135.819 E3.06393
G1 X64.740 Y136.260 F3600.000
G1 X64.740 Y63.740 E3.19380 F378.000
G1 X135.260 Y63.740 E3.10572
G1 X135.260 Y136.260 E3.19380
G1 X64.806 Y136.260 E3.10280
G1 X64.961 Y135.878 F3600.000
G1 X65.523 Y135.521 F3600.000
G1 X65.479 Y135.477 E0.00276 F720.000
G1 X65.479 Y134.852 E0.02756
G1 X66.148 Y135.521 E0.04173
G1 X66.773 Y135.521 E0.02756
G1 X65.479 Y134.227 E0.08070
G1 X65.479 Y133.602 E0.02756
G1 X67.398 Y135.521 E0.11968
G1 X68.023 Y135.521 E0.02756
G1 X65.479 Y132.977 E0.15865
G1 X65.479 Y132.352 E0.02756
G1 X68.648 Y135.521 E0.19763
G1 X69.273 Y135.521 E0.02756
G1 X65.479 Y131.727 E0.23660
G1 X65.479 Y131.102 E0.02756
G1 X69.898 Y135.521 E0.27557
G1 X70.523 Y135.521 E0.02756
G1 X65.479 Y130.477 E0.31455
G1 X65.479 Y129.852 E0.02756
G1 X71.148 Y135.521 E0.35352
G1 X71.773 Y135.521 E0.02756
G1 X65.479 Y129.227 E0.39249
G1 X65.479 Y128.602 E0.02756
G1 X72.398 Y135.521 E0.43147
G1 X73.023 Y135.521 E0.02756
G1 X65.479 Y127.977 E0.47044
G1 X65.479 Y127.352 E0.02756
G1 X73.648 Y135.521 E0.50942
G1 X74.273 Y135.521 E0.02756
G1 X65.479 Y126.727 E0.54839
G1 X65.479 Y126.102 E0.02756
G1 X74.898 Y135.521 E0.58736
G1 X75.523 Y135.521 E0.02756
G1 X71.240 Y131.238 E0.26708
G1 X72.299 Y131.672 F3600.000
G1 X76.148 Y135.521 E0.24004 F720.000
G1 X76.773 Y135.521 E0.02756
G1 X73.041 Y131.789 E0.23271
G1 X73.706 Y131.829 E0.02937
G1 X77.398 Y135.521 E0.23021
G1 X78.023 Y135.521 E0.02756
G1 X74.246 Y131.744 E0.23554
G1 X74.785 Y131.658 E0.02409
G1 X78.648 Y135.521 E0.24087
G1 X79.273 Y135.521 E0.02756
G1 X75.250 Y131.498 E0.25088
G1 X75.664 Y131.287 E0.02049
G1 X79.898 Y135.521 E0.26404
G1 X80.523 Y135.521 E0.02756
G1 X76.078 Y131.076 E0.27719
G1 X76.459 Y130.832 E0.01995
G1 X81.148 Y135.521 E0.29240
G1 X81.773 Y135.521 E0.02756
