;(.../Electronics/Eagle/pcb-gcode/pcb-gcode.ulp)
;(Copyright 2005 - 2012 by John Johnson)
;(See readme.txt for licensing terms.)
;(This file generated from the board:)
;(.../WiControl/ESP-8266/Electronics/3v3.brd)
;(Current profile is .../pcb-gcode/profiles/generic.pp  )
;(This file generated 15/01/2019 15:38)
;(Settings from pcb-machine.h)
;(spindle on time = 1000.0000)
;(  Tool Size)
;(0.1778 )
;(spindle speed = 30000.0000)
;(tool change at 0.0000 0.0000 5.0000 )
;(feed rate xy = F500.00 )
;(feed rate z  = F200.00 )
;(Z Axis Settings)
;(  High     Up        Down     Drill)
;(5.0000 	2.0000 	-0.2000 	-2.0000 )
;(Settings from pcb-defaults.h)
;(isolate min = 0.0250)
;(isolate max = 0.5000)
;(isolate step = 0.0800)
;(Generated bottom outlines, bottom drill, )
;(Unit of measure: mm)
;(Metric Mode)
G21
;(Absolute Coordinates)
G90
;S30000
G00 Z5.0000  F3000
G00 X0.0000 Y0.0000  F3000
;M03 S1
G04 P1000.000000
G00 Z2.0000  F3000
G00 X-1.0900 Y1.8243  F3000
G01 Z-0.2000 F200.00 
G01 X-0.9785 Y1.9779 F500.00 
G01 X-0.8923 Y2.1470 
G01 X-0.8336 Y2.3276 
G01 X-0.8039 Y2.5151 
G01 X-0.8039 Y2.7049 
G01 X-0.8336 Y2.8924 
G01 X-0.8923 Y3.0730 
G01 X-0.9785 Y3.2421 
G01 X-1.0900 Y3.3957 
G01 X-1.9143 Y4.2200 
G01 X-2.0679 Y4.3315 
G01 X-2.2370 Y4.4177 
G01 X-2.4176 Y4.4764 
G01 X-2.6051 Y4.5061 
G01 X-2.7949 Y4.5061 
G01 X-2.9824 Y4.4764 
G01 X-3.0454 Y4.4559 
G01 X-3.0986 Y4.4780 
G01 X-3.2187 Y4.5019 
G01 X-4.0296 Y4.5019 
G01 X-4.0296 Y4.5122 
G01 X-4.0469 Y4.5540 
G01 X-4.0790 Y4.5861 
G01 X-4.1208 Y4.6034 
G01 X-6.4012 Y4.6034 
G01 X-6.4430 Y4.5861 
G01 X-6.4751 Y4.5540 
G01 X-6.4924 Y4.5122 
G01 X-6.4924 Y4.5019 
G01 X-6.6224 Y4.5019 
G01 X-6.8781 Y4.7576 
G01 X-6.8781 Y8.0461 
G01 X-6.6973 Y8.0461 
G01 X-6.6555 Y8.0634 
G01 X-6.6234 Y8.0955 
G01 X-6.6061 Y8.1373 
G01 X-6.6061 Y9.7827 
G01 X-6.6234 Y9.8245 
G01 X-6.6555 Y9.8566 
G01 X-6.6973 Y9.8739 
G01 X-8.0427 Y9.8739 
G01 X-8.0845 Y9.8566 
G01 X-8.1166 Y9.8245 
G01 X-8.1339 Y9.7827 
G01 X-8.1339 Y8.1373 
G01 X-8.1219 Y8.1084 
G01 X-8.1219 Y4.4387 
G01 X-8.0980 Y4.3186 
G01 X-8.0511 Y4.2054 
G01 X-7.9831 Y4.1036 
G01 X-7.8964 Y4.0169 
G01 X-7.2764 Y3.3969 
G01 X-7.1746 Y3.3289 
G01 X-7.0614 Y3.2820 
G01 X-6.9413 Y3.2581 
G01 X-6.4924 Y3.2581 
G01 X-6.4924 Y3.2478 
G01 X-6.4751 Y3.2060 
G01 X-6.4430 Y3.1739 
G01 X-6.4012 Y3.1566 
G01 X-4.1208 Y3.1566 
G01 X-4.0790 Y3.1739 
G01 X-4.0469 Y3.2060 
G01 X-4.0296 Y3.2478 
G01 X-4.0296 Y3.2581 
G01 X-3.9061 Y3.2581 
G01 X-3.9061 Y3.2051 
G01 X-3.8764 Y3.0176 
G01 X-3.8177 Y2.8370 
G01 X-3.7315 Y2.6679 
G01 X-3.6200 Y2.5143 
G01 X-2.7957 Y1.6900 
G01 X-2.6421 Y1.5784 
G01 X-2.4730 Y1.4923 
G01 X-2.2924 Y1.4336 
G01 X-2.1049 Y1.4039 
G01 X-1.9151 Y1.4039 
G01 X-1.7276 Y1.4336 
G01 X-1.5470 Y1.4923 
G01 X-1.3779 Y1.5784 
G01 X-1.2243 Y1.6900 
G01 X-1.0900 Y1.8243 
G00 Z2.0000  F3000
G00 X-4.0296 Y2.2012  F3000
G01 Z-0.2000 F200.00 
G01 X-4.0469 Y2.2430 F500.00 
G01 X-4.0790 Y2.2751 
G01 X-4.1208 Y2.2924 
G01 X-6.4012 Y2.2924 
G01 X-6.4430 Y2.2751 
G01 X-6.4751 Y2.2430 
G01 X-6.4924 Y2.2012 
G01 X-6.4924 Y2.1909 
G01 X-7.0114 Y2.1909 
G01 X-8.6781 Y3.8576 
G01 X-8.6781 Y8.0461 
G01 X-8.5973 Y8.0461 
G01 X-8.5555 Y8.0634 
G01 X-8.5234 Y8.0955 
G01 X-8.5061 Y8.1373 
G01 X-8.5061 Y9.7827 
G01 X-8.5234 Y9.8245 
G01 X-8.5555 Y9.8566 
G01 X-8.5973 Y9.8739 
G01 X-9.9427 Y9.8739 
G01 X-9.9845 Y9.8566 
G01 X-10.0166 Y9.8245 
G01 X-10.0339 Y9.7827 
G01 X-10.0339 Y9.5819 
G01 X-11.0461 Y9.5819 
G01 X-11.0461 Y9.7977 
G01 X-11.0634 Y9.8395 
G01 X-11.0955 Y9.8716 
G01 X-11.1373 Y9.8889 
G01 X-12.7827 Y9.8889 
G01 X-12.8245 Y9.8716 
G01 X-12.8566 Y9.8395 
G01 X-12.8739 Y9.7977 
G01 X-12.8739 Y9.7469 
G01 X-13.7011 Y9.7469 
G01 X-13.7011 Y9.8327 
G01 X-13.7184 Y9.8745 
G01 X-13.7505 Y9.9066 
G01 X-13.7923 Y9.9239 
G01 X-15.3377 Y9.9239 
G01 X-15.3795 Y9.9066 
G01 X-15.4116 Y9.8745 
G01 X-15.4289 Y9.8327 
G01 X-15.4289 Y8.4873 
G01 X-15.4116 Y8.4455 
G01 X-15.3795 Y8.4134 
G01 X-15.3377 Y8.3961 
G01 X-13.7923 Y8.3961 
G01 X-13.7505 Y8.4134 
G01 X-13.7184 Y8.4455 
G01 X-13.7011 Y8.4873 
G01 X-13.7011 Y8.5031 
G01 X-12.8739 Y8.5031 
G01 X-12.8739 Y8.4523 
G01 X-12.8566 Y8.4105 
G01 X-12.8245 Y8.3784 
G01 X-12.7827 Y8.3611 
G01 X-11.9719 Y8.3611 
G01 X-11.8562 Y8.3381 
G01 X-10.0339 Y8.3381 
G01 X-10.0339 Y8.1373 
G01 X-10.0166 Y8.0955 
G01 X-9.9845 Y8.0634 
G01 X-9.9427 Y8.0461 
G01 X-9.9219 Y8.0461 
G01 X-9.9219 Y3.5387 
G01 X-9.8980 Y3.4186 
G01 X-9.8511 Y3.3054 
G01 X-9.7831 Y3.2036 
G01 X-9.6964 Y3.1169 
G01 X-7.6654 Y1.0859 
G01 X-7.5636 Y1.0179 
G01 X-7.4504 Y0.9710 
G01 X-7.3303 Y0.9471 
G01 X-6.4924 Y0.9471 
G01 X-6.4924 Y0.9368 
G01 X-6.4751 Y0.8950 
G01 X-6.4430 Y0.8629 
G01 X-6.4012 Y0.8456 
G01 X-4.1208 Y0.8456 
G01 X-4.0790 Y0.8629 
G01 X-4.0469 Y0.8950 
G01 X-4.0296 Y0.9368 
G01 X-4.0296 Y2.2012 
G00 Z2.0000  F3000
G00 X-5.3348 Y5.4421  F3000
G01 Z-0.2000 F200.00 
G01 X-2.6102 Y5.4421 F500.00 
G01 X-2.4656 Y5.4709 
G01 X-2.3293 Y5.5273 
G01 X-2.2066 Y5.6093 
G01 X-2.0899 Y5.7260 
G01 X-2.0449 Y5.7189 
G01 X-1.8551 Y5.7189 
G01 X-1.6676 Y5.7486 
G01 X-1.4870 Y5.8073 
G01 X-1.3179 Y5.8934 
G01 X-1.1643 Y6.0050 
G01 X-1.0300 Y6.1393 
G01 X-0.9184 Y6.2929 
G01 X-0.8323 Y6.4620 
G01 X-0.7736 Y6.6426 
G01 X-0.7439 Y6.8301 
G01 X-0.7439 Y7.7249 
G01 X-0.7736 Y7.9124 
G01 X-0.8323 Y8.0930 
G01 X-0.9184 Y8.2621 
G01 X-1.0300 Y8.4157 
G01 X-1.1643 Y8.5500 
G01 X-1.3179 Y8.6615 
G01 X-1.4870 Y8.7477 
G01 X-1.6676 Y8.8064 
G01 X-1.8551 Y8.8361 
G01 X-2.0449 Y8.8361 
G01 X-2.2324 Y8.8064 
G01 X-2.4130 Y8.7477 
G01 X-2.5821 Y8.6615 
G01 X-2.7357 Y8.5500 
G01 X-2.8700 Y8.4157 
G01 X-2.9815 Y8.2621 
G01 X-3.0677 Y8.0930 
G01 X-3.1264 Y7.9124 
G01 X-3.1561 Y7.7249 
G01 X-3.1561 Y6.9399 
G01 X-5.3348 Y6.9399 
G01 X-5.4630 Y6.9144 
G01 X-6.4012 Y6.9144 
G01 X-6.4430 Y6.8971 
G01 X-6.4751 Y6.8650 
G01 X-6.4924 Y6.8232 
G01 X-6.4924 Y5.5588 
G01 X-6.4751 Y5.5170 
G01 X-6.4430 Y5.4849 
G01 X-6.4012 Y5.4676 
G01 X-5.4630 Y5.4676 
G01 X-5.3348 Y5.4421 
G00 Z2.0000  F3000
G00 X-10.2451 Y5.7027  F3000
G01 Z-0.2000 F200.00 
G01 X-10.2624 Y5.7445 F500.00 
G01 X-10.2945 Y5.7766 
G01 X-10.3363 Y5.7939 
G01 X-12.5817 Y5.7939 
G01 X-12.6235 Y5.7766 
G01 X-12.6556 Y5.7445 
G01 X-12.6729 Y5.7027 
G01 X-12.6729 Y2.0573 
G01 X-12.6556 Y2.0155 
G01 X-12.6235 Y1.9834 
G01 X-12.5817 Y1.9661 
G01 X-10.3363 Y1.9661 
G01 X-10.2945 Y1.9834 
G01 X-10.2624 Y2.0155 
G01 X-10.2451 Y2.0573 
G01 X-10.2451 Y5.7027 
G00 Z2.0000  F3000
G00 X-10.1919 Y5.8709  F3000
G01 Z-0.2000 F200.00 
G01 X-10.1033 Y5.9076 F500.00 
G01 X-10.0356 Y5.9753 
G01 X-9.9989 Y6.0639 
G01 X-9.9989 Y7.9171 
G01 X-10.0356 Y8.0056 
G01 X-10.1199 Y8.0900 
G01 X-10.1476 Y8.1567 
G01 X-10.2153 Y8.2244 
G01 X-10.3039 Y8.2611 
G01 X-10.7887 Y8.2611 
G01 X-10.8205 Y8.2653 
G01 X-10.8362 Y8.2611 
G01 X-10.8524 Y8.2611 
G01 X-10.8821 Y8.2488 
G01 X-10.9131 Y8.2405 
G01 X-10.9260 Y8.2306 
G01 X-10.9409 Y8.2244 
G01 X-10.9636 Y8.2017 
G01 X-10.9891 Y8.1821 
G01 X-10.9972 Y8.1681 
G01 X-11.0087 Y8.1567 
G01 X-11.0210 Y8.1270 
G01 X-11.0371 Y8.0991 
G01 X-11.0392 Y8.0831 
G01 X-11.0454 Y8.0681 
G01 X-11.0454 Y8.0360 
G01 X-11.0496 Y8.0041 
G01 X-11.0454 Y7.9885 
G01 X-11.0454 Y7.9723 
G01 X-11.0331 Y7.9426 
G01 X-11.0199 Y7.8934 
G01 X-11.0199 Y7.5929 
G01 X-11.0461 Y7.5929 
G01 X-11.0461 Y7.8977 
G01 X-11.0634 Y7.9395 
G01 X-11.0955 Y7.9716 
G01 X-11.1373 Y7.9889 
G01 X-12.7827 Y7.9889 
G01 X-12.8245 Y7.9716 
G01 X-12.8566 Y7.9395 
G01 X-12.8739 Y7.8977 
G01 X-12.8739 Y7.8469 
G01 X-12.9001 Y7.8469 
G01 X-12.9001 Y7.8934 
G01 X-12.8905 Y7.9291 
G01 X-12.8721 Y7.9610 
G01 X-12.8305 Y8.0026 
G01 X-12.8175 Y8.0340 
G01 X-12.7938 Y8.0911 
G01 X-12.7938 Y8.1396 
G01 X-12.7938 Y8.1870 
G01 X-12.8112 Y8.2288 
G01 X-12.8305 Y8.2755 
G01 X-12.8534 Y8.2985 
G01 X-12.8983 Y8.3433 
G01 X-12.9444 Y8.3894 
G01 X-13.0329 Y8.4261 
G01 X-13.5771 Y8.4261 
G01 X-13.6656 Y8.3894 
G01 X-13.7445 Y8.3105 
G01 X-13.7812 Y8.2220 
G01 X-13.7812 Y8.1262 
G01 X-13.7445 Y8.0376 
G01 X-13.7029 Y7.9960 
G01 X-13.6844 Y7.9641 
G01 X-13.6749 Y7.9284 
G01 X-13.6749 Y7.8469 
G01 X-13.7011 Y7.8469 
G01 X-13.7011 Y7.9327 
G01 X-13.7184 Y7.9745 
G01 X-13.7505 Y8.0066 
G01 X-13.7923 Y8.0239 
G01 X-15.3377 Y8.0239 
G01 X-15.3795 Y8.0066 
G01 X-15.4116 Y7.9745 
G01 X-15.4289 Y7.9327 
G01 X-15.4289 Y6.5873 
G01 X-15.4116 Y6.5455 
G01 X-15.3795 Y6.5134 
G01 X-15.3377 Y6.4961 
G01 X-15.1519 Y6.4961 
G01 X-15.1519 Y6.4699 
G01 X-15.3249 Y6.4699 
G01 X-15.3391 Y6.4757 
G01 X-15.3553 Y6.4757 
G01 X-15.3709 Y6.4799 
G01 X-15.4028 Y6.4757 
G01 X-15.4349 Y6.4757 
G01 X-15.4499 Y6.4695 
G01 X-15.4659 Y6.4674 
G01 X-15.4938 Y6.4514 
G01 X-15.5235 Y6.4391 
G01 X-15.5349 Y6.4276 
G01 X-15.5489 Y6.4195 
G01 X-15.5685 Y6.3940 
G01 X-15.5912 Y6.3713 
G01 X-15.5974 Y6.3563 
G01 X-15.6073 Y6.3435 
G01 X-15.6156 Y6.3125 
G01 X-15.6279 Y6.2828 
G01 X-15.6279 Y6.2666 
G01 X-15.6321 Y6.2509 
G01 X-15.6279 Y6.2191 
G01 X-15.6279 Y4.7715 
G01 X-15.5975 Y4.6982 
G01 X-15.6300 Y4.6657 
G01 X-15.7415 Y4.5121 
G01 X-15.8277 Y4.3430 
G01 X-15.8864 Y4.1624 
G01 X-15.9161 Y3.9749 
G01 X-15.9161 Y3.7851 
G01 X-15.8864 Y3.5976 
G01 X-15.8277 Y3.4170 
G01 X-15.7415 Y3.2479 
G01 X-15.6300 Y3.0943 
G01 X-15.5975 Y3.0618 
G01 X-15.6269 Y2.9910 
G01 X-15.6279 Y2.9885 
G01 X-15.6279 Y1.0951 
G01 X-15.5912 Y1.0065 
G01 X-15.5235 Y0.9388 
G01 X-15.4349 Y0.9021 
G01 X-8.1242 Y0.9021 
G01 X-8.0356 Y0.9388 
G01 X-7.9678 Y1.0065 
G01 X-7.9668 Y1.0091 
G01 X-7.9312 Y1.0951 
G01 X-7.9312 Y1.1909 
G01 X-7.9678 Y1.2795 
G01 X-7.9945 Y1.3061 
G01 X-8.0356 Y1.3472 
G01 X-9.6317 Y2.9433 
G01 X-9.7230 Y3.0346 
G01 X-9.7907 Y3.1023 
G01 X-9.8436 Y3.1243 
G01 X-9.8793 Y3.1390 
G01 X-9.9751 Y3.1390 
G01 X-10.0277 Y3.1172 
G01 X-10.0637 Y3.1023 
G01 X-10.1314 Y3.0346 
G01 X-10.1533 Y2.9817 
G01 X-10.1681 Y2.9460 
G01 X-10.1681 Y2.0009 
G01 X-10.2799 Y1.8891 
G01 X-12.6381 Y1.8891 
G01 X-12.7499 Y2.0009 
G01 X-12.7499 Y5.7591 
G01 X-12.6381 Y5.8709 
G01 X-10.1919 Y5.8709 
G00 Z2.0000  F3000
G00 X-11.0740 Y6.4629  F3000
G01 Z-0.2000 F200.00 
G01 X-11.1059 Y6.4444 F500.00 
G01 X-11.1416 Y6.4349 
G01 X-11.5921 Y6.4349 
G01 X-11.5921 Y6.4611 
G01 X-11.1373 Y6.4611 
G01 X-11.0955 Y6.4784 
G01 X-11.0634 Y6.5105 
G01 X-11.0461 Y6.5523 
G01 X-11.0461 Y6.8571 
G01 X-11.0199 Y6.8571 
G01 X-11.0199 Y6.5566 
G01 X-11.0294 Y6.5209 
G01 X-11.0479 Y6.4890 
G01 X-11.0740 Y6.4629 
G00 Z2.0000  F3000
G00 X-12.3279 Y6.4611  F3000
G01 Z-0.2000 F200.00 
G01 X-12.3279 Y6.4349 F500.00 
G01 X-12.7784 Y6.4349 
G01 X-12.8141 Y6.4444 
G01 X-12.8460 Y6.4629 
G01 X-12.8721 Y6.4890 
G01 X-12.8905 Y6.5209 
G01 X-12.9001 Y6.5565 
G01 X-12.9001 Y6.6031 
G01 X-12.8739 Y6.6031 
G01 X-12.8739 Y6.5523 
G01 X-12.8566 Y6.5105 
G01 X-12.8245 Y6.4784 
G01 X-12.7827 Y6.4611 
G01 X-12.3279 Y6.4611 
G00 Z2.0000  F3000
G00 X-13.7290 Y6.4979  F3000
G01 Z-0.2000 F200.00 
G01 X-13.7609 Y6.4794 F500.00 
G01 X-13.7966 Y6.4699 
G01 X-13.9081 Y6.4699 
G01 X-13.9081 Y6.4961 
G01 X-13.7923 Y6.4961 
G01 X-13.7505 Y6.5134 
G01 X-13.7184 Y6.5455 
G01 X-13.7011 Y6.5873 
G01 X-13.7011 Y6.6031 
G01 X-13.6749 Y6.6031 
G01 X-13.6749 Y6.5916 
G01 X-13.6844 Y6.5559 
G01 X-13.7029 Y6.5240 
G01 X-13.7290 Y6.4979 
G00 Z2.0000  F3000
G00 X-1.0290 Y1.7722  F3000
G01 Z-0.2000 F200.00 
G01 X-0.9100 Y1.9359 F500.00 
G01 X-0.8181 Y2.1163 
G01 X-0.7556 Y2.3088 
G01 X-0.7239 Y2.5088 
G01 X-0.7239 Y2.7112 
G01 X-0.7556 Y2.9112 
G01 X-0.8181 Y3.1037 
G01 X-0.9100 Y3.2841 
G01 X-1.0290 Y3.4478 
G01 X-1.8622 Y4.2810 
G01 X-2.0259 Y4.4000 
G01 X-2.2063 Y4.4919 
G01 X-2.3988 Y4.5544 
G01 X-2.5988 Y4.5861 
G01 X-2.8012 Y4.5861 
G01 X-3.0012 Y4.5544 
G01 X-3.0420 Y4.5412 
G01 X-3.0753 Y4.5549 
G01 X-3.2109 Y4.5819 
G01 X-3.9719 Y4.5819 
G01 X-3.9791 Y4.5993 
G01 X-4.0337 Y4.6539 
G01 X-4.1049 Y4.6834 
G01 X-6.4171 Y4.6834 
G01 X-6.4883 Y4.6539 
G01 X-6.5429 Y4.5993 
G01 X-6.5501 Y4.5819 
G01 X-6.5893 Y4.5819 
G01 X-6.7981 Y4.7907 
G01 X-6.7981 Y7.9661 
G01 X-6.6814 Y7.9661 
G01 X-6.6102 Y7.9956 
G01 X-6.5556 Y8.0502 
G01 X-6.5261 Y8.1214 
G01 X-6.5261 Y9.7986 
G01 X-6.5556 Y9.8698 
G01 X-6.6102 Y9.9244 
G01 X-6.6814 Y9.9539 
G01 X-8.0586 Y9.9539 
G01 X-8.1298 Y9.9244 
G01 X-8.1844 Y9.8698 
G01 X-8.2139 Y9.7986 
G01 X-8.2139 Y8.1214 
G01 X-8.2019 Y8.0925 
G01 X-8.2019 Y4.4309 
G01 X-8.1749 Y4.2953 
G01 X-8.1220 Y4.1675 
G01 X-8.0452 Y4.0526 
G01 X-7.9474 Y3.9548 
G01 X-7.3274 Y3.3348 
G01 X-7.2125 Y3.2580 
G01 X-7.0847 Y3.2051 
G01 X-6.9491 Y3.1781 
G01 X-6.5501 Y3.1781 
G01 X-6.5429 Y3.1607 
G01 X-6.4883 Y3.1061 
G01 X-6.4171 Y3.0766 
G01 X-4.1049 Y3.0766 
G01 X-4.0337 Y3.1061 
G01 X-3.9799 Y3.1599 
G01 X-3.9544 Y2.9988 
G01 X-3.8919 Y2.8063 
G01 X-3.8000 Y2.6259 
G01 X-3.6810 Y2.4622 
G01 X-2.8478 Y1.6290 
G01 X-2.6841 Y1.5100 
G01 X-2.5037 Y1.4181 
G01 X-2.3112 Y1.3556 
G01 X-2.1112 Y1.3239 
G01 X-1.9088 Y1.3239 
G01 X-1.7088 Y1.3556 
G01 X-1.5163 Y1.4181 
G01 X-1.3359 Y1.5100 
G01 X-1.1722 Y1.6290 
G01 X-1.0290 Y1.7722 
G00 Z2.0000  F3000
G00 X-3.9496 Y2.2171  F3000
G01 Z-0.2000 F200.00 
G01 X-3.9791 Y2.2883 F500.00 
G01 X-4.0337 Y2.3429 
G01 X-4.1049 Y2.3724 
G01 X-6.4171 Y2.3724 
G01 X-6.4883 Y2.3429 
G01 X-6.5429 Y2.2883 
G01 X-6.5501 Y2.2709 
G01 X-6.9783 Y2.2709 
G01 X-8.5981 Y3.8907 
G01 X-8.5981 Y7.9661 
G01 X-8.5814 Y7.9661 
G01 X-8.5102 Y7.9956 
G01 X-8.4556 Y8.0502 
G01 X-8.4261 Y8.1214 
G01 X-8.4261 Y9.7986 
G01 X-8.4556 Y9.8698 
G01 X-8.5102 Y9.9244 
G01 X-8.5814 Y9.9539 
G01 X-9.9586 Y9.9539 
G01 X-10.0298 Y9.9244 
G01 X-10.0844 Y9.8698 
G01 X-10.1139 Y9.7986 
G01 X-10.1139 Y9.6619 
G01 X-10.9661 Y9.6619 
G01 X-10.9661 Y9.8136 
G01 X-10.9956 Y9.8848 
G01 X-11.0502 Y9.9394 
G01 X-11.1214 Y9.9689 
G01 X-12.7986 Y9.9689 
G01 X-12.8698 Y9.9394 
G01 X-12.9244 Y9.8848 
G01 X-12.9484 Y9.8269 
G01 X-13.6211 Y9.8269 
G01 X-13.6211 Y9.8486 
G01 X-13.6506 Y9.9198 
G01 X-13.7052 Y9.9744 
G01 X-13.7764 Y10.0039 
G01 X-15.3536 Y10.0039 
G01 X-15.4248 Y9.9744 
G01 X-15.4794 Y9.9198 
G01 X-15.5089 Y9.8486 
G01 X-15.5089 Y8.4714 
G01 X-15.4794 Y8.4002 
G01 X-15.4248 Y8.3456 
G01 X-15.3536 Y8.3161 
G01 X-13.8288 Y8.3161 
G01 X-13.8393 Y8.2979 
G01 X-13.8612 Y8.2163 
G01 X-13.8612 Y8.1318 
G01 X-13.8537 Y8.1039 
G01 X-15.3536 Y8.1039 
G01 X-15.4248 Y8.0744 
G01 X-15.4794 Y8.0198 
G01 X-15.5089 Y7.9486 
G01 X-15.5089 Y6.5714 
G01 X-15.4951 Y6.5381 
G01 X-15.5108 Y6.5339 
G01 X-15.5258 Y6.5253 
G01 X-15.5840 Y6.4916 
G01 X-15.6438 Y6.4319 
G01 X-15.6735 Y6.3804 
G01 X-15.6860 Y6.3587 
G01 X-15.7066 Y6.2820 
G01 X-15.7079 Y6.2771 
G01 X-15.7079 Y6.2344 
G01 X-15.7079 Y6.1926 
G01 X-15.7079 Y4.7772 
G01 X-15.6917 Y4.7168 
G01 X-15.8100 Y4.5541 
G01 X-15.9019 Y4.3737 
G01 X-15.9644 Y4.1812 
G01 X-15.9961 Y3.9812 
G01 X-15.9961 Y3.7788 
G01 X-15.9644 Y3.5788 
G01 X-15.9019 Y3.3863 
G01 X-15.8100 Y3.2059 
G01 X-15.6917 Y3.0432 
G01 X-15.7079 Y2.9828 
G01 X-15.7079 Y1.1007 
G01 X-15.6860 Y1.0191 
G01 X-15.6438 Y0.9460 
G01 X-15.5840 Y0.8862 
G01 X-15.5109 Y0.8440 
G01 X-15.4292 Y0.8221 
G01 X-8.1298 Y0.8221 
G01 X-8.0482 Y0.8440 
G01 X-7.9750 Y0.8862 
G01 X-7.9153 Y0.9460 
G01 X-7.8730 Y1.0191 
G01 X-7.8512 Y1.1007 
G01 X-7.8512 Y1.1585 
G01 X-7.7164 Y1.0238 
G01 X-7.6015 Y0.9470 
G01 X-7.4737 Y0.8941 
G01 X-7.3381 Y0.8671 
G01 X-6.5501 Y0.8671 
G01 X-6.5429 Y0.8497 
G01 X-6.4883 Y0.7951 
G01 X-6.4171 Y0.7656 
G01 X-4.1049 Y0.7656 
G01 X-4.0337 Y0.7951 
G01 X-3.9791 Y0.8497 
G01 X-3.9496 Y0.9209 
G01 X-3.9496 Y2.2171 
G00 Z2.0000  F3000
G00 X-2.6024 Y5.3621  F3000
G01 Z-0.2000 F200.00 
G01 X-2.4422 Y5.3940 F500.00 
G01 X-2.2914 Y5.4564 
G01 X-2.1556 Y5.5472 
G01 X-2.0621 Y5.6406 
G01 X-2.0512 Y5.6389 
G01 X-1.8488 Y5.6389 
G01 X-1.6488 Y5.6706 
G01 X-1.4563 Y5.7331 
G01 X-1.2759 Y5.8250 
G01 X-1.1122 Y5.9440 
G01 X-0.9690 Y6.0872 
G01 X-0.8500 Y6.2509 
G01 X-0.7581 Y6.4313 
G01 X-0.6956 Y6.6238 
G01 X-0.6639 Y6.8238 
G01 X-0.6639 Y7.7312 
G01 X-0.6956 Y7.9312 
G01 X-0.7581 Y8.1237 
G01 X-0.8500 Y8.3041 
G01 X-0.9690 Y8.4678 
G01 X-1.1122 Y8.6110 
G01 X-1.2759 Y8.7300 
G01 X-1.4563 Y8.8219 
G01 X-1.6488 Y8.8844 
G01 X-1.8488 Y8.9161 
G01 X-2.0512 Y8.9161 
G01 X-2.2512 Y8.8844 
G01 X-2.4437 Y8.8219 
G01 X-2.6241 Y8.7300 
G01 X-2.7878 Y8.6110 
G01 X-2.9310 Y8.4678 
G01 X-3.0500 Y8.3041 
G01 X-3.1419 Y8.1237 
G01 X-3.2044 Y7.9312 
G01 X-3.2361 Y7.7312 
G01 X-3.2361 Y7.0199 
G01 X-5.3426 Y7.0199 
G01 X-5.4708 Y6.9944 
G01 X-6.4171 Y6.9944 
G01 X-6.4883 Y6.9649 
G01 X-6.5429 Y6.9103 
G01 X-6.5724 Y6.8391 
G01 X-6.5724 Y5.5429 
G01 X-6.5429 Y5.4717 
G01 X-6.4883 Y5.4171 
G01 X-6.4171 Y5.3876 
G01 X-5.4708 Y5.3876 
G01 X-5.3426 Y5.3621 
G01 X-2.6024 Y5.3621 
G00 Z2.0000  F3000
G00 X-10.1651 Y5.7186  F3000
G01 Z-0.2000 F200.00 
G01 X-10.1946 Y5.7898 F500.00 
G01 X-10.1159 Y5.8128 
G01 X-10.0428 Y5.8550 
G01 X-10.0019 Y5.8959 
G01 X-10.0019 Y3.5309 
G01 X-9.9749 Y3.3953 
G01 X-9.9220 Y3.2675 
G01 X-9.8896 Y3.2190 
G01 X-9.9694 Y3.2190 
G01 X-10.0141 Y3.2071 
G01 X-10.0511 Y3.1972 
G01 X-10.0723 Y3.1849 
G01 X-10.1242 Y3.1549 
G01 X-10.1651 Y3.1140 
G01 X-10.1651 Y5.7186 
G00 Z2.0000  F3000
G00 X-10.1359 Y8.2581  F3000
G01 Z-0.2000 F200.00 
G01 X-10.1139 Y8.2581 F500.00 
G01 X-10.1139 Y8.2361 
G01 X-10.1359 Y8.2581 
G00 Z2.0000  F3000
G00 X-11.0204 Y8.2581  F3000
G01 Z-0.2000 F200.00 
G01 X-11.0613 Y8.2172 F500.00 
G01 X-11.0842 Y8.1774 
G01 X-11.1035 Y8.1441 
G01 X-11.1080 Y8.1271 
G01 X-11.1236 Y8.0689 
G01 X-12.7213 Y8.0689 
G01 X-12.7138 Y8.0968 
G01 X-12.7138 Y8.1395 
G01 X-12.7138 Y8.1813 
G01 X-12.7215 Y8.2100 
G01 X-12.7357 Y8.2629 
G01 X-12.7462 Y8.2811 
G01 X-11.9798 Y8.2811 
G01 X-11.8641 Y8.2581 
G01 X-11.7259 Y8.2581 
G01 X-11.0204 Y8.2581 
G00 Z2.0000  F3000
G00 X-0.9680 Y1.7200  F3000
G01 Z-0.2000 F200.00 
G01 X-0.8416 Y1.8940 F500.00 
G01 X-0.7440 Y2.0856 
G01 X-0.6775 Y2.2901 
G01 X-0.6439 Y2.5025 
G01 X-0.6439 Y2.7175 
G01 X-0.6775 Y2.9299 
G01 X-0.7440 Y3.1344 
G01 X-0.8416 Y3.3260 
G01 X-0.9680 Y3.5000 
G01 X-1.8100 Y4.3420 
G01 X-1.9840 Y4.4684 
G01 X-2.1756 Y4.5660 
G01 X-2.3801 Y4.6325 
G01 X-2.5925 Y4.6661 
G01 X-2.8075 Y4.6661 
G01 X-3.0199 Y4.6325 
G01 X-3.0387 Y4.6264 
G01 X-3.0519 Y4.6319 
G01 X-3.2030 Y4.6619 
G01 X-3.9285 Y4.6619 
G01 X-3.9753 Y4.7087 
G01 X-4.0378 Y4.7447 
G01 X-4.1074 Y4.7634 
G01 X-6.4146 Y4.7634 
G01 X-6.4842 Y4.7447 
G01 X-6.5467 Y4.7087 
G01 X-6.5748 Y4.6806 
G01 X-6.7181 Y4.8239 
G01 X-6.7181 Y7.8861 
G01 X-6.6839 Y7.8861 
G01 X-6.6143 Y7.9048 
G01 X-6.5518 Y7.9408 
G01 X-6.5008 Y7.9918 
G01 X-6.4648 Y8.0543 
G01 X-6.4461 Y8.1239 
G01 X-6.4461 Y9.7961 
G01 X-6.4648 Y9.8657 
G01 X-6.5008 Y9.9282 
G01 X-6.5518 Y9.9792 
G01 X-6.6143 Y10.0152 
G01 X-6.6839 Y10.0339 
G01 X-8.0561 Y10.0339 
G01 X-8.1257 Y10.0152 
G01 X-8.1882 Y9.9792 
G01 X-8.2392 Y9.9282 
G01 X-8.2752 Y9.8657 
G01 X-8.2939 Y9.7961 
G01 X-8.2939 Y8.1239 
G01 X-8.2819 Y8.0792 
G01 X-8.2819 Y4.4230 
G01 X-8.2518 Y4.2719 
G01 X-8.1929 Y4.1296 
G01 X-8.1073 Y4.0016 
G01 X-7.9984 Y3.8927 
G01 X-7.3784 Y3.2727 
G01 X-7.2504 Y3.1871 
G01 X-7.1081 Y3.1281 
G01 X-6.9570 Y3.0981 
G01 X-6.5934 Y3.0981 
G01 X-6.5467 Y3.0513 
G01 X-6.4842 Y3.0153 
G01 X-6.4146 Y2.9966 
G01 X-4.1074 Y2.9966 
G01 X-4.0380 Y3.0152 
G01 X-4.0325 Y2.9801 
G01 X-3.9660 Y2.7756 
G01 X-3.8684 Y2.5840 
G01 X-3.7420 Y2.4100 
G01 X-2.9000 Y1.5680 
G01 X-2.7260 Y1.4416 
G01 X-2.5344 Y1.3440 
G01 X-2.3299 Y1.2775 
G01 X-2.1175 Y1.2439 
G01 X-1.9025 Y1.2439 
G01 X-1.6901 Y1.2775 
G01 X-1.4856 Y1.3440 
G01 X-1.2940 Y1.4416 
G01 X-1.1200 Y1.5680 
G01 X-0.9680 Y1.7200 
G00 Z2.0000  F3000
G00 X-3.8696 Y2.2146  F3000
G01 Z-0.2000 F200.00 
G01 X-3.8883 Y2.2842 F500.00 
G01 X-3.9243 Y2.3467 
G01 X-3.9753 Y2.3977 
G01 X-4.0378 Y2.4337 
G01 X-4.1074 Y2.4524 
G01 X-6.4146 Y2.4524 
G01 X-6.4842 Y2.4337 
G01 X-6.5467 Y2.3977 
G01 X-6.5934 Y2.3509 
G01 X-6.9451 Y2.3509 
G01 X-8.5181 Y3.9239 
G01 X-8.5181 Y7.9037 
G01 X-8.5143 Y7.9048 
G01 X-8.4518 Y7.9408 
G01 X-8.4008 Y7.9918 
G01 X-8.3648 Y8.0543 
G01 X-8.3461 Y8.1239 
G01 X-8.3461 Y9.7961 
G01 X-8.3648 Y9.8657 
G01 X-8.4008 Y9.9282 
G01 X-8.4518 Y9.9792 
G01 X-8.5143 Y10.0152 
G01 X-8.5839 Y10.0339 
G01 X-9.9561 Y10.0339 
G01 X-10.0257 Y10.0152 
G01 X-10.0882 Y9.9792 
G01 X-10.1392 Y9.9282 
G01 X-10.1752 Y9.8657 
G01 X-10.1939 Y9.7961 
G01 X-10.1939 Y9.7419 
G01 X-10.8861 Y9.7419 
G01 X-10.8861 Y9.8111 
G01 X-10.9048 Y9.8807 
G01 X-10.9408 Y9.9432 
G01 X-10.9918 Y9.9942 
G01 X-11.0543 Y10.0302 
G01 X-11.1239 Y10.0489 
G01 X-12.7961 Y10.0489 
G01 X-12.8657 Y10.0302 
G01 X-12.9282 Y9.9942 
G01 X-12.9792 Y9.9432 
G01 X-13.0001 Y9.9069 
G01 X-13.5574 Y9.9069 
G01 X-13.5598 Y9.9157 
G01 X-13.5958 Y9.9782 
G01 X-13.6468 Y10.0292 
G01 X-13.7093 Y10.0652 
G01 X-13.7789 Y10.0839 
G01 X-15.3511 Y10.0839 
G01 X-15.4207 Y10.0652 
G01 X-15.4832 Y10.0292 
G01 X-15.5342 Y9.9782 
G01 X-15.5702 Y9.9157 
G01 X-15.5889 Y9.8461 
G01 X-15.5889 Y8.4739 
G01 X-15.5702 Y8.4043 
G01 X-15.5342 Y8.3418 
G01 X-15.4832 Y8.2908 
G01 X-15.4207 Y8.2548 
G01 X-15.3511 Y8.2361 
G01 X-13.9387 Y8.2361 
G01 X-13.9412 Y8.2269 
G01 X-13.9412 Y8.1839 
G01 X-15.3511 Y8.1839 
G01 X-15.4207 Y8.1652 
G01 X-15.4832 Y8.1292 
G01 X-15.5342 Y8.0782 
G01 X-15.5702 Y8.0157 
G01 X-15.5889 Y7.9461 
G01 X-15.5889 Y6.5812 
G01 X-15.5939 Y6.5783 
G01 X-15.6331 Y6.5557 
G01 X-15.6710 Y6.5178 
G01 X-15.7078 Y6.4810 
G01 X-15.7313 Y6.4403 
G01 X-15.7606 Y6.3896 
G01 X-15.7789 Y6.3211 
G01 X-15.7879 Y6.2876 
G01 X-15.7879 Y6.2343 
G01 X-15.7879 Y6.1821 
G01 X-15.7879 Y4.7667 
G01 X-15.7789 Y4.7330 
G01 X-15.8784 Y4.5960 
G01 X-15.9760 Y4.4044 
G01 X-16.0425 Y4.1999 
G01 X-16.0761 Y3.9875 
G01 X-16.0761 Y3.7725 
G01 X-16.0425 Y3.5601 
G01 X-15.9760 Y3.3556 
G01 X-15.8784 Y3.1640 
G01 X-15.7789 Y3.0270 
G01 X-15.7879 Y2.9933 
G01 X-15.7879 Y1.0902 
G01 X-15.7606 Y0.9883 
G01 X-15.7078 Y0.8968 
G01 X-15.6332 Y0.8222 
G01 X-15.5417 Y0.7694 
G01 X-15.4398 Y0.7421 
G01 X-8.1193 Y0.7421 
G01 X-8.0173 Y0.7694 
G01 X-7.9259 Y0.8222 
G01 X-7.8513 Y0.8968 
G01 X-7.7985 Y0.9883 
G01 X-7.7976 Y0.9918 
G01 X-7.7674 Y0.9617 
G01 X-7.6394 Y0.8761 
G01 X-7.4971 Y0.8171 
G01 X-7.3460 Y0.7871 
G01 X-6.5934 Y0.7871 
G01 X-6.5467 Y0.7403 
G01 X-6.4842 Y0.7043 
G01 X-6.4146 Y0.6856 
G01 X-4.1074 Y0.6856 
G01 X-4.0378 Y0.7043 
G01 X-3.9753 Y0.7403 
G01 X-3.9243 Y0.7913 
G01 X-3.8883 Y0.8538 
G01 X-3.8696 Y0.9234 
G01 X-3.8696 Y2.2146 
G00 Z2.0000  F3000
G00 X-2.5945 Y5.2821  F3000
G01 Z-0.2000 F200.00 
G01 X-2.4189 Y5.3170 F500.00 
G01 X-2.2535 Y5.3855 
G01 X-2.1046 Y5.4850 
G01 X-2.0307 Y5.5589 
G01 X-1.8425 Y5.5589 
G01 X-1.6301 Y5.5925 
G01 X-1.4256 Y5.6590 
G01 X-1.2340 Y5.7566 
G01 X-1.0600 Y5.8830 
G01 X-0.9080 Y6.0350 
G01 X-0.7816 Y6.2090 
G01 X-0.6840 Y6.4006 
G01 X-0.6175 Y6.6051 
G01 X-0.5839 Y6.8175 
G01 X-0.5839 Y7.7375 
G01 X-0.6175 Y7.9499 
G01 X-0.6840 Y8.1544 
G01 X-0.7816 Y8.3460 
G01 X-0.9080 Y8.5200 
G01 X-1.0600 Y8.6720 
G01 X-1.2340 Y8.7984 
G01 X-1.4256 Y8.8960 
G01 X-1.6301 Y8.9625 
G01 X-1.8425 Y8.9961 
G01 X-2.0575 Y8.9961 
G01 X-2.2699 Y8.9625 
G01 X-2.4744 Y8.8960 
G01 X-2.6660 Y8.7984 
G01 X-2.8400 Y8.6720 
G01 X-2.9920 Y8.5200 
G01 X-3.1184 Y8.3460 
G01 X-3.2160 Y8.1544 
G01 X-3.2825 Y7.9499 
G01 X-3.3161 Y7.7375 
G01 X-3.3161 Y7.0999 
G01 X-5.3505 Y7.0999 
G01 X-5.4787 Y7.0744 
G01 X-6.4146 Y7.0744 
G01 X-6.4842 Y7.0557 
G01 X-6.5467 Y7.0197 
G01 X-6.5977 Y6.9687 
G01 X-6.6337 Y6.9062 
G01 X-6.6524 Y6.8366 
G01 X-6.6524 Y5.5454 
G01 X-6.6337 Y5.4758 
G01 X-6.5977 Y5.4133 
G01 X-6.5467 Y5.3623 
G01 X-6.4842 Y5.3263 
G01 X-6.4146 Y5.3076 
G01 X-5.4787 Y5.3076 
G01 X-5.3505 Y5.2821 
G01 X-2.5945 Y5.2821 
G00 Z2.0000  F3000
G00 X-10.0851 Y5.7161  F3000
G01 Z-0.2000 F200.00 
G01 X-10.0906 Y5.7367 F500.00 
G01 X-10.0851 Y5.7382 
G01 X-10.0819 Y5.7400 
G01 X-10.0819 Y3.5230 
G01 X-10.0518 Y3.3719 
G01 X-10.0175 Y3.2890 
G01 X-10.0358 Y3.2841 
G01 X-10.0819 Y3.2717 
G01 X-10.0851 Y3.2699 
G01 X-10.0851 Y5.7161 
G00 Z2.0000  F3000
G00 X-11.1850 Y8.1489  F3000
G01 Z-0.2000 F200.00 
G01 X-12.6338 Y8.1489 F500.00 
G01 X-12.6338 Y8.1918 
G01 X-12.6363 Y8.2011 
G01 X-11.9876 Y8.2011 
G01 X-11.8720 Y8.1781 
G01 X-11.7180 Y8.1781 
G01 X-11.1762 Y8.1781 
G01 X-11.1781 Y8.1749 
G01 X-11.1850 Y8.1489 
G00 Z2.0000  F3000
G00 X-0.9070 Y1.6679  F3000
G01 Z-0.2000 F200.00 
G01 X-0.7732 Y1.8521 F500.00 
G01 X-0.6698 Y2.0549 
G01 X-0.5995 Y2.2714 
G01 X-0.5639 Y2.4962 
G01 X-0.5639 Y2.7238 
G01 X-0.5995 Y2.9486 
G01 X-0.6698 Y3.1651 
G01 X-0.7732 Y3.3679 
G01 X-0.9070 Y3.5521 
G01 X-1.7579 Y4.4030 
G01 X-1.9421 Y4.5368 
G01 X-2.1449 Y4.6402 
G01 X-2.3614 Y4.7105 
G01 X-2.5862 Y4.7461 
G01 X-2.8138 Y4.7461 
G01 X-3.0378 Y4.7106 
G01 X-3.1951 Y4.7419 
G01 X-3.8954 Y4.7419 
G01 X-3.9262 Y4.7727 
G01 X-4.0069 Y4.8193 
G01 X-4.0969 Y4.8434 
G01 X-6.4251 Y4.8434 
G01 X-6.5151 Y4.8193 
G01 X-6.5692 Y4.7881 
G01 X-6.6381 Y4.8570 
G01 X-6.6381 Y5.3406 
G01 X-6.5958 Y5.2983 
G01 X-6.5151 Y5.2517 
G01 X-6.4251 Y5.2276 
G01 X-5.4866 Y5.2276 
G01 X-5.3584 Y5.2021 
G01 X-2.5866 Y5.2021 
G01 X-2.3955 Y5.2401 
G01 X-2.2156 Y5.3146 
G01 X-2.0536 Y5.4229 
G01 X-1.9976 Y5.4789 
G01 X-1.8362 Y5.4789 
G01 X-1.6114 Y5.5145 
G01 X-1.3949 Y5.5848 
G01 X-1.1921 Y5.6882 
G01 X-1.0079 Y5.8220 
G01 X-0.8470 Y5.9829 
G01 X-0.7132 Y6.1671 
G01 X-0.6098 Y6.3699 
G01 X-0.5395 Y6.5864 
G01 X-0.5039 Y6.8112 
G01 X-0.5039 Y7.7438 
G01 X-0.5395 Y7.9686 
G01 X-0.6098 Y8.1851 
G01 X-0.7132 Y8.3879 
G01 X-0.8470 Y8.5721 
G01 X-1.0079 Y8.7330 
G01 X-1.1921 Y8.8668 
G01 X-1.3949 Y8.9702 
G01 X-1.6114 Y9.0405 
G01 X-1.8362 Y9.0761 
G01 X-2.0638 Y9.0761 
G01 X-2.2886 Y9.0405 
G01 X-2.5051 Y8.9702 
G01 X-2.7079 Y8.8668 
G01 X-2.8921 Y8.7330 
G01 X-3.0530 Y8.5721 
G01 X-3.1868 Y8.3879 
G01 X-3.2902 Y8.1851 
G01 X-3.3605 Y7.9686 
G01 X-3.3961 Y7.7438 
G01 X-3.3961 Y7.1799 
G01 X-5.3584 Y7.1799 
G01 X-5.4866 Y7.1544 
G01 X-6.4251 Y7.1544 
G01 X-6.5151 Y7.1303 
G01 X-6.5958 Y7.0837 
G01 X-6.6381 Y7.0414 
G01 X-6.6381 Y7.8156 
G01 X-6.5834 Y7.8302 
G01 X-6.5027 Y7.8768 
G01 X-6.4368 Y7.9427 
G01 X-6.3902 Y8.0234 
G01 X-6.3661 Y8.1134 
G01 X-6.3661 Y9.8066 
G01 X-6.3902 Y9.8966 
G01 X-6.4368 Y9.9773 
G01 X-6.5027 Y10.0432 
G01 X-6.5834 Y10.0898 
G01 X-6.6734 Y10.1139 
G01 X-8.0666 Y10.1139 
G01 X-8.1566 Y10.0898 
G01 X-8.2373 Y10.0432 
G01 X-8.3032 Y9.9773 
G01 X-8.3200 Y9.9482 
G01 X-8.3368 Y9.9773 
G01 X-8.4027 Y10.0432 
G01 X-8.4834 Y10.0898 
G01 X-8.5734 Y10.1139 
G01 X-9.9666 Y10.1139 
G01 X-10.0566 Y10.0898 
G01 X-10.1373 Y10.0432 
G01 X-10.2032 Y9.9773 
G01 X-10.2498 Y9.8966 
G01 X-10.2698 Y9.8219 
G01 X-10.8062 Y9.8219 
G01 X-10.8302 Y9.9116 
G01 X-10.8768 Y9.9923 
G01 X-10.9427 Y10.0582 
G01 X-11.0234 Y10.1048 
G01 X-11.1134 Y10.1289 
G01 X-12.8066 Y10.1289 
G01 X-12.8966 Y10.1048 
G01 X-12.9773 Y10.0582 
G01 X-13.0432 Y9.9923 
G01 X-13.0463 Y9.9869 
G01 X-13.5085 Y9.9869 
G01 X-13.5318 Y10.0273 
G01 X-13.5977 Y10.0932 
G01 X-13.6784 Y10.1398 
G01 X-13.7684 Y10.1639 
G01 X-15.3616 Y10.1639 
G01 X-15.4516 Y10.1398 
G01 X-15.5323 Y10.0932 
G01 X-15.5982 Y10.0273 
G01 X-15.6448 Y9.9466 
G01 X-15.6689 Y9.8566 
G01 X-15.6689 Y8.4634 
G01 X-15.6448 Y8.3734 
G01 X-15.5982 Y8.2927 
G01 X-15.5323 Y8.2268 
G01 X-15.5032 Y8.2100 
G01 X-15.5323 Y8.1932 
G01 X-15.5982 Y8.1273 
G01 X-15.6448 Y8.0466 
G01 X-15.6689 Y7.9566 
G01 X-15.6689 Y6.6274 
G01 X-15.6823 Y6.6197 
G01 X-15.7277 Y6.5742 
G01 X-15.7718 Y6.5301 
G01 X-15.8170 Y6.4519 
G01 X-15.8351 Y6.4205 
G01 X-15.8581 Y6.3346 
G01 X-15.8679 Y6.2982 
G01 X-15.8679 Y6.2342 
G01 X-15.8679 Y6.1716 
G01 X-15.8679 Y4.7561 
G01 X-15.8660 Y4.7491 
G01 X-15.9468 Y4.6379 
G01 X-16.0501 Y4.4351 
G01 X-16.1205 Y4.2186 
G01 X-16.1561 Y3.9938 
G01 X-16.1561 Y3.7662 
G01 X-16.1205 Y3.5414 
G01 X-16.0501 Y3.3249 
G01 X-15.9468 Y3.1221 
G01 X-15.8660 Y3.0109 
G01 X-15.8679 Y3.0039 
G01 X-15.8679 Y1.0797 
G01 X-15.8351 Y0.9574 
G01 X-15.7718 Y0.8477 
G01 X-15.6823 Y0.7582 
G01 X-15.5726 Y0.6949 
G01 X-15.4503 Y0.6621 
G01 X-8.1088 Y0.6621 
G01 X-7.9864 Y0.6949 
G01 X-7.8768 Y0.7582 
G01 X-7.7873 Y0.8477 
G01 X-7.7744 Y0.8701 
G01 X-7.6773 Y0.8052 
G01 X-7.5204 Y0.7402 
G01 X-7.3539 Y0.7071 
G01 X-6.6266 Y0.7071 
G01 X-6.5958 Y0.6763 
G01 X-6.5151 Y0.6297 
G01 X-6.4251 Y0.6056 
G01 X-4.0969 Y0.6056 
G01 X-4.0069 Y0.6297 
G01 X-3.9262 Y0.6763 
G01 X-3.8603 Y0.7422 
G01 X-3.8137 Y0.8229 
G01 X-3.7896 Y0.9129 
G01 X-3.7896 Y2.2251 
G01 X-3.8137 Y2.3151 
G01 X-3.8603 Y2.3958 
G01 X-3.9262 Y2.4617 
G01 X-4.0069 Y2.5083 
G01 X-4.0969 Y2.5324 
G01 X-6.4251 Y2.5324 
G01 X-6.5151 Y2.5083 
G01 X-6.5958 Y2.4617 
G01 X-6.6266 Y2.4309 
G01 X-6.9120 Y2.4309 
G01 X-8.4381 Y3.9570 
G01 X-8.4381 Y7.8564 
G01 X-8.4027 Y7.8768 
G01 X-8.3619 Y7.9176 
G01 X-8.3619 Y4.4151 
G01 X-8.3288 Y4.2486 
G01 X-8.2638 Y4.0917 
G01 X-8.1695 Y3.9506 
G01 X-8.0494 Y3.8305 
G01 X-7.4294 Y3.2105 
G01 X-7.2883 Y3.1162 
G01 X-7.1314 Y3.0512 
G01 X-6.9649 Y3.0181 
G01 X-6.6266 Y3.0181 
G01 X-6.5958 Y2.9873 
G01 X-6.5151 Y2.9407 
G01 X-6.4251 Y2.9166 
G01 X-4.0969 Y2.9166 
G01 X-4.0401 Y2.7449 
G01 X-3.9368 Y2.5421 
G01 X-3.8030 Y2.3579 
G01 X-2.9521 Y1.5070 
G01 X-2.7679 Y1.3732 
G01 X-2.5651 Y1.2698 
G01 X-2.3486 Y1.1995 
G01 X-2.1238 Y1.1639 
G01 X-1.8962 Y1.1639 
G01 X-1.6714 Y1.1995 
G01 X-1.4549 Y1.2698 
G01 X-1.2521 Y1.3732 
G01 X-1.0679 Y1.5070 
G01 X-0.9070 Y1.6679 
G00 Z2.0000  F3000
G00 X-0.8460 Y1.6158  F3000
G01 Z-0.2000 F200.00 
G01 X-0.7048 Y1.8101 F500.00 
G01 X-0.5957 Y2.0242 
G01 X-0.5215 Y2.2526 
G01 X-0.4839 Y2.4899 
G01 X-0.4839 Y2.7301 
G01 X-0.5215 Y2.9674 
G01 X-0.5957 Y3.1958 
G01 X-0.7048 Y3.4099 
G01 X-0.8460 Y3.6042 
G01 X-1.7058 Y4.4640 
G01 X-1.9001 Y4.6052 
G01 X-2.1142 Y4.7143 
G01 X-2.3426 Y4.7885 
G01 X-2.5799 Y4.8261 
G01 X-2.8201 Y4.8261 
G01 X-3.0362 Y4.7919 
G01 X-3.1872 Y4.8219 
G01 X-3.8623 Y4.8219 
G01 X-3.8771 Y4.8367 
G01 X-3.9760 Y4.8938 
G01 X-4.0864 Y4.9234 
G01 X-6.4356 Y4.9234 
G01 X-6.5460 Y4.8938 
G01 X-6.5560 Y4.8880 
G01 X-6.5581 Y4.8901 
G01 X-6.5581 Y5.1842 
G01 X-6.5460 Y5.1772 
G01 X-6.4356 Y5.1476 
G01 X-5.5061 Y5.1476 
G01 X-5.3451 Y5.1221 
G01 X-2.5999 Y5.1221 
G01 X-2.4337 Y5.1484 
G01 X-2.2737 Y5.2004 
G01 X-2.1238 Y5.2768 
G01 X-1.9877 Y5.3757 
G01 X-1.9644 Y5.3989 
G01 X-1.8299 Y5.3989 
G01 X-1.5926 Y5.4365 
G01 X-1.3642 Y5.5107 
G01 X-1.1501 Y5.6198 
G01 X-0.9558 Y5.7610 
G01 X-0.7860 Y5.9308 
G01 X-0.6448 Y6.1251 
G01 X-0.5357 Y6.3392 
G01 X-0.4615 Y6.5676 
G01 X-0.4239 Y6.8049 
G01 X-0.4239 Y7.7501 
G01 X-0.4615 Y7.9874 
G01 X-0.5357 Y8.2158 
G01 X-0.6448 Y8.4299 
G01 X-0.7860 Y8.6242 
G01 X-0.9558 Y8.7940 
G01 X-1.1501 Y8.9352 
G01 X-1.3642 Y9.0443 
G01 X-1.5926 Y9.1185 
G01 X-1.8299 Y9.1561 
G01 X-2.0701 Y9.1561 
G01 X-2.3074 Y9.1185 
G01 X-2.5358 Y9.0443 
G01 X-2.7498 Y8.9352 
G01 X-2.9442 Y8.7940 
G01 X-3.1140 Y8.6242 
G01 X-3.2552 Y8.4299 
G01 X-3.3643 Y8.2158 
G01 X-3.4385 Y7.9874 
G01 X-3.4761 Y7.7501 
G01 X-3.4761 Y7.2599 
G01 X-5.3451 Y7.2599 
G01 X-5.5061 Y7.2344 
G01 X-6.4356 Y7.2344 
G01 X-6.5460 Y7.2048 
G01 X-6.5581 Y7.1978 
G01 X-6.5581 Y7.7542 
G01 X-6.5525 Y7.7557 
G01 X-6.4536 Y7.8128 
G01 X-6.3728 Y7.8936 
G01 X-6.3157 Y7.9925 
G01 X-6.2861 Y8.1029 
G01 X-6.2861 Y9.8171 
G01 X-6.3157 Y9.9275 
G01 X-6.3728 Y10.0264 
G01 X-6.4536 Y10.1072 
G01 X-6.5525 Y10.1643 
G01 X-6.6629 Y10.1939 
G01 X-8.0771 Y10.1939 
G01 X-8.1875 Y10.1643 
G01 X-8.2864 Y10.1072 
G01 X-8.3200 Y10.0736 
G01 X-8.3536 Y10.1072 
G01 X-8.4525 Y10.1643 
G01 X-8.5629 Y10.1939 
G01 X-9.9771 Y10.1939 
G01 X-10.0875 Y10.1643 
G01 X-10.1864 Y10.1072 
G01 X-10.2672 Y10.0264 
G01 X-10.3243 Y9.9275 
G01 X-10.3312 Y9.9019 
G01 X-10.7448 Y9.9019 
G01 X-10.7557 Y9.9425 
G01 X-10.8128 Y10.0414 
G01 X-10.8936 Y10.1222 
G01 X-10.9925 Y10.1793 
G01 X-11.1029 Y10.2089 
G01 X-12.8171 Y10.2089 
G01 X-12.9275 Y10.1793 
G01 X-13.0264 Y10.1222 
G01 X-13.0817 Y10.0669 
G01 X-13.4623 Y10.0669 
G01 X-13.4678 Y10.0764 
G01 X-13.5486 Y10.1572 
G01 X-13.6475 Y10.2143 
G01 X-13.7579 Y10.2439 
G01 X-15.3721 Y10.2439 
G01 X-15.4825 Y10.2143 
G01 X-15.5814 Y10.1572 
G01 X-15.6622 Y10.0764 
G01 X-15.7193 Y9.9775 
G01 X-15.7489 Y9.8671 
G01 X-15.7489 Y8.4529 
G01 X-15.7193 Y8.3425 
G01 X-15.6622 Y8.2436 
G01 X-15.6286 Y8.2100 
G01 X-15.6622 Y8.1764 
G01 X-15.7193 Y8.0775 
G01 X-15.7489 Y7.9671 
G01 X-15.7489 Y6.6662 
G01 X-15.7844 Y6.6307 
G01 X-15.8358 Y6.5793 
G01 X-15.8744 Y6.5124 
G01 X-15.9097 Y6.4514 
G01 X-15.9314 Y6.3704 
G01 X-15.9479 Y6.3087 
G01 X-15.9479 Y6.2341 
G01 X-15.9479 Y6.1610 
G01 X-15.9479 Y4.7725 
G01 X-16.0152 Y4.6799 
G01 X-16.1243 Y4.4658 
G01 X-16.1985 Y4.2374 
G01 X-16.2361 Y4.0001 
G01 X-16.2361 Y3.7599 
G01 X-16.1985 Y3.5226 
G01 X-16.1243 Y3.2942 
G01 X-16.0152 Y3.0801 
G01 X-15.9479 Y2.9875 
G01 X-15.9479 Y1.0692 
G01 X-15.9097 Y0.9265 
G01 X-15.8358 Y0.7986 
G01 X-15.7314 Y0.6942 
G01 X-15.6035 Y0.6203 
G01 X-15.4608 Y0.5821 
G01 X-8.0982 Y0.5821 
G01 X-7.9556 Y0.6203 
G01 X-7.8277 Y0.6942 
G01 X-7.7585 Y0.7633 
G01 X-7.7152 Y0.7343 
G01 X-7.5437 Y0.6633 
G01 X-7.3618 Y0.6271 
G01 X-6.6597 Y0.6271 
G01 X-6.6449 Y0.6123 
G01 X-6.5460 Y0.5552 
G01 X-6.4356 Y0.5256 
G01 X-4.0864 Y0.5256 
G01 X-3.9760 Y0.5552 
G01 X-3.8771 Y0.6123 
G01 X-3.7963 Y0.6931 
G01 X-3.7392 Y0.7920 
G01 X-3.7096 Y0.9024 
G01 X-3.7096 Y2.1514 
G01 X-3.0042 Y1.4460 
G01 X-2.8098 Y1.3048 
G01 X-2.5958 Y1.1957 
G01 X-2.3674 Y1.1215 
G01 X-2.1301 Y1.0839 
G01 X-1.8899 Y1.0839 
G01 X-1.6526 Y1.1215 
G01 X-1.4242 Y1.1957 
G01 X-1.2101 Y1.3048 
G01 X-1.0158 Y1.4460 
G01 X-0.8460 Y1.6158 
G00 Z2.0000  F3000
G00 X-4.0586 Y2.6050  F3000
G01 Z-0.2000 F200.00 
G01 X-4.0864 Y2.6124 F500.00 
G01 X-6.4356 Y2.6124 
G01 X-6.5460 Y2.5828 
G01 X-6.6449 Y2.5257 
G01 X-6.6597 Y2.5109 
G01 X-6.8788 Y2.5109 
G01 X-8.3581 Y3.9901 
G01 X-8.3581 Y4.1103 
G01 X-8.3347 Y4.0538 
G01 X-8.2316 Y3.8996 
G01 X-8.1004 Y3.7684 
G01 X-7.4804 Y3.1484 
G01 X-7.3262 Y3.0453 
G01 X-7.1547 Y2.9743 
G01 X-6.9728 Y2.9381 
G01 X-6.6597 Y2.9381 
G01 X-6.6449 Y2.9233 
G01 X-6.5460 Y2.8662 
G01 X-6.4356 Y2.8366 
G01 X-4.1541 Y2.8366 
G01 X-4.1143 Y2.7142 
G01 X-4.0586 Y2.6050 
G00 Z2.0000  F3000
G00 X-0.7849 Y1.5637  F3000
G01 Z-0.2000 F200.00 
G01 X-0.6363 Y1.7682 F500.00 
G01 X-0.5216 Y1.9935 
G01 X-0.4434 Y2.2339 
G01 X-0.4039 Y2.4836 
G01 X-0.4039 Y2.7364 
G01 X-0.4434 Y2.9861 
G01 X-0.5216 Y3.2265 
G01 X-0.6363 Y3.4518 
G01 X-0.7849 Y3.6563 
G01 X-1.6537 Y4.5251 
G01 X-1.8582 Y4.6737 
G01 X-2.0835 Y4.7884 
G01 X-2.3239 Y4.8666 
G01 X-2.5736 Y4.9061 
G01 X-2.8264 Y4.9061 
G01 X-3.0347 Y4.8731 
G01 X-3.1793 Y4.9019 
G01 X-3.8300 Y4.9019 
G01 X-3.9451 Y4.9684 
G01 X-4.0758 Y5.0034 
G01 X-6.4462 Y5.0034 
G01 X-6.4781 Y4.9948 
G01 X-6.4781 Y5.0762 
G01 X-6.4462 Y5.0676 
G01 X-5.5124 Y5.0676 
G01 X-5.3514 Y5.0421 
G01 X-2.5936 Y5.0421 
G01 X-2.4150 Y5.0704 
G01 X-2.2430 Y5.1263 
G01 X-2.0818 Y5.2084 
G01 X-1.9355 Y5.3147 
G01 X-1.9313 Y5.3189 
G01 X-1.8236 Y5.3189 
G01 X-1.5739 Y5.3584 
G01 X-1.3335 Y5.4366 
G01 X-1.1082 Y5.5513 
G01 X-0.9037 Y5.6999 
G01 X-0.7249 Y5.8787 
G01 X-0.5763 Y6.0832 
G01 X-0.4616 Y6.3085 
G01 X-0.3834 Y6.5489 
G01 X-0.3439 Y6.7986 
G01 X-0.3439 Y7.7564 
G01 X-0.3834 Y8.0061 
G01 X-0.4616 Y8.2465 
G01 X-0.5763 Y8.4718 
G01 X-0.7249 Y8.6763 
G01 X-0.9037 Y8.8551 
G01 X-1.1082 Y9.0037 
G01 X-1.3335 Y9.1184 
G01 X-1.5739 Y9.1966 
G01 X-1.8236 Y9.2361 
G01 X-2.0764 Y9.2361 
G01 X-2.3261 Y9.1966 
G01 X-2.5665 Y9.1184 
G01 X-2.7918 Y9.0037 
G01 X-2.9963 Y8.8551 
G01 X-3.1751 Y8.6763 
G01 X-3.3237 Y8.4718 
G01 X-3.4384 Y8.2465 
G01 X-3.5166 Y8.0061 
G01 X-3.5561 Y7.7564 
G01 X-3.5561 Y7.3399 
G01 X-5.3514 Y7.3399 
G01 X-5.5124 Y7.3144 
G01 X-6.4462 Y7.3144 
G01 X-6.4781 Y7.3058 
G01 X-6.4781 Y7.7063 
G01 X-6.4045 Y7.7488 
G01 X-6.3088 Y7.8445 
G01 X-6.2411 Y7.9616 
G01 X-6.2061 Y8.0923 
G01 X-6.2061 Y9.8277 
G01 X-6.2411 Y9.9584 
G01 X-6.3088 Y10.0755 
G01 X-6.4045 Y10.1712 
G01 X-6.5216 Y10.2389 
G01 X-6.6523 Y10.2739 
G01 X-8.0877 Y10.2739 
G01 X-8.2184 Y10.2389 
G01 X-8.3200 Y10.1802 
G01 X-8.4216 Y10.2389 
G01 X-8.5523 Y10.2739 
G01 X-9.9877 Y10.2739 
G01 X-10.1184 Y10.2389 
G01 X-10.2355 Y10.1712 
G01 X-10.3312 Y10.0755 
G01 X-10.3853 Y9.9819 
G01 X-10.6861 Y9.9819 
G01 X-10.7488 Y10.0905 
G01 X-10.8445 Y10.1862 
G01 X-10.9616 Y10.2539 
G01 X-11.0923 Y10.2889 
G01 X-12.8277 Y10.2889 
G01 X-12.9584 Y10.2539 
G01 X-13.0755 Y10.1862 
G01 X-13.1149 Y10.1469 
G01 X-13.4251 Y10.1469 
G01 X-13.4995 Y10.2212 
G01 X-13.6166 Y10.2889 
G01 X-13.7473 Y10.3239 
G01 X-15.3827 Y10.3239 
G01 X-15.5134 Y10.2889 
G01 X-15.6305 Y10.2212 
G01 X-15.7262 Y10.1255 
G01 X-15.7939 Y10.0084 
G01 X-15.8289 Y9.8777 
G01 X-15.8289 Y8.4423 
G01 X-15.7939 Y8.3116 
G01 X-15.7352 Y8.2100 
G01 X-15.7939 Y8.1084 
G01 X-15.8289 Y7.9777 
G01 X-15.8289 Y6.6998 
G01 X-15.8570 Y6.6751 
G01 X-15.8699 Y6.6583 
G01 X-15.8848 Y6.6434 
G01 X-15.9082 Y6.6084 
G01 X-15.9339 Y6.5750 
G01 X-15.9432 Y6.5560 
G01 X-15.9550 Y6.5384 
G01 X-15.9711 Y6.4995 
G01 X-15.9897 Y6.4617 
G01 X-15.9952 Y6.4413 
G01 X-16.0033 Y6.4218 
G01 X-16.0115 Y6.3805 
G01 X-16.0224 Y6.3398 
G01 X-16.0238 Y6.3187 
G01 X-16.0279 Y6.2980 
G01 X-16.0279 Y6.2558 
G01 X-16.0307 Y6.2138 
G01 X-16.0279 Y6.1929 
G01 X-16.0279 Y4.7985 
G01 X-16.0837 Y4.7218 
G01 X-16.1984 Y4.4965 
G01 X-16.2766 Y4.2561 
G01 X-16.3161 Y4.0064 
G01 X-16.3161 Y3.7536 
G01 X-16.2766 Y3.5039 
G01 X-16.1984 Y3.2635 
G01 X-16.0837 Y3.0382 
G01 X-16.0279 Y2.9615 
G01 X-16.0279 Y1.0799 
G01 X-16.0033 Y0.9560 
G01 X-15.9550 Y0.8394 
G01 X-15.8848 Y0.7344 
G01 X-15.7955 Y0.6452 
G01 X-15.6906 Y0.5750 
G01 X-15.5739 Y0.5267 
G01 X-15.4501 Y0.5021 
G01 X-8.1089 Y0.5021 
G01 X-7.9851 Y0.5267 
G01 X-7.8685 Y0.5750 
G01 X-7.7635 Y0.6452 
G01 X-7.7476 Y0.6611 
G01 X-7.5671 Y0.5864 
G01 X-7.3696 Y0.5471 
G01 X-6.6920 Y0.5471 
G01 X-6.5769 Y0.4806 
G01 X-6.4462 Y0.4456 
G01 X-4.0758 Y0.4456 
G01 X-3.9451 Y0.4806 
G01 X-3.8280 Y0.5483 
G01 X-3.7323 Y0.6440 
G01 X-3.6646 Y0.7611 
G01 X-3.6296 Y0.8918 
G01 X-3.6296 Y1.9582 
G01 X-3.0563 Y1.3849 
G01 X-2.8518 Y1.2363 
G01 X-2.6265 Y1.1216 
G01 X-2.3861 Y1.0434 
G01 X-2.1364 Y1.0039 
G01 X-1.8836 Y1.0039 
G01 X-1.6339 Y1.0434 
G01 X-1.3935 Y1.1216 
G01 X-1.1682 Y1.2363 
G01 X-0.9637 Y1.3849 
G01 X-0.7849 Y1.5637 
G00 Z2.0000  F3000
G00 X-4.1913 Y2.6924  F3000
G01 Z-0.2000 F200.00 
G01 X-6.4462 Y2.6924 F500.00 
G01 X-6.5769 Y2.6574 
G01 X-6.6920 Y2.5909 
G01 X-6.8457 Y2.5909 
G01 X-7.1458 Y2.8909 
G01 X-6.9806 Y2.8581 
G01 X-6.6920 Y2.8581 
G01 X-6.5769 Y2.7916 
G01 X-6.4462 Y2.7566 
G01 X-4.2122 Y2.7566 
G01 X-4.1913 Y2.6924 
G00 Z2.0000  F3000
G00 X-0.7396 Y1.4959  F3000
G01 Z-0.2000 F200.00 
G01 X-0.6050 Y1.6712 F500.00 
G01 X-0.4945 Y1.8627 
G01 X-0.4100 Y2.0669 
G01 X-0.3528 Y2.2803 
G01 X-0.3239 Y2.4995 
G01 X-0.3239 Y2.7205 
G01 X-0.3528 Y2.9396 
G01 X-0.4100 Y3.1531 
G01 X-0.4945 Y3.3573 
G01 X-0.6050 Y3.5488 
G01 X-0.7396 Y3.7241 
G01 X-1.5859 Y4.5704 
G01 X-1.7612 Y4.7049 
G01 X-1.9527 Y4.8155 
G01 X-2.1569 Y4.9000 
G01 X-2.3704 Y4.9572 
G01 X-2.5056 Y4.9750 
G01 X-2.3962 Y4.9924 
G01 X-2.2123 Y5.0521 
G01 X-2.0399 Y5.1399 
G01 X-1.9037 Y5.2389 
G01 X-1.8395 Y5.2389 
G01 X-1.6203 Y5.2678 
G01 X-1.4069 Y5.3250 
G01 X-1.2027 Y5.4095 
G01 X-1.0112 Y5.5201 
G01 X-0.8359 Y5.6546 
G01 X-0.6796 Y5.8109 
G01 X-0.5451 Y5.9862 
G01 X-0.4345 Y6.1777 
G01 X-0.3500 Y6.3819 
G01 X-0.2928 Y6.5953 
G01 X-0.2639 Y6.8145 
G01 X-0.2639 Y7.7405 
G01 X-0.2928 Y7.9596 
G01 X-0.3500 Y8.1731 
G01 X-0.4345 Y8.3773 
G01 X-0.5451 Y8.5688 
G01 X-0.6796 Y8.7441 
G01 X-0.8359 Y8.9004 
G01 X-1.0112 Y9.0349 
G01 X-1.2027 Y9.1455 
G01 X-1.4069 Y9.2300 
G01 X-1.6203 Y9.2872 
G01 X-1.8395 Y9.3161 
G01 X-2.0605 Y9.3161 
G01 X-2.2796 Y9.2872 
G01 X-2.4931 Y9.2300 
G01 X-2.6973 Y9.1455 
G01 X-2.8888 Y9.0349 
G01 X-3.0641 Y8.9004 
G01 X-3.2204 Y8.7441 
G01 X-3.3549 Y8.5688 
G01 X-3.4655 Y8.3773 
G01 X-3.5500 Y8.1731 
G01 X-3.6072 Y7.9596 
G01 X-3.6361 Y7.7405 
G01 X-3.6361 Y7.4199 
G01 X-5.3577 Y7.4199 
G01 X-5.5187 Y7.3944 
G01 X-6.3981 Y7.3944 
G01 X-6.3981 Y7.6608 
G01 X-6.3414 Y7.6987 
G01 X-6.2587 Y7.7814 
G01 X-6.1937 Y7.8787 
G01 X-6.1489 Y7.9868 
G01 X-6.1261 Y8.1015 
G01 X-6.1261 Y9.8185 
G01 X-6.1489 Y9.9332 
G01 X-6.1937 Y10.0413 
G01 X-6.2587 Y10.1386 
G01 X-6.3414 Y10.2213 
G01 X-6.4387 Y10.2863 
G01 X-6.5468 Y10.3311 
G01 X-6.6615 Y10.3539 
G01 X-8.0785 Y10.3539 
G01 X-8.1932 Y10.3311 
G01 X-8.3013 Y10.2863 
G01 X-8.3200 Y10.2738 
G01 X-8.3387 Y10.2863 
G01 X-8.4468 Y10.3311 
G01 X-8.5615 Y10.3539 
G01 X-9.9785 Y10.3539 
G01 X-10.0932 Y10.3311 
G01 X-10.2013 Y10.2863 
G01 X-10.2986 Y10.2213 
G01 X-10.3813 Y10.1386 
G01 X-10.4326 Y10.0619 
G01 X-10.6374 Y10.0619 
G01 X-10.6987 Y10.1536 
G01 X-10.7814 Y10.2363 
G01 X-10.8787 Y10.3013 
G01 X-10.9868 Y10.3461 
G01 X-11.1015 Y10.3689 
G01 X-12.8185 Y10.3689 
G01 X-12.9332 Y10.3461 
G01 X-13.0413 Y10.3013 
G01 X-13.1386 Y10.2363 
G01 X-13.1480 Y10.2269 
G01 X-13.3920 Y10.2269 
G01 X-13.4364 Y10.2713 
G01 X-13.5337 Y10.3363 
G01 X-13.6418 Y10.3811 
G01 X-13.7565 Y10.4039 
G01 X-15.3735 Y10.4039 
G01 X-15.4882 Y10.3811 
G01 X-15.5963 Y10.3363 
G01 X-15.6936 Y10.2713 
G01 X-15.7763 Y10.1886 
G01 X-15.8413 Y10.0913 
G01 X-15.8861 Y9.9832 
G01 X-15.9089 Y9.8685 
G01 X-15.9089 Y8.4515 
G01 X-15.8861 Y8.3368 
G01 X-15.8413 Y8.2287 
G01 X-15.8288 Y8.2100 
G01 X-15.8413 Y8.1913 
G01 X-15.8861 Y8.0832 
G01 X-15.9089 Y7.9685 
G01 X-15.9089 Y6.7360 
G01 X-15.9157 Y6.7301 
G01 X-15.9302 Y6.7112 
G01 X-15.9470 Y6.6944 
G01 X-15.9733 Y6.6550 
G01 X-16.0021 Y6.6174 
G01 X-16.0127 Y6.5961 
G01 X-16.0258 Y6.5763 
G01 X-16.0440 Y6.5326 
G01 X-16.0649 Y6.4900 
G01 X-16.0711 Y6.4671 
G01 X-16.0802 Y6.4451 
G01 X-16.0894 Y6.3987 
G01 X-16.1017 Y6.3529 
G01 X-16.1033 Y6.3292 
G01 X-16.1079 Y6.3059 
G01 X-16.1079 Y6.2585 
G01 X-16.1110 Y6.2112 
G01 X-16.1079 Y6.1876 
G01 X-16.1079 Y4.8279 
G01 X-16.1149 Y4.8188 
G01 X-16.2255 Y4.6273 
G01 X-16.3100 Y4.4231 
G01 X-16.3672 Y4.2096 
G01 X-16.3961 Y3.9905 
G01 X-16.3961 Y3.7695 
G01 X-16.3672 Y3.5503 
G01 X-16.3100 Y3.3369 
G01 X-16.2255 Y3.1327 
G01 X-16.1149 Y2.9412 
G01 X-16.1079 Y2.9321 
G01 X-16.1079 Y1.0720 
G01 X-16.0802 Y0.9327 
G01 X-16.0258 Y0.8015 
G01 X-15.9470 Y0.6835 
G01 X-15.8465 Y0.5830 
G01 X-15.7285 Y0.5041 
G01 X-15.5973 Y0.4498 
G01 X-15.4580 Y0.4221 
G01 X-8.1011 Y0.4221 
G01 X-7.9618 Y0.4498 
G01 X-7.8306 Y0.5041 
G01 X-7.7335 Y0.5690 
G01 X-7.6920 Y0.5478 
G01 X-7.5270 Y0.4942 
G01 X-7.3557 Y0.4671 
G01 X-6.7106 Y0.4671 
G01 X-6.6598 Y0.4332 
G01 X-6.5517 Y0.3884 
G01 X-6.4370 Y0.3656 
G01 X-4.0850 Y0.3656 
G01 X-3.9703 Y0.3884 
G01 X-3.8622 Y0.4332 
G01 X-3.7649 Y0.4982 
G01 X-3.6822 Y0.5809 
G01 X-3.6172 Y0.6782 
G01 X-3.5724 Y0.7863 
G01 X-3.5496 Y0.9010 
G01 X-3.5496 Y1.7651 
G01 X-3.1241 Y1.3396 
G01 X-2.9488 Y1.2050 
G01 X-2.7573 Y1.0945 
G01 X-2.5531 Y1.0100 
G01 X-2.3396 Y0.9527 
G01 X-2.1205 Y0.9239 
G01 X-1.8995 Y0.9239 
G01 X-1.6804 Y0.9527 
G01 X-1.4669 Y1.0100 
G01 X-1.2627 Y1.0945 
G01 X-1.0712 Y1.2050 
G01 X-0.8959 Y1.3396 
G01 X-0.7396 Y1.4959 
G00 Z2.0000  F3000
G00 X-2.9928 Y4.9621  F3000
G01 Z-0.2000 F200.00 
G01 X-3.0296 Y4.9572 F500.00 
G01 X-3.0326 Y4.9565 
G01 X-3.0683 Y4.9621 
G01 X-2.9928 Y4.9621 
G00 Z2.0000  F3000
G00 X-6.6123 Y2.7245  F3000
G01 Z-0.2000 F200.00 
G01 X-6.6598 Y2.7048 F500.00 
G01 X-6.7106 Y2.6709 
G01 X-6.8126 Y2.6709 
G01 X-6.9198 Y2.7781 
G01 X-6.7106 Y2.7781 
G01 X-6.6598 Y2.7442 
G01 X-6.6123 Y2.7245 
G00 Z2.0000  F3000
G00 Z5.0000  F3000
;M03 S0
M0
