; generated by Slic3r 1.0.0RC2 on 2014-08-06 at 22:52:16

; layer_height = 0.24
; perimeters = 2
; top_solid_layers = 4
; bottom_solid_layers = 3
; fill_density = 0.3
; perimeter_speed = 20
; infill_speed = 20
; travel_speed = 60
; nozzle_diameter = 0.5
; filament_diameter = 1.75
; extrusion_multiplier = 1
; perimeters extrusion width = 0.50mm
; infill extrusion width = 0.87mm
; solid infill extrusion width = 0.85mm
; top infill extrusion width = 0.85mm


G21 ; set units to millimeters
G90 ; use absolute coordinates
M83 ; use relative distances for extrusion
;M140 S65; Set bed temperature
G28 ; Home all axes
G1 Z5 F200 ; lift nozzle
G1 X2 Y50 F2000; Go to wait for warm position
;M116; Wait for all temperatures
M109 S185 R0 ; Set extruder temperature
G1 F1800.000 E-4.00000
G1 Z0.240 F3600.000
G1 X5.000 Y48.500 F3600.000
G1 E4.00000 F1800.000
G1 X197.000 Y48.500 E9.57892 F600.000
G1 X198.270 Y48.620 E0.06364
G1 X199.490 Y48.990 E0.06360
G1 X200.610 Y49.600 E0.06363
G1 X201.600 Y50.400 E0.06350
G1 X202.400 Y51.390 E0.06350
G1 X203.010 Y52.510 E0.06363
G1 X203.380 Y53.730 E0.06360
G1 X203.500 Y55.000 E0.06364
G1 X203.500 Y145.000 E4.49012
G1 X203.380 Y146.270 E0.06364
G1 X203.010 Y147.490 E0.06360
G1 X202.400 Y148.610 E0.06363
G1 X201.600 Y149.600 E0.06350
G1 X200.610 Y150.400 E0.06350
G1 X199.490 Y151.010 E0.06363
G1 X198.270 Y151.380 E0.06360
G1 X197.000 Y151.500 E0.06364
G1 X5.000 Y151.500 E9.57892
G1 X3.730 Y151.380 E0.06364
G1 X2.510 Y151.010 E0.06360
G1 X1.390 Y150.400 E0.06363
G1 X0.400 Y149.600 E0.06350
G1 X-0.400 Y148.610 E0.06350
G1 X-1.010 Y147.490 E0.06363
G1 X-1.380 Y146.270 E0.06360
G1 X-1.500 Y145.000 E0.06364
G1 X-1.500 Y55.000 E4.49012
G1 X-1.380 Y53.730 E0.06364
G1 X-1.010 Y52.510 E0.06360
G1 X-0.400 Y51.390 E0.06363
G1 X0.400 Y50.400 E0.06350
G1 X1.390 Y49.600 E0.06350
G1 X2.510 Y48.990 E0.06363
G1 X3.730 Y48.620 E0.06360
G1 X4.925 Y48.507 E0.05990
G1 F1800.000 E-4.00000
G1 X11.493 Y61.049 F3600.000
G1 E4.00000 F1800.000
G1 X12.682 Y60.443 E0.06658 F600.000
G1 X14.000 Y60.234 E0.06659
G1 X15.078 Y60.405 E0.05443
G1 X15.318 Y60.443 E0.01217
G1 X16.507 Y61.049 E0.06656
G1 X17.451 Y61.993 E0.06659
G1 X18.057 Y63.182 E0.06658
G1 X18.266 Y64.500 E0.06658
G1 X18.095 Y65.578 E0.05444
G1 X18.057 Y65.818 E0.01215
G1 X17.451 Y67.007 E0.06657
G1 X16.507 Y67.951 E0.06659
G1 X15.318 Y68.557 E0.06658
G1 X14.000 Y68.766 E0.06658
G1 X12.922 Y68.595 E0.05443
G1 X12.682 Y68.557 E0.01217
G1 X11.493 Y67.951 E0.06656
G1 X10.549 Y67.007 E0.06659
G1 X9.943 Y65.818 E0.06658
G1 X9.734 Y64.500 E0.06658
G1 X9.943 Y63.182 E0.06659
G1 X10.549 Y61.993 E0.06658
G1 X11.440 Y61.102 E0.06285
G1 X11.790 Y61.459 F3600.000
G1 X12.838 Y60.925 E0.05868 F600.000
G1 X14.000 Y60.741 E0.05868
G1 X14.999 Y60.899 E0.05048
G1 X15.162 Y60.925 E0.00821
G1 X16.210 Y61.459 E0.05867
G1 X17.041 Y62.290 E0.05869
G1 X17.575 Y63.338 E0.05868
G1 X17.759 Y64.500 E0.05868
G1 X17.601 Y65.499 E0.05048
G1 X17.575 Y65.662 E0.00820
G1 X17.041 Y66.710 E0.05868
G1 X16.210 Y67.541 E0.05868
G1 X15.162 Y68.075 E0.05868
G1 X14.000 Y68.259 E0.05868
G1 X13.001 Y68.101 E0.05048
G1 X12.838 Y68.075 E0.00821
G1 X11.790 Y67.541 E0.05867
G1 X10.959 Y66.710 E0.05869
G1 X10.425 Y65.662 E0.05868
G1 X10.241 Y64.500 E0.05868
G1 X10.425 Y63.338 E0.05868
G1 X10.959 Y62.290 E0.05868
G1 X11.737 Y61.512 E0.05494
G1 X11.764 Y60.959 F3600.000
G1 F1800.000 E-4.00000
G1 X183.734 Y64.500 F3600.000
G1 E4.00000 F1800.000
G1 X183.943 Y63.182 E0.06659 F600.000
G1 X184.549 Y61.993 E0.06657
G1 X185.493 Y61.049 E0.06659
G1 X186.465 Y60.554 E0.05443
G1 X186.682 Y60.443 E0.01215
G1 X188.000 Y60.234 E0.06659
G1 X189.318 Y60.443 E0.06660
G1 X190.507 Y61.049 E0.06656
G1 X191.451 Y61.993 E0.06659
G1 X192.057 Y63.182 E0.06658
G1 X192.266 Y64.500 E0.06658
G1 X192.057 Y65.818 E0.06659
G1 X191.451 Y67.007 E0.06657
G1 X190.507 Y67.951 E0.06659
G1 X189.535 Y68.446 E0.05443
G1 X189.318 Y68.557 E0.01215
G1 X188.000 Y68.766 E0.06658
G1 X186.682 Y68.557 E0.06660
G1 X185.493 Y67.951 E0.06656
G1 X184.549 Y67.007 E0.06659
G1 X183.943 Y65.818 E0.06658
G1 X183.746 Y64.574 E0.06284
G1 X184.241 Y64.500 F3600.000
G1 X184.425 Y63.338 E0.05868 F600.000
G1 X184.959 Y62.290 E0.05868
G1 X185.790 Y61.459 E0.05868
G1 X186.692 Y60.999 E0.05048
G1 X186.838 Y60.925 E0.00820
G1 X188.000 Y60.741 E0.05868
G1 X189.162 Y60.925 E0.05869
G1 X190.210 Y61.459 E0.05867
G1 X191.041 Y62.290 E0.05869
G1 X191.575 Y63.338 E0.05868
G1 X191.759 Y64.500 E0.05868
G1 X191.575 Y65.662 E0.05868
G1 X191.041 Y66.710 E0.05868
G1 X190.210 Y67.541 E0.05869
G1 X189.308 Y68.001 E0.05048
G1 X189.162 Y68.075 E0.00820
G1 X188.000 Y68.259 E0.05868
G1 X186.838 Y68.075 E0.05869
G1 X185.790 Y67.541 E0.05867
G1 X184.959 Y66.710 E0.05869
G1 X184.425 Y65.662 E0.05868
G1 X184.252 Y64.574 E0.05494
G1 X183.821 Y64.228 F3600.000
G1 X188.000 Y131.234 F3600.000
G1 X189.318 Y131.443 E0.06660 F600.000
G1 X190.507 Y132.049 E0.06656
G1 X191.451 Y132.993 E0.06659
G1 X192.057 Y134.182 E0.06658
G1 X192.266 Y135.500 E0.06658
G1 X192.057 Y136.818 E0.06659
G1 X191.451 Y138.007 E0.06657
G1 X190.507 Y138.951 E0.06659
G1 X189.535 Y139.446 E0.05443
G1 X189.318 Y139.557 E0.01215
G1 X188.000 Y139.766 E0.06658
G1 X186.682 Y139.557 E0.06660
G1 X185.493 Y138.951 E0.06656
G1 X184.549 Y138.007 E0.06659
G1 X183.943 Y136.818 E0.06658
G1 X183.734 Y135.500 E0.06658
G1 X183.943 Y134.182 E0.06659
G1 X184.549 Y132.993 E0.06657
G1 X185.493 Y132.049 E0.06659
G1 X186.682 Y131.443 E0.06658
G1 X187.926 Y131.246 E0.06284
G1 X188.000 Y131.741 F3600.000
G1 X189.162 Y131.925 E0.05869 F600.000
G1 X190.210 Y132.459 E0.05867
G1 X191.041 Y133.290 E0.05869
G1 X191.575 Y134.338 E0.05868
G1 X191.759 Y135.500 E0.05868
G1 X191.575 Y136.662 E0.05868
G1 X191.041 Y137.710 E0.05868
G1 X190.210 Y138.541 E0.05869
G1 X189.308 Y139.001 E0.05048
G1 X189.162 Y139.075 E0.00820
G1 X188.000 Y139.259 E0.05868
G1 X186.838 Y139.075 E0.05869
G1 X185.790 Y138.541 E0.05867
G1 X184.959 Y137.710 E0.05869
G1 X184.425 Y136.662 E0.05868
G1 X184.241 Y135.500 E0.05868
G1 X184.425 Y134.338 E0.05868
G1 X184.959 Y133.290 E0.05868
G1 X185.790 Y132.459 E0.05868
G1 X186.838 Y131.925 E0.05868
G1 X187.926 Y131.752 E0.05494
G1 X188.272 Y131.321 F3600.000
G1 X18.266 Y135.500 F3600.000
G1 X18.057 Y136.818 E0.06659 F600.000
G1 X17.451 Y138.007 E0.06657
G1 X16.507 Y138.951 E0.06659
G1 X15.535 Y139.446 E0.05443
G1 X15.318 Y139.557 E0.01215
G1 X14.000 Y139.766 E0.06658
G1 X12.682 Y139.557 E0.06660
G1 X11.493 Y138.951 E0.06656
G1 X10.549 Y138.007 E0.06659
G1 X10.054 Y137.035 E0.05443
G1 X9.943 Y136.818 E0.01216
G1 X9.734 Y135.500 E0.06658
G1 X9.943 Y134.182 E0.06659
G1 X10.549 Y132.993 E0.06658
G1 X11.493 Y132.049 E0.06659
G1 X12.682 Y131.443 E0.06658
G1 X14.000 Y131.234 E0.06658
G1 X15.318 Y131.443 E0.06660
G1 X16.507 Y132.049 E0.06656
G1 X17.451 Y132.993 E0.06659
G1 X18.057 Y134.182 E0.06658
G1 X18.254 Y135.426 E0.06284
G1 X17.759 Y135.500 F3600.000
G1 X17.575 Y136.662 E0.05868 F600.000
G1 X17.041 Y137.710 E0.05868
G1 X16.210 Y138.541 E0.05868
G1 X15.308 Y139.001 E0.05048
G1 X15.162 Y139.075 E0.00820
G1 X14.000 Y139.259 E0.05868
G1 X12.838 Y139.075 E0.05869
G1 X11.790 Y138.541 E0.05867
G1 X10.959 Y137.710 E0.05869
G1 X10.499 Y136.808 E0.05047
G1 X10.425 Y136.662 E0.00820
G1 X10.241 Y135.500 E0.05868
G1 X10.425 Y134.338 E0.05868
G1 X10.959 Y133.290 E0.05868
G1 X11.790 Y132.459 E0.05868
G1 X12.838 Y131.925 E0.05868
G1 X14.000 Y131.741 E0.05868
G1 X15.162 Y131.925 E0.05869
G1 X16.210 Y132.459 E0.05867
G1 X17.041 Y133.290 E0.05869
G1 X17.575 Y134.338 E0.05868
G1 X17.748 Y135.426 E0.05494
G1 X18.179 Y135.772 F3600.000
G1 F1800.000 E-4.00000
G1 X5.750 Y144.250 F3600.000
G1 E4.00000 F1800.000
G1 X5.750 Y55.750 E4.41528 F600.000
G1 X196.250 Y55.750 E9.50408
G1 X196.250 Y144.250 E4.41528
G1 X5.825 Y144.250 E9.50034
G1 X5.250 Y144.750 F3600.000
G1 X5.250 Y55.250 E4.46517 F420.000
G1 X196.750 Y55.250 E9.55397
G1 X196.750 Y144.750 E4.46517
G1 X5.325 Y144.750 E9.55023
G1 X5.500 Y144.317 F3600.000
G1 X6.220 Y143.860 F3600.000
G1 X6.140 Y143.780 E0.00904 F600.000
G1 X6.140 Y142.649 E0.09037
G1 X7.351 Y143.860 E0.13684
G1 X8.483 Y143.860 E0.09037
G1 X6.140 Y141.517 E0.26465
G1 X6.140 Y140.385 E0.09037
G1 X9.615 Y143.860 E0.39246
G1 X10.747 Y143.860 E0.09037
G1 X6.140 Y139.253 E0.52027
G1 X6.140 Y138.122 E0.09037
G1 X11.878 Y143.860 E0.64807
G1 X13.010 Y143.860 E0.09037
G1 X6.140 Y136.990 E0.77588
G1 X6.140 Y135.858 E0.09037
G1 X14.142 Y143.860 E0.90369
G1 X15.274 Y143.860 E0.09037
G1 X6.140 Y134.726 E1.03149
G1 X6.140 Y133.594 E0.09037
G1 X9.654 Y137.109 E0.39687
G1 X9.371 Y135.694 E0.11525
G1 X6.140 Y132.463 E0.36486
G1 X6.140 Y131.331 E0.09037
G1 X9.472 Y134.664 E0.37636
G1 X9.714 Y133.773 E0.07365
G1 X6.140 Y130.199 E0.40364
G1 X6.140 Y129.067 E0.09037
G1 X10.096 Y133.024 E0.44678
G1 X10.597 Y132.393 E0.06432
G1 X6.140 Y127.936 E0.50340
G1 X6.140 Y126.804 E0.09037
G1 X11.163 Y131.828 E0.56730
G1 X11.881 Y131.414 E0.06617
G1 X6.140 Y125.672 E0.64839
G1 X6.140 Y124.540 E0.09037
G1 X12.653 Y131.053 E0.73549
G1 X13.630 Y130.899 E0.07899
G1 X6.140 Y123.409 E0.84582
G1 X6.140 Y122.277 E0.09037
G1 X14.835 Y130.972 E0.98193
G1 X16.709 Y131.714 F3600.000
G1 X6.140 Y121.145 E1.19357 F600.000
G1 X6.140 Y120.013 E0.09037
G1 X29.987 Y143.860 E2.69299
G1 X31.118 Y143.860 E0.09037
G1 X6.140 Y118.882 E2.82080
G1 X6.140 Y117.750 E0.09037
G1 X32.250 Y143.860 E2.94860
G1 X33.382 Y143.860 E0.09037
G1 X6.140 Y116.618 E3.07641
G1 X6.140 Y115.486 E0.09037
G1 X34.514 Y143.860 E3.20422
G1 X35.645 Y143.860 E0.09037
G1 X6.140 Y114.355 E3.33202
G1 X6.140 Y113.223 E0.09037
G1 X36.777 Y143.860 E3.45983
G1 X37.909 Y143.860 E0.09037
G1 X6.140 Y112.091 E3.58764
G1 X6.140 Y110.959 E0.09037
G1 X39.041 Y143.860 E3.71545
G1 X40.173 Y143.860 E0.09037
G1 X6.140 Y109.827 E3.84325
G1 X6.140 Y108.696 E0.09037
G1 X41.304 Y143.860 E3.97106
G1 X42.436 Y143.860 E0.09037
G1 X6.140 Y107.564 E4.09887
G1 X6.140 Y106.432 E0.09037
G1 X43.568 Y143.860 E4.22667
G1 X44.700 Y143.860 E0.09037
G1 X6.140 Y105.300 E4.35448
G1 X6.140 Y104.169 E0.09037
G1 X45.831 Y143.860 E4.48229
G1 X46.963 Y143.860 E0.09037
G1 X6.140 Y103.037 E4.61010
G1 X6.140 Y101.905 E0.09037
G1 X48.095 Y143.860 E4.73790
G1 X49.227 Y143.860 E0.09037
G1 X6.140 Y100.773 E4.86571
G1 X6.140 Y99.642 E0.09037
G1 X50.358 Y143.860 E4.99352
G1 X51.490 Y143.860 E0.09037
G1 X6.140 Y98.510 E5.12133
G1 X6.140 Y97.378 E0.09037
G1 X52.622 Y143.860 E5.24913
G1 X53.754 Y143.860 E0.09037
G1 X6.140 Y96.246 E5.37694
G1 X6.140 Y95.115 E0.09037
G1 X54.885 Y143.860 E5.50475
G1 X56.017 Y143.860 E0.09037
G1 X6.140 Y93.983 E5.63255
G1 X6.140 Y92.851 E0.09037
G1 X57.149 Y143.860 E5.76036
G1 X58.281 Y143.860 E0.09037
G1 X6.140 Y91.719 E5.88817
G1 X6.140 Y90.588 E0.09037
G1 X59.412 Y143.860 E6.01598
G1 X60.544 Y143.860 E0.09037
G1 X6.140 Y89.456 E6.14378
G1 X6.140 Y88.324 E0.09037
G1 X61.676 Y143.860 E6.27159
G1 X62.808 Y143.860 E0.09037
G1 X6.140 Y87.192 E6.39940
G1 X6.140 Y86.060 E0.09037
G1 X63.940 Y143.860 E6.52720
G1 X65.071 Y143.860 E0.09037
G1 X6.140 Y84.929 E6.65501
G1 X6.140 Y83.797 E0.09037
G1 X66.203 Y143.860 E6.78282
G1 X67.335 Y143.860 E0.09037
G1 X6.140 Y82.665 E6.91063
G1 X6.140 Y81.533 E0.09037
G1 X68.467 Y143.860 E7.03843
G1 X69.598 Y143.860 E0.09037
G1 X6.140 Y80.402 E7.16624
G1 X6.140 Y79.270 E0.09037
G1 X70.730 Y143.860 E7.29405
G1 X71.862 Y143.860 E0.09037
G1 X6.140 Y78.138 E7.42185
G1 X6.140 Y77.006 E0.09037
G1 X72.994 Y143.860 E7.54966
G1 X74.125 Y143.860 E0.09037
G1 X6.140 Y75.875 E7.67747
G1 X6.140 Y74.743 E0.09037
G1 X75.257 Y143.860 E7.80528
G1 X76.389 Y143.860 E0.09037
G1 X6.140 Y73.611 E7.93308
G1 X6.140 Y72.479 E0.09037
G1 X77.521 Y143.860 E8.06089
G1 X78.652 Y143.860 E0.09037
G1 X6.140 Y71.348 E8.18870
G1 X6.140 Y70.216 E0.09037
G1 X79.784 Y143.860 E8.31650
G1 X80.916 Y143.860 E0.09037
G1 X6.140 Y69.084 E8.44431
G1 X6.140 Y67.952 E0.09037
G1 X82.048 Y143.860 E8.57212
G1 X83.179 Y143.860 E0.09037
G1 X6.140 Y66.821 E8.69993
G1 X6.140 Y65.689 E0.09037
G1 X84.311 Y143.860 E8.82773
G1 X85.443 Y143.860 E0.09037
G1 X6.140 Y64.557 E8.95554
G1 X6.140 Y63.425 E0.09037
G1 X86.575 Y143.860 E9.08335
G1 X87.707 Y143.860 E0.09037
G1 X12.819 Y68.973 E8.45686
G1 X14.119 Y69.141 E0.10468
G1 X88.838 Y143.860 E8.43785
G1 X89.970 Y143.860 E0.09037
G1 X15.096 Y68.986 E8.45533
G1 X15.926 Y68.684 E0.07051
G1 X91.102 Y143.860 E8.48943
G1 X92.234 Y143.860 E0.09037
G1 X16.676 Y68.302 E8.53258
G1 X17.257 Y67.752 E0.06393
G1 X93.365 Y143.860 E8.59472
G1 X94.497 Y143.860 E0.09037
G1 X17.806 Y67.169 E8.66056
G1 X18.188 Y66.419 E0.06719
G1 X95.629 Y143.860 E8.74523
G1 X96.761 Y143.860 E0.09037
G1 X18.488 Y65.588 E8.83916
G1 X18.643 Y64.611 E0.07899
G1 X97.892 Y143.860 E8.94949
G1 X99.024 Y143.860 E0.09037
G1 X18.471 Y63.307 E9.09665
G1 X15.192 Y60.029 F3600.000
G1 X11.303 Y56.140 E0.43919 F600.000
G1 X12.435 Y56.140 E0.09037
G1 X100.156 Y143.860 E9.90610
G1 X101.288 Y143.860 E0.09037
G1 X13.567 Y56.140 E9.90610
G1 X14.699 Y56.140 E0.09037
G1 X102.419 Y143.860 E9.90610
G1 X103.551 Y143.860 E0.09037
G1 X15.830 Y56.140 E9.90610
G1 X16.962 Y56.140 E0.09037
G1 X104.683 Y143.860 E9.90610
G1 X105.815 Y143.860 E0.09037
G1 X18.094 Y56.140 E9.90610
G1 X19.226 Y56.140 E0.09037
G1 X106.946 Y143.860 E9.90610
G1 X108.078 Y143.860 E0.09037
G1 X20.357 Y56.140 E9.90610
G1 X21.489 Y56.140 E0.09037
G1 X109.210 Y143.860 E9.90610
G1 X110.342 Y143.860 E0.09037
G1 X22.621 Y56.140 E9.90610
G1 X23.753 Y56.140 E0.09037
G1 X111.473 Y143.860 E9.90610
G1 X112.605 Y143.860 E0.09037
G1 X24.885 Y56.140 E9.90610
G1 X26.016 Y56.140 E0.09037
G1 X113.737 Y143.860 E9.90610
G1 X114.869 Y143.860 E0.09037
G1 X27.148 Y56.140 E9.90610
G1 X28.280 Y56.140 E0.09037
G1 X116.001 Y143.860 E9.90610
G1 X117.132 Y143.860 E0.09037
G1 X29.412 Y56.140 E9.90610
G1 X30.543 Y56.140 E0.09037
G1 X118.264 Y143.860 E9.90610
G1 X119.396 Y143.860 E0.09037
G1 X31.675 Y56.140 E9.90610
G1 X32.807 Y56.140 E0.09037
G1 X120.528 Y143.860 E9.90610
G1 X121.659 Y143.860 E0.09037
G1 X33.939 Y56.140 E9.90610
G1 X35.070 Y56.140 E0.09037
G1 X122.791 Y143.860 E9.90610
G1 X123.923 Y143.860 E0.09037
G1 X36.202 Y56.140 E9.90610
G1 X37.334 Y56.140 E0.09037
G1 X125.055 Y143.860 E9.90610
G1 X126.186 Y143.860 E0.09037
G1 X38.466 Y56.140 E9.90610
G1 X39.597 Y56.140 E0.09037
G1 X127.318 Y143.860 E9.90610
G1 X128.450 Y143.860 E0.09037
G1 X40.729 Y56.140 E9.90610
G1 X41.861 Y56.140 E0.09037
G1 X129.582 Y143.860 E9.90610
G1 X130.713 Y143.860 E0.09037
G1 X42.993 Y56.140 E9.90610
G1 X44.124 Y56.140 E0.09037
G1 X131.845 Y143.860 E9.90610
G1 X132.977 Y143.860 E0.09037
G1 X45.256 Y56.140 E9.90610
G1 X46.388 Y56.140 E0.09037
G1 X134.109 Y143.860 E9.90610
G1 X135.240 Y143.860 E0.09037
G1 X47.520 Y56.140 E9.90610
G1 X48.652 Y56.140 E0.09037
G1 X136.372 Y143.860 E9.90610
G1 X137.504 Y143.860 E0.09037
G1 X49.783 Y56.140 E9.90610
G1 X50.915 Y56.140 E0.09037
G1 X138.636 Y143.860 E9.90610
G1 X139.768 Y143.860 E0.09037
G1 X52.047 Y56.140 E9.90610
G1 X53.179 Y56.140 E0.09037
G1 X140.899 Y143.860 E9.90610
G1 X142.031 Y143.860 E0.09037
G1 X54.310 Y56.140 E9.90610
G1 X55.442 Y56.140 E0.09037
G1 X143.163 Y143.860 E9.90610
G1 X144.295 Y143.860 E0.09037
G1 X56.574 Y56.140 E9.90610
G1 X57.706 Y56.140 E0.09037
G1 X145.426 Y143.860 E9.90610
G1 X146.558 Y143.860 E0.09037
G1 X58.837 Y56.140 E9.90610
G1 X59.969 Y56.140 E0.09037
G1 X147.690 Y143.860 E9.90610
G1 X148.822 Y143.860 E0.09037
G1 X61.101 Y56.140 E9.90610
G1 X62.233 Y56.140 E0.09037
G1 X149.953 Y143.860 E9.90610
G1 X151.085 Y143.860 E0.09037
G1 X63.364 Y56.140 E9.90610
G1 X64.496 Y56.140 E0.09037
G1 X152.217 Y143.860 E9.90610
G1 X153.349 Y143.860 E0.09037
G1 X65.628 Y56.140 E9.90610
G1 X66.760 Y56.140 E0.09037
G1 X154.480 Y143.860 E9.90610
G1 X155.612 Y143.860 E0.09037
G1 X67.891 Y56.140 E9.90610
G1 X69.023 Y56.140 E0.09037
G1 X156.744 Y143.860 E9.90610
G1 X157.876 Y143.860 E0.09037
G1 X70.155 Y56.140 E9.90610
G1 X71.287 Y56.140 E0.09037
G1 X159.007 Y143.860 E9.90610
G1 X160.139 Y143.860 E0.09037
G1 X72.419 Y56.140 E9.90610
G1 X73.550 Y56.140 E0.09037
G1 X161.271 Y143.860 E9.90610
G1 X162.403 Y143.860 E0.09037
G1 X74.682 Y56.140 E9.90610
G1 X75.814 Y56.140 E0.09037
G1 X163.535 Y143.860 E9.90610
