;(.../Electronics/Eagle/pcb-gcode/pcb-gcode.ulp)
;(Copyright 2005 - 2012 by John Johnson)
;(See readme.txt for licensing terms.)
;(This file generated from the board:)
;(.../WiFi/Electronics/wifiboard-v2.brd)
;(Current profile is .../pcb-gcode/profiles/generic.pp  )
;(This file generated 27/03/2018 13:17)
;(Settings from pcb-machine.h)
;(spindle on time = 1000.0000)
;(spindle speed = 20000.0000)
;(tool change at 0.0000 0.0000 5.0000 )
;(feed rate xy = F0.00  )
;(feed rate z  = F200.00 )
;(Z Axis Settings)
;(  High     Up        Down     Drill)
;(5.0000 	2.0000 	-0.2000 	-2.0000 )
;(Settings from pcb-defaults.h)
;(isolate min = 0.0250)
;(isolate max = 0.5000)
;(isolate step = 0.0800)
;(Generated bottom outlines, bottom drill, )
;(Unit of measure: mm)
;( Tool|       Size       |  Min Sub |  Max Sub |   Count )
;( T01  0.600mm 0.0236in 0.0000in 0.0000in )
;( T02  0.800mm 0.0315in 0.0000in 0.0000in )
;( T03  0.813mm 0.0320in 0.0000in 0.0000in )
;( T04  1.016mm 0.0400in 0.0000in 0.0000in )
;( T05  1.300mm 0.0512in 0.0000in 0.0000in )
;(Metric Mode)
G21
;(Absolute Coordinates)
G90
;S20000
G00 Z5.0000  F3000
G00 X0.0000 Y0.0000  F3000
;M03 S1
G04 P1000.000000
;M03 S0
;M06 T01  ; 0.6000 
G01 Z0.0000 F200.00 
;M06 
G00 Z2.0000  F3000
;M03 S1
G04 P1000.000000
G00 X-12.7000 Y23.1775  F3000
G01 Z-2.0000 F200.00 
G00 Z2.0000  F3000
G00 X-26.9875 Y23.1775  F3000
G01 Z-2.0000 F200.00 
G00 Z2.0000  F3000
G00 X-26.0350 Y14.2875  F3000
G01 Z-2.0000 F200.00 
G00 Z2.0000  F3000
G00 X-40.3225 Y27.6225  F3000
G01 Z-2.0000 F200.00 
G00 Z2.0000  F3000
G00 X-46.0375 Y27.6225  F3000
G01 Z-2.0000 F200.00 
G00 Z2.0000  F3000
G00 X-47.6250 Y28.5750  F3000
G01 Z-2.0000 F200.00 
G00 Z2.0000  F3000
G00 X-52.7050 Y33.6550  F3000
G01 Z-2.0000 F200.00 
G00 Z2.0000  F3000
G00 X-65.4050 Y34.6075  F3000
G01 Z-2.0000 F200.00 
G00 Z2.0000  F3000
G00 X-73.0250 Y26.3525  F3000
G01 Z-2.0000 F200.00 
G00 Z2.0000  F3000
G00 X-75.2475 Y26.9875  F3000
G01 Z-2.0000 F200.00 
G00 Z2.0000  F3000
G00 X-85.0900 Y17.1450  F3000
G01 Z-2.0000 F200.00 
G00 Z2.0000  F3000
G00 X-86.9950 Y17.1450  F3000
G01 Z-2.0000 F200.00 
G00 Z2.0000  F3000
G00 X-92.0750 Y19.6850  F3000
G01 Z-2.0000 F200.00 
G00 Z2.0000  F3000
G00 X-51.1175 Y6.3500  F3000
G01 Z-2.0000 F200.00 
G00 Z2.0000  F3000
G00 X-47.6250 Y1.5875  F3000
G01 Z-2.0000 F200.00 
G00 Z2.0000  F3000
G00 X-26.0350 Y41.2750  F3000
G01 Z-2.0000 F200.00 
G00 Z2.0000  F3000
;M03 S0
G00 Z5.0000  F3000
G00 X0.0000 Y0.0000  F3000
;M06 T02  ; 0.8000 
G01 Z0.0000 F200.00 
;M06 
G00 Z2.0000  F3000
;M03 S1
G04 P1000.000000
G00 X-14.0500 Y5.0800  F3000
G01 Z-2.0000 F200.00 
G00 Z2.0000  F3000
G00 X-18.4150 Y13.3350  F3000
G01 Z-2.0000 F200.00 
G00 Z2.0000  F3000
G00 X-18.4150 Y18.4150  F3000
G01 Z-2.0000 F200.00 
G00 Z2.0000  F3000
G00 X-20.9550 Y28.5750  F3000
G01 Z-2.0000 F200.00 
G00 Z2.0000  F3000
G00 X-20.9550 Y31.1150  F3000
G01 Z-2.0000 F200.00 
G00 Z2.0000  F3000
G00 X-36.7500 Y5.0800  F3000
G01 Z-2.0000 F200.00 
G00 Z2.0000  F3000
;M03 S0
G00 Z5.0000  F3000
G00 X0.0000 Y0.0000  F3000
;M06 T03  ; 0.8128 
G01 Z0.0000 F200.00 
;M06 
G00 Z2.0000  F3000
;M03 S1
G04 P1000.000000
G00 X-33.6550 Y33.9725  F3000
G01 Z-2.0000 F200.00 
G00 Z2.0000  F3000
G00 X-36.1950 Y33.9725  F3000
G01 Z-2.0000 F200.00 
G00 Z2.0000  F3000
G00 X-61.9125 Y35.2425  F3000
G01 Z-2.0000 F200.00 
G00 Z2.0000  F3000
G00 X-61.9125 Y30.1625  F3000
G01 Z-2.0000 F200.00 
G00 Z2.0000  F3000
G00 X-81.9150 Y30.4800  F3000
G01 Z-2.0000 F200.00 
G00 Z2.0000  F3000
G00 X-83.5025 Y23.8125  F3000
G01 Z-2.0000 F200.00 
G00 Z2.0000  F3000
G00 X-88.5825 Y23.8125  F3000
G01 Z-2.0000 F200.00 
G00 Z2.0000  F3000
G00 X-92.0750 Y30.4800  F3000
G01 Z-2.0000 F200.00 
G00 Z2.0000  F3000
;M03 S0
G00 Z5.0000  F3000
G00 X0.0000 Y0.0000  F3000
;M06 T04  ; 1.0160 
G01 Z0.0000 F200.00 
;M06 
G00 Z2.0000  F3000
;M03 S1
G04 P1000.000000
G00 X-40.3225 Y23.1775  F3000
G01 Z-2.0000 F200.00 
G00 Z2.0000  F3000
G00 X-40.3225 Y25.7175  F3000
G01 Z-2.0000 F200.00 
G00 Z2.0000  F3000
G00 X-48.2600 Y25.0825  F3000
G01 Z-2.0000 F200.00 
G00 Z2.0000  F3000
G00 X-48.2600 Y22.5425  F3000
G01 Z-2.0000 F200.00 
G00 Z2.0000  F3000
G00 X-48.2600 Y20.0025  F3000
G01 Z-2.0000 F200.00 
G00 Z2.0000  F3000
G00 X-48.2600 Y17.4625  F3000
G01 Z-2.0000 F200.00 
G00 Z2.0000  F3000
G00 X-48.2600 Y14.9225  F3000
G01 Z-2.0000 F200.00 
G00 Z2.0000  F3000
G00 X-77.4700 Y9.8425  F3000
G01 Z-2.0000 F200.00 
G00 Z2.0000  F3000
G00 X-80.0100 Y9.8425  F3000
G01 Z-2.0000 F200.00 
G00 Z2.0000  F3000
G00 X-82.5500 Y9.8425  F3000
G01 Z-2.0000 F200.00 
G00 Z2.0000  F3000
G00 X-85.0900 Y9.8425  F3000
G01 Z-2.0000 F200.00 
G00 Z2.0000  F3000
G00 X-87.6300 Y9.8425  F3000
G01 Z-2.0000 F200.00 
G00 Z2.0000  F3000
G00 X-90.1700 Y9.8425  F3000
G01 Z-2.0000 F200.00 
G00 Z2.0000  F3000
G00 X-81.5975 Y17.1450  F3000
G01 Z-2.0000 F200.00 
G00 Z2.0000  F3000
G00 X-79.0575 Y17.1450  F3000
G01 Z-2.0000 F200.00 
G00 Z2.0000  F3000
G00 X-92.0750 Y23.8125  F3000
G01 Z-2.0000 F200.00 
G00 Z2.0000  F3000
G00 X-92.0750 Y26.3525  F3000
G01 Z-2.0000 F200.00 
G00 Z2.0000  F3000
;M03 S0
G00 Z5.0000  F3000
G00 X0.0000 Y0.0000  F3000
;M06 T05  ; 1.3000 
G01 Z0.0000 F200.00 
;M06 
G00 Z2.0000  F3000
;M03 S1
G04 P1000.000000
G00 X-6.3250 Y10.1389  F3000
G01 Z-2.0000 F200.00 
G00 Z2.0000  F3000
G00 X-6.3250 Y15.2189  F3000
G01 Z-2.0000 F200.00 
G00 Z2.0000  F3000
G00 X-6.3250 Y27.6014  F3000
G01 Z-2.0000 F200.00 
G00 Z2.0000  F3000
G00 X-6.3250 Y32.6814  F3000
G01 Z-2.0000 F200.00 
G00 Z2.0000  F3000
;T01 
G00 Z5.0000  F3000
;M03 S0
M0
