;(.../Electronics/Eagle/pcb-gcode/pcb-gcode.ulp)
;(Copyright 2005 - 2012 by John Johnson)
;(See readme.txt for licensing terms.)
;(This file generated from the board:)
;(.../WiFi/Electronics/wifiboard.brd)
;(Current profile is .../pcb-gcode/profiles/generic.pp  )
;(This file generated 22/12/2017 14:54)
;(Settings from pcb-machine.h)
;(spindle on time = 1000.0000)
;(spindle speed = 20000.0000)
;(tool change at 0.0000 0.0000 5.0000 )
;(feed rate xy = F0.00  )
;(feed rate z  = F200.00 )
;(Z Axis Settings)
;(  High     Up        Down     Drill)
;(5.0000 	2.0000 	-0.2000 	-2.0000 )
;(Settings from pcb-defaults.h)
;(isolate min = 0.0250)
;(isolate max = 0.5000)
;(isolate step = 0.0800)
;(Generated bottom outlines, bottom drill, )
;(Unit of measure: mm)
;( Tool|       Size       |  Min Sub |  Max Sub |   Count )
;( T01  0.600mm 0.0236in 0.0000in 0.0000in )
;( T02  0.800mm 0.0315in 0.0000in 0.0000in )
;( T03  0.813mm 0.0320in 0.0000in 0.0000in )
;( T04  1.016mm 0.0400in 0.0000in 0.0000in )
;( T05  1.300mm 0.0512in 0.0000in 0.0000in )
;(Metric Mode)
G21
;(Absolute Coordinates)
G90
;S20000
G00 Z5.0000  F3000
G00 X0.0000 Y0.0000  F3000
;M03 S1
G04 P1000.000000
;M03 S0
;M06 T01  ; 0.6000 
G01 Z0.0000 F200.00 
;M06 
G00 Z2.0000  F3000
;M03 S1
G04 P1000.000000
G00 X-12.7000 Y8.8900  F3000
G01 Z-2.0000 F200.00 
G00 Z2.0000  F3000
G00 X-26.6700 Y15.8750  F3000
G01 Z-2.0000 F200.00 
G00 Z2.0000  F3000
G00 X-26.6700 Y39.3700  F3000
G01 Z-2.0000 F200.00 
G00 Z2.0000  F3000
G00 X-12.7000 Y36.8300  F3000
G01 Z-2.0000 F200.00 
G00 Z2.0000  F3000
;M03 S0
G00 Z5.0000  F3000
G00 X0.0000 Y0.0000  F3000
;M06 T02  ; 0.8000 
G01 Z0.0000 F200.00 
;M06 
G00 Z2.0000  F3000
;M03 S1
G04 P1000.000000
G00 X-16.5100 Y12.7000  F3000
G01 Z-2.0000 F200.00 
G00 Z2.0000  F3000
G00 X-16.5100 Y17.7800  F3000
G01 Z-2.0000 F200.00 
G00 Z2.0000  F3000
G00 X-19.0500 Y27.9400  F3000
G01 Z-2.0000 F200.00 
G00 Z2.0000  F3000
G00 X-19.0500 Y30.4800  F3000
G01 Z-2.0000 F200.00 
G00 Z2.0000  F3000
G00 X-22.9400 Y8.8900  F3000
G01 Z-2.0000 F200.00 
G00 Z2.0000  F3000
G00 X-45.6400 Y8.8900  F3000
G01 Z-2.0000 F200.00 
G00 Z2.0000  F3000
;M03 S0
G00 Z5.0000  F3000
G00 X0.0000 Y0.0000  F3000
;M06 T03  ; 0.8128 
G01 Z0.0000 F200.00 
;M06 
G00 Z2.0000  F3000
;M03 S1
G04 P1000.000000
G00 X-83.1850 Y8.2550  F3000
G01 Z-2.0000 F200.00 
G00 Z2.0000  F3000
G00 X-88.2650 Y8.2550  F3000
G01 Z-2.0000 F200.00 
G00 Z2.0000  F3000
G00 X-87.6300 Y17.1450  F3000
G01 Z-2.0000 F200.00 
G00 Z2.0000  F3000
G00 X-87.6300 Y22.2250  F3000
G01 Z-2.0000 F200.00 
G00 Z2.0000  F3000
G00 X-83.1850 Y29.2100  F3000
G01 Z-2.0000 F200.00 
G00 Z2.0000  F3000
G00 X-83.1850 Y39.3700  F3000
G01 Z-2.0000 F200.00 
G00 Z2.0000  F3000
;M03 S0
G00 Z5.0000  F3000
G00 X0.0000 Y0.0000  F3000
;M06 T04  ; 1.0160 
G01 Z0.0000 F200.00 
;M06 
G00 Z2.0000  F3000
;M03 S1
G04 P1000.000000
G00 X-33.0200 Y34.2900  F3000
G01 Z-2.0000 F200.00 
G00 Z2.0000  F3000
G00 X-35.5600 Y34.2900  F3000
G01 Z-2.0000 F200.00 
G00 Z2.0000  F3000
G00 X-53.3400 Y31.7500  F3000
G01 Z-2.0000 F200.00 
G00 Z2.0000  F3000
G00 X-53.3400 Y29.2100  F3000
G01 Z-2.0000 F200.00 
G00 Z2.0000  F3000
G00 X-53.3400 Y26.6700  F3000
G01 Z-2.0000 F200.00 
G00 Z2.0000  F3000
G00 X-53.3400 Y24.1300  F3000
G01 Z-2.0000 F200.00 
G00 Z2.0000  F3000
G00 X-53.3400 Y21.5900  F3000
G01 Z-2.0000 F200.00 
G00 Z2.0000  F3000
G00 X-53.3400 Y19.0500  F3000
G01 Z-2.0000 F200.00 
G00 Z2.0000  F3000
G00 X-53.3400 Y16.5100  F3000
G01 Z-2.0000 F200.00 
G00 Z2.0000  F3000
G00 X-53.3400 Y13.9700  F3000
G01 Z-2.0000 F200.00 
G00 Z2.0000  F3000
G00 X-76.2000 Y13.9700  F3000
G01 Z-2.0000 F200.00 
G00 Z2.0000  F3000
G00 X-76.2000 Y16.5100  F3000
G01 Z-2.0000 F200.00 
G00 Z2.0000  F3000
G00 X-76.2000 Y19.0500  F3000
G01 Z-2.0000 F200.00 
G00 Z2.0000  F3000
G00 X-76.2000 Y21.5900  F3000
G01 Z-2.0000 F200.00 
G00 Z2.0000  F3000
G00 X-76.2000 Y24.1300  F3000
G01 Z-2.0000 F200.00 
G00 Z2.0000  F3000
G00 X-76.2000 Y26.6700  F3000
G01 Z-2.0000 F200.00 
G00 Z2.0000  F3000
G00 X-76.2000 Y29.2100  F3000
G01 Z-2.0000 F200.00 
G00 Z2.0000  F3000
G00 X-76.2000 Y31.7500  F3000
G01 Z-2.0000 F200.00 
G00 Z2.0000  F3000
G00 X-80.0100 Y26.6700  F3000
G01 Z-2.0000 F200.00 
G00 Z2.0000  F3000
G00 X-80.0100 Y24.1300  F3000
G01 Z-2.0000 F200.00 
G00 Z2.0000  F3000
G00 X-80.0100 Y21.5900  F3000
G01 Z-2.0000 F200.00 
G00 Z2.0000  F3000
G00 X-80.0100 Y19.0500  F3000
G01 Z-2.0000 F200.00 
G00 Z2.0000  F3000
G00 X-80.0100 Y16.5100  F3000
G01 Z-2.0000 F200.00 
G00 Z2.0000  F3000
G00 X-90.1700 Y27.9400  F3000
G01 Z-2.0000 F200.00 
G00 Z2.0000  F3000
G00 X-90.1700 Y30.4800  F3000
G01 Z-2.0000 F200.00 
G00 Z2.0000  F3000
;M03 S0
G00 Z5.0000  F3000
G00 X0.0000 Y0.0000  F3000
;M06 T05  ; 1.3000 
G01 Z0.0000 F200.00 
;M06 
G00 Z2.0000  F3000
;M03 S1
G04 P1000.000000
G00 X-6.3250 Y8.8689  F3000
G01 Z-2.0000 F200.00 
G00 Z2.0000  F3000
G00 X-6.3250 Y13.9489  F3000
G01 Z-2.0000 F200.00 
G00 Z2.0000  F3000
G00 X-6.3250 Y25.3789  F3000
G01 Z-2.0000 F200.00 
G00 Z2.0000  F3000
G00 X-6.3250 Y30.4589  F3000
G01 Z-2.0000 F200.00 
G00 Z2.0000  F3000
;T01 
G00 Z5.0000  F3000
;M03 S0
M0
