;(.../Electronics/Eagle/pcb-gcode/pcb-gcode.ulp)
;(Copyright 2005 - 2012 by John Johnson)
;(See readme.txt for licensing terms.)
;(This file generated from the board:)
;(.../WiFi/Electronics/wifiboard-v2.brd)
;(Current profile is .../pcb-gcode/profiles/generic.pp  )
;(This file generated 08/05/2018 12:00)
;(Settings from pcb-machine.h)
;(spindle on time = 1000.0000)
;(  Tool Size)
;(0.1778 )
;(spindle speed = 30000.0000)
;(tool change at 0.0000 0.0000 5.0000 )
;(feed rate xy = F500.00 )
;(feed rate z  = F200.00 )
;(Z Axis Settings)
;(  High     Up        Down     Drill)
;(5.0000 	2.0000 	-0.2000 	-2.0000 )
;(Settings from pcb-defaults.h)
;(isolate min = 0.0250)
;(isolate max = 0.5000)
;(isolate step = 0.0800)
;(Generated bottom outlines, bottom drill, )
;(Unit of measure: mm)
;(Metric Mode)
G21
;(Absolute Coordinates)
G90
;S30000
G00 Z5.0000  F3000
G00 X0.0000 Y0.0000  F3000
;M03 S1
G04 P1000.000000
G00 Z2.0000  F3000
G00 X-5.4050 Y9.3532  F3000
G01 Z-0.2000 F200.00 
G01 X-5.2934 Y9.5068 F500.00 
G01 X-5.2073 Y9.6759 
G01 X-5.1486 Y9.8565 
G01 X-5.1189 Y10.0440 
G01 X-5.1189 Y10.2338 
G01 X-5.1486 Y10.4213 
G01 X-5.2073 Y10.6019 
G01 X-5.2934 Y10.7710 
G01 X-5.4050 Y10.9246 
G01 X-5.5393 Y11.0589 
G01 X-5.6929 Y11.1704 
G01 X-5.8620 Y11.2566 
G01 X-6.0426 Y11.3153 
G01 X-6.2301 Y11.3450 
G01 X-6.4660 Y11.3450 
G01 X-6.6535 Y11.3153 
G01 X-6.8341 Y11.2566 
G01 X-7.0032 Y11.1704 
G01 X-7.1568 Y11.0589 
G01 X-11.9296 Y6.2861 
G01 X-13.3688 Y6.2861 
G01 X-13.5188 Y6.3625 
G01 X-13.7259 Y6.4298 
G01 X-13.9411 Y6.4639 
G01 X-14.1589 Y6.4639 
G01 X-14.3741 Y6.4298 
G01 X-14.5812 Y6.3625 
G01 X-14.7753 Y6.2636 
G01 X-14.9515 Y6.1356 
G01 X-15.1056 Y5.9815 
G01 X-15.2336 Y5.8053 
G01 X-15.3325 Y5.6112 
G01 X-15.3998 Y5.4041 
G01 X-15.4339 Y5.1889 
G01 X-15.4339 Y4.9711 
G01 X-15.3998 Y4.7559 
G01 X-15.3325 Y4.5488 
G01 X-15.2336 Y4.3547 
G01 X-15.1056 Y4.1784 
G01 X-14.9515 Y4.0244 
G01 X-14.7753 Y3.8964 
G01 X-14.5812 Y3.7975 
G01 X-14.3741 Y3.7302 
G01 X-14.1589 Y3.6961 
G01 X-13.9411 Y3.6961 
G01 X-13.7259 Y3.7302 
G01 X-13.5188 Y3.7975 
G01 X-13.3688 Y3.8739 
G01 X-11.3351 Y3.8739 
G01 X-11.1476 Y3.9036 
G01 X-10.9670 Y3.9623 
G01 X-10.7979 Y4.0484 
G01 X-10.6443 Y4.1600 
G01 X-10.5100 Y4.2943 
G01 X-5.7012 Y9.1031 
G01 X-5.6929 Y9.1074 
G01 X-5.5393 Y9.2189 
G01 X-5.4050 Y9.3532 
G00 Z2.0000  F3000
G00 X-5.5393 Y14.2989  F3000
G01 Z-0.2000 F200.00 
G01 X-1.3025 Y18.5357 F500.00 
G01 X-1.1909 Y18.6893 
G01 X-1.1048 Y18.8584 
G01 X-1.0461 Y19.0390 
G01 X-1.0164 Y19.2265 
G01 X-1.0164 Y30.8924 
G01 X-1.0461 Y31.0799 
G01 X-1.1048 Y31.2605 
G01 X-1.1909 Y31.4296 
G01 X-1.3025 Y31.5832 
G01 X-1.4368 Y31.7175 
G01 X-3.3207 Y33.6014 
G01 X-3.4743 Y33.7129 
G01 X-3.6434 Y33.7991 
G01 X-3.8240 Y33.8578 
G01 X-4.0115 Y33.8875 
G01 X-4.2013 Y33.8875 
G01 X-6.2301 Y33.8875 
G01 X-10.2760 Y33.8875 
G01 X-10.4635 Y33.8578 
G01 X-10.6441 Y33.7991 
G01 X-10.8132 Y33.7129 
G01 X-10.9668 Y33.6014 
G01 X-11.8982 Y32.6700 
G01 X-12.0325 Y32.5357 
G01 X-12.1440 Y32.3821 
G01 X-12.2302 Y32.2130 
G01 X-12.2889 Y32.0324 
G01 X-12.3186 Y31.8449 
G01 X-12.3186 Y25.2646 
G01 X-13.0712 Y24.5120 
G01 X-13.2312 Y24.4600 
G01 X-13.4253 Y24.3611 
G01 X-13.6015 Y24.2331 
G01 X-13.7556 Y24.0790 
G01 X-13.8836 Y23.9028 
G01 X-13.9825 Y23.7087 
G01 X-14.0498 Y23.5016 
G01 X-14.0839 Y23.2864 
G01 X-14.0839 Y23.0686 
G01 X-14.0498 Y22.8534 
G01 X-13.9825 Y22.6463 
G01 X-13.8836 Y22.4522 
G01 X-13.7556 Y22.2760 
G01 X-13.6015 Y22.1219 
G01 X-13.4253 Y21.9939 
G01 X-13.2312 Y21.8950 
G01 X-13.0241 Y21.8277 
G01 X-12.8089 Y21.7936 
G01 X-12.5911 Y21.7936 
G01 X-12.3759 Y21.8277 
G01 X-12.1688 Y21.8950 
G01 X-11.9747 Y21.9939 
G01 X-11.7985 Y22.1219 
G01 X-11.6444 Y22.2760 
G01 X-11.5164 Y22.4522 
G01 X-11.4175 Y22.6463 
G01 X-11.3655 Y22.8063 
G01 X-10.9140 Y23.2578 
G01 X-10.8301 Y23.2711 
G01 X-10.6495 Y23.3298 
G01 X-10.4804 Y23.4159 
G01 X-10.3268 Y23.5275 
G01 X-10.1925 Y23.6618 
G01 X-10.0809 Y23.8154 
G01 X-9.9948 Y23.9845 
G01 X-9.9361 Y24.1651 
G01 X-9.9064 Y24.3526 
G01 X-9.9064 Y31.2504 
G01 X-9.6815 Y31.4753 
G01 X-4.6060 Y31.4753 
G01 X-3.4286 Y30.2979 
G01 X-3.4286 Y19.8210 
G01 X-7.2450 Y16.0046 
G01 X-7.3565 Y15.8510 
G01 X-7.4427 Y15.6819 
G01 X-7.5014 Y15.5013 
G01 X-7.5311 Y15.3138 
G01 X-7.5311 Y15.1240 
G01 X-7.5014 Y14.9365 
G01 X-7.4427 Y14.7559 
G01 X-7.3565 Y14.5868 
G01 X-7.2450 Y14.4332 
G01 X-7.1107 Y14.2989 
G01 X-6.9571 Y14.1874 
G01 X-6.7880 Y14.1012 
G01 X-6.6074 Y14.0425 
G01 X-6.4199 Y14.0128 
G01 X-6.2301 Y14.0128 
G01 X-6.0426 Y14.0425 
G01 X-5.8620 Y14.1012 
G01 X-5.6929 Y14.1874 
G01 X-5.5393 Y14.2989 
G00 Z2.0000  F3000
G00 X-5.4050 Y19.8768  F3000
G01 Z-0.2000 F200.00 
G01 X-5.2934 Y20.0304 F500.00 
G01 X-5.2073 Y20.1995 
G01 X-5.1486 Y20.3801 
G01 X-5.1189 Y20.5676 
G01 X-5.1189 Y27.6963 
G01 X-5.1486 Y27.8838 
G01 X-5.2073 Y28.0644 
G01 X-5.2934 Y28.2335 
G01 X-5.4050 Y28.3871 
G01 X-5.5393 Y28.5214 
G01 X-5.6929 Y28.6329 
G01 X-5.8620 Y28.7191 
G01 X-6.0426 Y28.7778 
G01 X-6.2301 Y28.8075 
G01 X-6.4199 Y28.8075 
G01 X-6.6074 Y28.7778 
G01 X-6.7880 Y28.7191 
G01 X-6.9571 Y28.6329 
G01 X-7.1107 Y28.5214 
G01 X-7.2450 Y28.3871 
G01 X-7.3565 Y28.2335 
G01 X-7.4427 Y28.0644 
G01 X-7.5014 Y27.8838 
G01 X-7.5311 Y27.6963 
G01 X-7.5311 Y21.1621 
G01 X-14.1521 Y14.5411 
G01 X-18.5099 Y14.5411 
G01 X-18.6974 Y14.5114 
G01 X-18.8780 Y14.4527 
G01 X-19.0471 Y14.3665 
G01 X-19.0866 Y14.3379 
G01 X-19.4028 Y14.3379 
G01 X-19.5965 Y14.2994 
G01 X-19.7791 Y14.2238 
G01 X-19.9433 Y14.1140 
G01 X-20.0830 Y13.9743 
G01 X-20.1928 Y13.8101 
G01 X-20.2684 Y13.6275 
G01 X-20.3069 Y13.4338 
G01 X-20.3069 Y13.2362 
G01 X-20.2684 Y13.0425 
G01 X-20.1928 Y12.8599 
G01 X-20.0830 Y12.6957 
G01 X-19.9433 Y12.5560 
G01 X-19.7791 Y12.4462 
G01 X-19.5965 Y12.3706 
G01 X-19.4028 Y12.3321 
G01 X-19.0866 Y12.3321 
G01 X-19.0471 Y12.3034 
G01 X-18.8780 Y12.2173 
G01 X-18.6974 Y12.1586 
G01 X-18.5099 Y12.1289 
G01 X-13.5576 Y12.1289 
G01 X-13.3701 Y12.1586 
G01 X-13.1895 Y12.2173 
G01 X-13.0204 Y12.3034 
G01 X-12.8668 Y12.4150 
G01 X-12.7325 Y12.5493 
G01 X-5.4050 Y19.8768 
G00 Z2.0000  F3000
G00 X-16.8867 Y19.1940  F3000
G01 Z-0.2000 F200.00 
G01 X-17.0509 Y19.3038 F500.00 
G01 X-17.2335 Y19.3794 
G01 X-17.4272 Y19.4179 
G01 X-17.7434 Y19.4179 
G01 X-17.7829 Y19.4465 
G01 X-17.9520 Y19.5327 
G01 X-18.1326 Y19.5914 
G01 X-18.3201 Y19.6211 
G01 X-22.0024 Y19.6211 
G01 X-22.1899 Y19.5914 
G01 X-22.3705 Y19.5327 
G01 X-22.5396 Y19.4465 
G01 X-22.6932 Y19.3350 
G01 X-22.8275 Y19.2007 
G01 X-26.4062 Y15.6220 
G01 X-26.5662 Y15.5700 
G01 X-26.7603 Y15.4711 
G01 X-26.9365 Y15.3431 
G01 X-27.0906 Y15.1890 
G01 X-27.2186 Y15.0128 
G01 X-27.3175 Y14.8187 
G01 X-27.3848 Y14.6116 
G01 X-27.4189 Y14.3964 
G01 X-27.4189 Y14.1786 
G01 X-27.3848 Y13.9634 
G01 X-27.3175 Y13.7563 
G01 X-27.2411 Y13.6063 
G01 X-27.2411 Y10.0246 
G01 X-30.9796 Y6.2861 
G01 X-36.0688 Y6.2861 
G01 X-36.2188 Y6.3625 
G01 X-36.4259 Y6.4298 
G01 X-36.6411 Y6.4639 
G01 X-36.8589 Y6.4639 
G01 X-37.0741 Y6.4298 
G01 X-37.2812 Y6.3625 
G01 X-37.4753 Y6.2636 
G01 X-37.6515 Y6.1356 
G01 X-37.8056 Y5.9815 
G01 X-37.9336 Y5.8053 
G01 X-38.0325 Y5.6112 
G01 X-38.0998 Y5.4041 
G01 X-38.1339 Y5.1889 
G01 X-38.1339 Y4.9711 
G01 X-38.0998 Y4.7559 
G01 X-38.0325 Y4.5488 
G01 X-37.9336 Y4.3547 
G01 X-37.8056 Y4.1784 
G01 X-37.6515 Y4.0244 
G01 X-37.4753 Y3.8964 
G01 X-37.2812 Y3.7975 
G01 X-37.0741 Y3.7302 
G01 X-36.8589 Y3.6961 
G01 X-36.6411 Y3.6961 
G01 X-36.4259 Y3.7302 
G01 X-36.2188 Y3.7975 
G01 X-36.0688 Y3.8739 
G01 X-30.3851 Y3.8739 
G01 X-30.1976 Y3.9036 
G01 X-30.0170 Y3.9623 
G01 X-29.8479 Y4.0484 
G01 X-29.6943 Y4.1600 
G01 X-25.2493 Y8.6050 
G01 X-25.1150 Y8.7393 
G01 X-25.0035 Y8.8929 
G01 X-24.9173 Y9.0620 
G01 X-24.8586 Y9.2426 
G01 X-24.8289 Y9.4301 
G01 X-24.8289 Y13.6063 
G01 X-24.7525 Y13.7563 
G01 X-24.7005 Y13.9163 
G01 X-21.4079 Y17.2089 
G01 X-18.3201 Y17.2089 
G01 X-18.1326 Y17.2386 
G01 X-17.9520 Y17.2973 
G01 X-17.7829 Y17.3834 
G01 X-17.7434 Y17.4121 
G01 X-17.4272 Y17.4121 
G01 X-17.2335 Y17.4506 
G01 X-17.0509 Y17.5262 
G01 X-16.8867 Y17.6360 
G01 X-16.7470 Y17.7757 
G01 X-16.6372 Y17.9399 
G01 X-16.5616 Y18.1225 
G01 X-16.5231 Y18.3162 
G01 X-16.5231 Y18.5138 
G01 X-16.5616 Y18.7075 
G01 X-16.6372 Y18.8900 
G01 X-16.7470 Y19.0543 
G01 X-16.8867 Y19.1940 
G00 Z2.0000  F3000
G00 X-16.9995 Y27.4573  F3000
G01 Z-0.2000 F200.00 
G01 X-16.8304 Y27.5434 F500.00 
G01 X-16.6768 Y27.6550 
G01 X-16.5425 Y27.7893 
G01 X-15.2725 Y29.0593 
G01 X-15.1609 Y29.2129 
G01 X-15.0748 Y29.3820 
G01 X-15.0161 Y29.5626 
G01 X-14.9864 Y29.7501 
G01 X-14.9864 Y37.2424 
G01 X-15.0161 Y37.4299 
G01 X-15.0748 Y37.6105 
G01 X-15.1609 Y37.7796 
G01 X-15.2725 Y37.9332 
G01 X-15.4068 Y38.0675 
G01 X-19.8518 Y42.5125 
G01 X-20.0054 Y42.6240 
G01 X-20.1745 Y42.7102 
G01 X-20.3551 Y42.7689 
G01 X-20.5426 Y42.7986 
G01 X-83.2799 Y42.7986 
G01 X-83.4674 Y42.7689 
G01 X-83.6480 Y42.7102 
G01 X-83.8171 Y42.6240 
G01 X-83.9707 Y42.5125 
G01 X-84.1050 Y42.3782 
G01 X-92.8607 Y33.6225 
G01 X-92.9950 Y33.4882 
G01 X-93.1065 Y33.3346 
G01 X-93.1927 Y33.1655 
G01 X-93.2514 Y32.9849 
G01 X-93.2811 Y32.7974 
G01 X-93.2811 Y27.5276 
G01 X-93.2514 Y27.3401 
G01 X-93.1927 Y27.1595 
G01 X-93.1901 Y27.1543 
G01 X-93.2519 Y27.1287 
G01 X-93.3954 Y27.0329 
G01 X-93.5174 Y26.9109 
G01 X-93.6132 Y26.7674 
G01 X-93.6792 Y26.6080 
G01 X-93.7129 Y26.4388 
G01 X-93.7129 Y26.2662 
G01 X-93.6792 Y26.0970 
G01 X-93.6132 Y25.9376 
G01 X-93.5174 Y25.7941 
G01 X-93.3954 Y25.6721 
G01 X-93.2519 Y25.5763 
G01 X-93.0925 Y25.5103 
G01 X-92.9233 Y25.4766 
G01 X-92.4484 Y25.4766 
G01 X-92.3527 Y25.4370 
G01 X-92.1688 Y25.4004 
G01 X-91.9812 Y25.4004 
G01 X-91.7973 Y25.4370 
G01 X-91.7016 Y25.4766 
G01 X-91.2267 Y25.4766 
G01 X-91.0575 Y25.5103 
G01 X-90.8981 Y25.5763 
G01 X-90.7546 Y25.6721 
G01 X-90.6326 Y25.7941 
G01 X-90.5368 Y25.9376 
G01 X-90.4708 Y26.0970 
G01 X-90.4371 Y26.2662 
G01 X-90.4371 Y26.4388 
G01 X-90.4708 Y26.6080 
G01 X-90.5368 Y26.7674 
G01 X-90.6326 Y26.9109 
G01 X-90.7546 Y27.0329 
G01 X-90.8981 Y27.1287 
G01 X-90.9599 Y27.1543 
G01 X-90.9573 Y27.1595 
G01 X-90.8986 Y27.3401 
G01 X-90.8689 Y27.5276 
G01 X-90.8689 Y32.2029 
G01 X-82.6854 Y40.3864 
G01 X-27.1000 Y40.3864 
G01 X-27.0906 Y40.3734 
G01 X-26.9365 Y40.2194 
G01 X-26.7603 Y40.0914 
G01 X-26.5662 Y39.9925 
G01 X-26.3591 Y39.9252 
G01 X-26.1439 Y39.8911 
G01 X-25.9261 Y39.8911 
G01 X-25.7109 Y39.9252 
G01 X-25.5038 Y39.9925 
G01 X-25.3097 Y40.0914 
G01 X-25.1334 Y40.2194 
G01 X-24.9794 Y40.3734 
G01 X-24.9700 Y40.3864 
G01 X-21.1371 Y40.3864 
G01 X-17.3986 Y36.6479 
G01 X-17.3986 Y30.3446 
G01 X-17.9621 Y29.7811 
G01 X-19.1449 Y29.7811 
G01 X-19.3324 Y29.7514 
G01 X-19.5130 Y29.6927 
G01 X-19.6821 Y29.6065 
G01 X-19.7744 Y29.5395 
G01 X-19.9672 Y29.5779 
G01 X-21.9428 Y29.5779 
G01 X-22.1365 Y29.5394 
G01 X-22.1968 Y29.5144 
G01 X-24.4606 Y29.5144 
G01 X-24.4606 Y33.0812 
G01 X-24.4845 Y33.2014 
G01 X-24.5314 Y33.3146 
G01 X-24.5994 Y33.4164 
G01 X-24.6861 Y33.5031 
G01 X-25.8694 Y34.6864 
G01 X-25.9561 Y34.7731 
G01 X-26.0579 Y34.8411 
G01 X-26.1711 Y34.8880 
G01 X-26.2912 Y34.9119 
G01 X-27.4961 Y34.9119 
G01 X-27.4961 Y35.0627 
G01 X-27.5134 Y35.1045 
G01 X-27.5455 Y35.1366 
G01 X-27.5873 Y35.1539 
G01 X-28.9327 Y35.1539 
G01 X-28.9745 Y35.1366 
G01 X-29.0066 Y35.1045 
G01 X-29.0239 Y35.0627 
G01 X-29.0239 Y33.5173 
G01 X-29.0066 Y33.4755 
G01 X-28.9745 Y33.4434 
G01 X-28.9327 Y33.4261 
G01 X-27.5873 Y33.4261 
G01 X-27.5455 Y33.4434 
G01 X-27.5134 Y33.4755 
G01 X-27.4961 Y33.5173 
G01 X-27.4961 Y33.6681 
G01 X-26.6101 Y33.6681 
G01 X-25.7044 Y32.7624 
G01 X-25.7044 Y28.8312 
G01 X-25.6805 Y28.7111 
G01 X-25.6336 Y28.5979 
G01 X-25.5656 Y28.4961 
G01 X-25.4789 Y28.4094 
G01 X-25.3771 Y28.3414 
G01 X-25.2639 Y28.2945 
G01 X-25.1438 Y28.2706 
G01 X-22.8034 Y28.2706 
G01 X-22.7328 Y28.0999 
G01 X-22.6230 Y27.9357 
G01 X-22.4833 Y27.7960 
G01 X-22.3191 Y27.6862 
G01 X-22.1365 Y27.6106 
G01 X-21.9428 Y27.5721 
G01 X-19.9672 Y27.5721 
G01 X-19.7744 Y27.6105 
G01 X-19.6821 Y27.5434 
G01 X-19.5130 Y27.4573 
G01 X-19.3324 Y27.3986 
G01 X-19.1449 Y27.3689 
G01 X-17.3676 Y27.3689 
G01 X-17.1801 Y27.3986 
G01 X-16.9995 Y27.4573 
G00 Z2.0000  F3000
G00 X-19.2870 Y30.4757  F3000
G01 Z-0.2000 F200.00 
G01 X-19.1772 Y30.6399 F500.00 
G01 X-19.1016 Y30.8225 
G01 X-19.0631 Y31.0162 
G01 X-19.0631 Y31.2138 
G01 X-19.1016 Y31.4075 
G01 X-19.1772 Y31.5901 
G01 X-19.2870 Y31.7543 
G01 X-19.4267 Y31.8940 
G01 X-19.5909 Y32.0038 
G01 X-19.7735 Y32.0794 
G01 X-19.9672 Y32.1179 
G01 X-21.3364 Y32.1179 
G01 X-21.3364 Y35.3374 
G01 X-21.3661 Y35.5249 
G01 X-21.4248 Y35.7055 
G01 X-21.5110 Y35.8746 
G01 X-21.6225 Y36.0282 
G01 X-23.8450 Y38.2507 
G01 X-23.9793 Y38.3850 
G01 X-24.1329 Y38.4965 
G01 X-24.3020 Y38.5827 
G01 X-24.4826 Y38.6414 
G01 X-24.6701 Y38.6711 
G01 X-37.9856 Y38.6711 
G01 X-37.9856 Y38.9482 
G01 X-38.0029 Y38.9900 
G01 X-38.0350 Y39.0221 
G01 X-38.0768 Y39.0394 
G01 X-43.8372 Y39.0394 
G01 X-43.8790 Y39.0221 
G01 X-43.9111 Y38.9900 
G01 X-43.9284 Y38.9482 
G01 X-43.9284 Y34.0768 
G01 X-43.9111 Y34.0350 
G01 X-43.8790 Y34.0029 
G01 X-43.8372 Y33.9856 
G01 X-39.1786 Y33.9856 
G01 X-39.1786 Y33.8876 
G01 X-39.1520 Y33.7198 
G01 X-39.0995 Y33.5583 
G01 X-39.0224 Y33.4069 
G01 X-38.9226 Y33.2695 
G01 X-38.8025 Y33.1494 
G01 X-38.6651 Y33.0496 
G01 X-38.5137 Y32.9725 
G01 X-38.3522 Y32.9200 
G01 X-38.1844 Y32.8934 
G01 X-36.1101 Y32.8934 
G01 X-35.9423 Y32.9200 
G01 X-35.7808 Y32.9725 
G01 X-35.6294 Y33.0496 
G01 X-35.4920 Y33.1494 
G01 X-35.3719 Y33.2695 
G01 X-35.2721 Y33.4069 
G01 X-35.1950 Y33.5583 
G01 X-35.1425 Y33.7198 
G01 X-35.1159 Y33.8876 
G01 X-35.1159 Y34.0574 
G01 X-35.1425 Y34.2252 
G01 X-35.1950 Y34.3867 
G01 X-35.2721 Y34.5381 
G01 X-35.3719 Y34.6755 
G01 X-35.4920 Y34.7956 
G01 X-35.6294 Y34.8954 
G01 X-35.7808 Y34.9725 
G01 X-35.9423 Y35.0250 
G01 X-36.1101 Y35.0516 
G01 X-37.9856 Y35.0516 
G01 X-37.9856 Y36.2589 
G01 X-25.2646 Y36.2589 
G01 X-23.7486 Y34.7429 
G01 X-23.7486 Y31.3376 
G01 X-23.7189 Y31.1501 
G01 X-23.6602 Y30.9695 
G01 X-23.5740 Y30.8004 
G01 X-23.4625 Y30.6468 
G01 X-23.3282 Y30.5125 
G01 X-23.1746 Y30.4010 
G01 X-23.0055 Y30.3148 
G01 X-22.8249 Y30.2561 
G01 X-22.6374 Y30.2264 
G01 X-22.5677 Y30.2264 
G01 X-22.5027 Y30.1995 
G01 X-22.3188 Y30.1629 
G01 X-22.1661 Y30.1629 
G01 X-22.1365 Y30.1506 
G01 X-21.9428 Y30.1121 
G01 X-19.9672 Y30.1121 
G01 X-19.7735 Y30.1506 
G01 X-19.5909 Y30.2262 
G01 X-19.4267 Y30.3360 
G01 X-19.2870 Y30.4757 
G00 Z2.0000  F3000
G00 X-24.9460 Y28.1569  F3000
G01 Z-0.2000 F200.00 
G01 X-25.0346 Y28.1936 F500.00 
G01 X-25.2215 Y28.1936 
G01 X-25.4784 Y28.3000 
G01 X-25.6750 Y28.4966 
G01 X-25.7814 Y28.7535 
G01 X-25.7814 Y32.6786 
G01 X-25.8181 Y32.7672 
G01 X-26.5376 Y33.4867 
G01 X-26.6053 Y33.5544 
G01 X-26.6939 Y33.5911 
G01 X-27.2371 Y33.5911 
G01 X-27.3256 Y33.5544 
G01 X-27.5309 Y33.3491 
G01 X-28.9891 Y33.3491 
G01 X-29.0058 Y33.3658 
G01 X-29.0735 Y33.4336 
G01 X-29.1265 Y33.4555 
G01 X-29.1621 Y33.4702 
G01 X-29.2579 Y33.4702 
G01 X-29.3465 Y33.4336 
G01 X-29.4309 Y33.3491 
G01 X-31.0041 Y33.3491 
G01 X-31.0926 Y33.3124 
G01 X-31.4126 Y32.9924 
G01 X-31.8375 Y32.8164 
G01 X-33.8850 Y32.8164 
G01 X-34.3099 Y32.9924 
G01 X-34.6351 Y33.3176 
G01 X-34.7208 Y33.5245 
G01 X-34.7885 Y33.5922 
G01 X-34.8746 Y33.6279 
G01 X-34.8771 Y33.6289 
G01 X-34.9729 Y33.6289 
G01 X-35.0615 Y33.5922 
G01 X-35.1292 Y33.5245 
G01 X-35.1659 Y33.4359 
G01 X-35.2149 Y33.3176 
G01 X-35.5401 Y32.9924 
G01 X-35.9650 Y32.8164 
G01 X-38.3295 Y32.8164 
G01 X-38.7544 Y32.9924 
G01 X-39.0796 Y33.3176 
G01 X-39.2444 Y33.7156 
G01 X-39.2811 Y33.8042 
G01 X-39.3489 Y33.8719 
G01 X-39.4374 Y33.9086 
G01 X-43.8936 Y33.9086 
G01 X-44.0054 Y34.0204 
G01 X-44.0054 Y39.0046 
G01 X-43.8936 Y39.1164 
G01 X-38.0204 Y39.1164 
G01 X-37.9086 Y39.0046 
G01 X-37.9086 Y38.9411 
G01 X-37.8719 Y38.8525 
G01 X-37.8042 Y38.7848 
G01 X-37.7156 Y38.7481 
G01 X-25.0346 Y38.7481 
G01 X-24.9460 Y38.7848 
G01 X-24.8783 Y38.8525 
G01 X-24.8416 Y38.9411 
G01 X-24.8416 Y39.8754 
G01 X-24.8783 Y39.9640 
G01 X-24.9460 Y40.0317 
G01 X-24.9486 Y40.0328 
G01 X-25.0346 Y40.0684 
G01 X-25.1304 Y40.0684 
G01 X-25.7444 Y39.8141 
G01 X-26.3256 Y39.8141 
G01 X-26.8625 Y40.0365 
G01 X-27.0310 Y40.2050 
G01 X-27.0987 Y40.2727 
G01 X-27.1873 Y40.3094 
G01 X-65.5244 Y40.3094 
G01 X-65.5722 Y40.3094 
G01 X-65.6187 Y40.3094 
G01 X-65.6216 Y40.3088 
G01 X-65.6643 Y40.2905 
G01 X-65.7072 Y40.2727 
G01 X-65.7097 Y40.2710 
G01 X-65.7422 Y40.2377 
G01 X-65.7750 Y40.2050 
G01 X-65.7766 Y40.2025 
G01 X-65.7939 Y40.1593 
G01 X-65.8117 Y40.1164 
G01 X-65.8122 Y40.1135 
G01 X-65.8117 Y40.0671 
G01 X-65.8117 Y40.0206 
G01 X-65.8111 Y40.0176 
G01 X-65.7928 Y39.9749 
G01 X-65.7750 Y39.9320 
G01 X-65.7733 Y39.9296 
G01 X-65.7400 Y39.8970 
G01 X-65.7072 Y39.8643 
G01 X-65.7047 Y39.8626 
G01 X-65.6616 Y39.8454 
G01 X-65.6187 Y39.8276 
G01 X-65.4073 Y39.7437 
G01 X-65.3644 Y39.7259 
G01 X-65.3615 Y39.7253 
G01 X-65.3150 Y39.7259 
G01 X-64.0384 Y39.7259 
G01 X-64.0217 Y39.7092 
G01 X-63.9539 Y39.6414 
G01 X-63.9010 Y39.6195 
G01 X-63.8654 Y39.6048 
G01 X-63.7696 Y39.6048 
G01 X-63.6810 Y39.6414 
G01 X-63.5966 Y39.7259 
G01 X-62.1384 Y39.7259 
G01 X-62.0175 Y39.6050 
G01 X-61.9899 Y39.5383 
G01 X-61.9222 Y39.4706 
G01 X-61.8336 Y39.4339 
G01 X-51.1416 Y39.4339 
G01 X-51.1396 Y39.4331 
G01 X-51.0939 Y39.4339 
G01 X-51.0480 Y39.4339 
G01 X-51.0460 Y39.4348 
G01 X-49.7847 Y39.4572 
G01 X-49.7389 Y39.4572 
G01 X-49.7368 Y39.4580 
G01 X-49.7346 Y39.4581 
G01 X-49.6926 Y39.4763 
G01 X-49.6503 Y39.4939 
G01 X-49.6467 Y39.4963 
G01 X-49.6149 Y39.5293 
G01 X-49.5826 Y39.5616 
G01 X-49.5817 Y39.5637 
G01 X-49.5634 Y39.6078 
G01 X-49.5459 Y39.6502 
G01 X-49.5459 Y39.6524 
G01 X-49.5451 Y39.6545 
G01 X-49.5454 Y39.6721 
G01 X-49.4341 Y39.7834 
G01 X-46.2759 Y39.7834 
G01 X-46.1641 Y39.6716 
G01 X-46.1641 Y37.9134 
G01 X-46.2759 Y37.8016 
G01 X-49.4341 Y37.8016 
G01 X-49.5794 Y37.9469 
G01 X-49.5826 Y37.9546 
G01 X-49.5850 Y37.9583 
G01 X-49.6180 Y37.9901 
G01 X-49.6503 Y38.0224 
G01 X-49.6524 Y38.0233 
G01 X-49.6966 Y38.0416 
G01 X-49.7389 Y38.0591 
G01 X-49.7411 Y38.0591 
G01 X-49.7432 Y38.0599 
G01 X-49.7890 Y38.0591 
G01 X-49.8347 Y38.0591 
G01 X-49.8368 Y38.0582 
G01 X-50.8947 Y38.0394 
G01 X-50.9405 Y38.0394 
G01 X-50.9426 Y38.0386 
G01 X-50.9447 Y38.0385 
G01 X-50.9503 Y38.0361 
G01 X-51.0335 Y38.0361 
G01 X-51.0356 Y38.0369 
G01 X-51.0814 Y38.0361 
G01 X-51.1271 Y38.0361 
G01 X-51.1292 Y38.0352 
G01 X-51.2122 Y38.0338 
G01 X-51.2178 Y38.0361 
G01 X-51.2201 Y38.0361 
G01 X-51.2221 Y38.0369 
G01 X-51.2679 Y38.0361 
G01 X-61.8336 Y38.0361 
G01 X-61.9222 Y37.9994 
G01 X-61.9899 Y37.9317 
G01 X-62.0175 Y37.8650 
G01 X-62.1384 Y37.7441 
G01 X-63.5966 Y37.7441 
G01 X-63.6810 Y37.8286 
G01 X-63.7696 Y37.8652 
G01 X-63.8654 Y37.8652 
G01 X-63.9031 Y37.8496 
G01 X-63.9539 Y37.8286 
G01 X-64.0217 Y37.7608 
G01 X-64.0384 Y37.7441 
G01 X-65.4966 Y37.7441 
G01 X-65.6084 Y37.8559 
G01 X-65.6084 Y38.1091 
G01 X-65.6084 Y38.1569 
G01 X-65.6084 Y38.2034 
G01 X-65.6090 Y38.2064 
G01 X-65.6273 Y38.2490 
G01 X-65.6451 Y38.2920 
G01 X-65.6467 Y38.2945 
G01 X-65.6801 Y38.3270 
G01 X-65.7128 Y38.3597 
G01 X-65.7153 Y38.3614 
G01 X-65.7585 Y38.3787 
G01 X-65.8014 Y38.3964 
G01 X-66.4451 Y38.6533 
G01 X-66.4881 Y38.6711 
G01 X-66.4910 Y38.6717 
G01 X-66.5374 Y38.6711 
G01 X-77.5109 Y38.6711 
G01 X-77.5208 Y38.6742 
G01 X-77.5586 Y38.6711 
G01 X-77.5965 Y38.6711 
G01 X-77.6060 Y38.6672 
G01 X-77.6163 Y38.6663 
G01 X-77.6500 Y38.6489 
G01 X-77.6850 Y38.6344 
G01 X-77.6923 Y38.6271 
G01 X-77.7015 Y38.6224 
G01 X-77.7260 Y38.5935 
G01 X-77.7528 Y38.5667 
G01 X-77.7567 Y38.5571 
G01 X-77.7634 Y38.5493 
G01 X-77.7750 Y38.5131 
G01 X-77.7895 Y38.4781 
G01 X-77.7895 Y38.4678 
G01 X-77.7926 Y38.4580 
G01 X-77.7895 Y38.4202 
G01 X-77.7895 Y38.3823 
G01 X-77.7855 Y38.3728 
G01 X-77.7847 Y38.3625 
G01 X-77.7673 Y38.3288 
G01 X-77.7528 Y38.2937 
G01 X-77.7455 Y38.2865 
G01 X-77.7408 Y38.2773 
G01 X-77.7118 Y38.2528 
G01 X-77.6850 Y38.2260 
G01 X-77.6755 Y38.2220 
G01 X-77.4361 Y38.0193 
G01 X-77.2024 Y37.5655 
G01 X-77.1602 Y37.0568 
G01 X-77.3158 Y36.5707 
G01 X-77.6457 Y36.1811 
G01 X-78.0995 Y35.9474 
G01 X-78.5384 Y35.9110 
G01 X-78.5665 Y35.9132 
G01 X-78.5857 Y35.9070 
G01 X-78.6057 Y35.9054 
G01 X-78.6308 Y35.8925 
G01 X-78.6577 Y35.8838 
G01 X-78.6730 Y35.8707 
G01 X-78.6909 Y35.8615 
G01 X-78.7092 Y35.8400 
G01 X-79.7379 Y34.9646 
G01 X-79.7472 Y34.9607 
G01 X-79.7742 Y34.9337 
G01 X-79.8033 Y34.9089 
G01 X-79.8079 Y34.9000 
G01 X-80.5822 Y34.1258 
G01 X-80.5952 Y34.1127 
G01 X-80.6319 Y34.0242 
G01 X-80.6319 Y30.2248 
G01 X-80.8272 Y29.7532 
G01 X-81.5057 Y29.0747 
G01 X-81.9773 Y28.8794 
G01 X-82.0264 Y28.8794 
G01 X-82.1150 Y28.8427 
G01 X-82.1827 Y28.7750 
G01 X-82.2194 Y28.6864 
G01 X-82.2194 Y23.5573 
G01 X-82.4147 Y23.0857 
G01 X-82.7757 Y22.7247 
G01 X-83.2473 Y22.5294 
G01 X-83.7577 Y22.5294 
G01 X-84.2293 Y22.7247 
G01 X-84.5903 Y23.0857 
G01 X-84.7856 Y23.5573 
G01 X-84.7856 Y30.4177 
G01 X-84.5903 Y30.8893 
G01 X-84.2293 Y31.2503 
G01 X-83.7577 Y31.4456 
G01 X-83.3911 Y31.4456 
G01 X-83.3025 Y31.4823 
G01 X-83.2348 Y31.5500 
G01 X-83.1981 Y31.6386 
G01 X-83.1981 Y34.8627 
G01 X-83.0028 Y35.3343 
G01 X-81.7288 Y36.6082 
G01 X-81.6997 Y36.6330 
G01 X-81.6951 Y36.6419 
G01 X-81.6881 Y36.6490 
G01 X-81.6735 Y36.6843 
G01 X-81.6709 Y36.6893 
G01 X-81.5521 Y36.7904 
G01 X-81.5428 Y36.7942 
G01 X-81.5158 Y36.8213 
G01 X-81.4867 Y36.8460 
G01 X-81.4821 Y36.8549 
G01 X-81.3718 Y36.9653 
G01 X-81.3667 Y36.9674 
G01 X-81.3303 Y36.9791 
G01 X-81.3227 Y36.9856 
G01 X-81.3134 Y36.9894 
G01 X-81.2864 Y37.0165 
G01 X-80.1001 Y38.0259 
G01 X-80.0822 Y38.0352 
G01 X-80.0639 Y38.0567 
G01 X-80.0424 Y38.0750 
G01 X-80.0333 Y38.0929 
G01 X-79.9668 Y38.1714 
G01 X-79.9136 Y38.1988 
G01 X-79.8867 Y38.2075 
G01 X-79.8714 Y38.2205 
G01 X-79.8631 Y38.2248 
G01 X-79.8603 Y38.2260 
G01 X-79.8535 Y38.2298 
G01 X-79.8369 Y38.2493 
G01 X-79.8332 Y38.2530 
G01 X-79.8041 Y38.2778 
G01 X-79.7995 Y38.2867 
G01 X-79.7925 Y38.2937 
G01 X-79.7779 Y38.3291 
G01 X-79.7604 Y38.3631 
G01 X-79.7596 Y38.3731 
G01 X-79.7558 Y38.3823 
G01 X-79.7558 Y38.4205 
G01 X-79.7528 Y38.4586 
G01 X-79.7558 Y38.4681 
G01 X-79.7558 Y38.4781 
G01 X-79.7705 Y38.5134 
G01 X-79.7822 Y38.5498 
G01 X-79.7887 Y38.5574 
G01 X-79.7925 Y38.5667 
G01 X-79.8195 Y38.5937 
G01 X-79.8443 Y38.6228 
G01 X-79.8532 Y38.6274 
G01 X-79.8603 Y38.6344 
G01 X-79.8956 Y38.6491 
G01 X-79.9296 Y38.6665 
G01 X-79.9396 Y38.6673 
G01 X-79.9488 Y38.6711 
G01 X-79.9870 Y38.6711 
G01 X-80.0252 Y38.6742 
G01 X-80.0347 Y38.6711 
G01 X-81.8911 Y38.6711 
G01 X-81.9797 Y38.6344 
G01 X-82.0474 Y38.5667 
G01 X-85.5567 Y35.0574 
G01 X-85.6244 Y34.9897 
G01 X-85.6611 Y34.9011 
G01 X-85.6611 Y21.9842 
G01 X-85.6642 Y21.9743 
G01 X-85.6611 Y21.9366 
G01 X-85.6611 Y21.8987 
G01 X-85.6571 Y21.8891 
G01 X-85.6522 Y21.8302 
G01 X-85.6611 Y21.8088 
G01 X-85.6611 Y21.7984 
G01 X-85.6642 Y21.7886 
G01 X-85.6623 Y21.7655 
G01 X-85.6850 Y21.7109 
G01 X-85.6916 Y21.7030 
G01 X-85.7032 Y21.6669 
G01 X-85.7177 Y21.6319 
G01 X-85.7177 Y21.6215 
G01 X-85.7357 Y21.5652 
G01 X-85.7521 Y21.5488 
G01 X-85.7560 Y21.5393 
G01 X-85.7627 Y21.5314 
G01 X-85.7698 Y21.5093 
G01 X-85.8116 Y21.4675 
G01 X-85.8208 Y21.4628 
G01 X-85.8453 Y21.4338 
G01 X-85.8721 Y21.4071 
G01 X-85.8760 Y21.3975 
G01 X-89.0901 Y17.5990 
G01 X-89.1169 Y17.5722 
G01 X-89.1209 Y17.5627 
G01 X-89.1275 Y17.5548 
G01 X-89.1391 Y17.5187 
G01 X-89.1536 Y17.4837 
G01 X-89.1536 Y17.4733 
G01 X-89.1567 Y17.4635 
G01 X-89.1536 Y17.4257 
G01 X-89.1536 Y15.4969 
G01 X-89.1169 Y15.4083 
G01 X-89.0492 Y15.3406 
G01 X-88.9606 Y15.3039 
G01 X-82.3278 Y15.3039 
G01 X-82.2901 Y15.3195 
G01 X-82.2393 Y15.3406 
G01 X-82.1715 Y15.4083 
G01 X-82.1560 Y15.4458 
G01 X-82.1348 Y15.4969 
G01 X-82.1348 Y15.5927 
G01 X-82.1505 Y15.6304 
G01 X-82.1715 Y15.6813 
G01 X-82.1740 Y15.6837 
G01 X-82.2393 Y15.7490 
G01 X-82.2856 Y15.7953 
G01 X-82.3690 Y15.9102 
G01 X-82.4335 Y16.0367 
G01 X-82.4774 Y16.1718 
G01 X-82.4996 Y16.3120 
G01 X-82.4996 Y16.7771 
G01 X-82.4734 Y16.7771 
G01 X-82.4734 Y16.2967 
G01 X-82.4397 Y16.1275 
G01 X-82.3737 Y15.9681 
G01 X-82.2779 Y15.8246 
G01 X-82.1559 Y15.7026 
G01 X-82.0124 Y15.6068 
G01 X-81.8530 Y15.5408 
G01 X-81.6838 Y15.5071 
G01 X-81.5112 Y15.5071 
G01 X-81.3420 Y15.5408 
G01 X-81.1826 Y15.6068 
G01 X-81.0391 Y15.7026 
G01 X-80.9171 Y15.8246 
G01 X-80.8213 Y15.9681 
G01 X-80.7553 Y16.1275 
G01 X-80.7216 Y16.2967 
G01 X-80.7216 Y16.7771 
G01 X-80.6954 Y16.7771 
G01 X-80.6954 Y16.3120 
G01 X-80.7176 Y16.1718 
G01 X-80.7615 Y16.0367 
G01 X-80.8259 Y15.9102 
G01 X-80.9094 Y15.7953 
G01 X-81.0235 Y15.6813 
G01 X-81.0298 Y15.6659 
G01 X-81.0602 Y15.5927 
G01 X-81.0602 Y15.4969 
G01 X-81.0494 Y15.4709 
G01 X-81.0235 Y15.4083 
G01 X-80.9557 Y15.3406 
G01 X-80.9404 Y15.3342 
G01 X-80.8672 Y15.3039 
G01 X-79.8597 Y15.3039 
G01 X-79.7711 Y15.3406 
G01 X-79.7034 Y15.4083 
G01 X-79.6771 Y15.4717 
G01 X-79.6667 Y15.4969 
G01 X-79.6667 Y15.5927 
G01 X-79.7034 Y15.6813 
G01 X-79.8653 Y15.8432 
G01 X-80.0104 Y16.1934 
G01 X-80.0104 Y16.4245 
G01 X-80.2136 Y16.9150 
G01 X-80.2136 Y17.3750 
G01 X-80.0116 Y17.8627 
G01 X-80.0104 Y17.8655 
G01 X-80.0104 Y18.0965 
G01 X-80.0044 Y18.1110 
G01 X-80.0044 Y18.1379 
G01 X-79.9997 Y18.1644 
G01 X-80.0044 Y18.1853 
G01 X-80.0044 Y18.2068 
G01 X-80.0147 Y18.2317 
G01 X-80.1741 Y18.9496 
G01 X-80.1741 Y18.9711 
G01 X-80.1844 Y18.9959 
G01 X-80.1902 Y19.0222 
G01 X-80.2025 Y19.0398 
G01 X-80.2108 Y19.0597 
G01 X-80.2298 Y19.0787 
G01 X-80.2452 Y19.1007 
G01 X-80.2633 Y19.1122 
G01 X-80.2785 Y19.1274 
G01 X-80.3034 Y19.1377 
G01 X-80.3260 Y19.1521 
G01 X-80.3472 Y19.1559 
G01 X-80.3671 Y19.1641 
G01 X-80.3940 Y19.1641 
G01 X-80.4204 Y19.1688 
G01 X-80.4414 Y19.1641 
G01 X-80.5216 Y19.1641 
G01 X-80.6334 Y19.2759 
G01 X-80.6334 Y20.7341 
G01 X-80.5489 Y20.8185 
G01 X-80.5123 Y20.9071 
G01 X-80.5123 Y21.0029 
G01 X-80.5279 Y21.0406 
G01 X-80.5489 Y21.0914 
G01 X-80.6167 Y21.1592 
G01 X-80.6334 Y21.1759 
G01 X-80.6334 Y22.6341 
G01 X-80.5216 Y22.7459 
G01 X-80.1248 Y22.7459 
G01 X-80.1009 Y22.7412 
G01 X-80.0774 Y22.7459 
G01 X-80.0534 Y22.7459 
G01 X-80.0308 Y22.7552 
G01 X-80.0069 Y22.7600 
G01 X-79.9870 Y22.7734 
G01 X-79.9648 Y22.7826 
G01 X-79.9476 Y22.7998 
G01 X-79.9273 Y22.8134 
G01 X-79.9140 Y22.8334 
G01 X-79.8971 Y22.8503 
G01 X-79.8877 Y22.8729 
G01 X-79.1750 Y23.9433 
G01 X-79.1581 Y23.9603 
G01 X-79.1487 Y23.9828 
G01 X-79.1352 Y24.0031 
G01 X-79.1306 Y24.0267 
G01 X-79.1214 Y24.0488 
G01 X-79.1214 Y24.0732 
G01 X-79.1167 Y24.0971 
G01 X-79.1214 Y24.1207 
G01 X-79.1214 Y28.8132 
G01 X-79.1180 Y28.8240 
G01 X-79.1214 Y28.8608 
G01 X-79.1214 Y28.8978 
G01 X-79.1257 Y28.9082 
G01 X-79.1308 Y28.9648 
G01 X-79.1214 Y28.9876 
G01 X-79.1214 Y28.9989 
G01 X-79.1180 Y29.0096 
G01 X-79.1203 Y29.0342 
G01 X-79.0985 Y29.0867 
G01 X-79.0913 Y29.0953 
G01 X-79.0803 Y29.1307 
G01 X-79.0662 Y29.1648 
G01 X-79.0662 Y29.1761 
G01 X-79.0493 Y29.2304 
G01 X-79.0318 Y29.2478 
G01 X-79.0275 Y29.2582 
G01 X-79.0203 Y29.2668 
G01 X-79.0129 Y29.2904 
G01 X-78.9728 Y29.3306 
G01 X-78.9628 Y29.3359 
G01 X-78.9391 Y29.3643 
G01 X-78.9129 Y29.3904 
G01 X-78.9086 Y29.4008 
G01 X-78.3039 Y30.1266 
G01 X-78.2777 Y30.1527 
G01 X-78.2734 Y30.1631 
G01 X-78.2662 Y30.1718 
G01 X-78.2552 Y30.2071 
G01 X-78.2410 Y30.2413 
G01 X-78.2410 Y30.2525 
G01 X-78.2377 Y30.2633 
G01 X-78.2410 Y30.3001 
G01 X-78.2410 Y30.3371 
G01 X-78.2453 Y30.3475 
G01 X-78.2464 Y30.3587 
G01 X-78.2636 Y30.3915 
G01 X-78.2777 Y30.4256 
G01 X-78.2857 Y30.4336 
G01 X-78.2909 Y30.4436 
G01 X-78.3193 Y30.4673 
G01 X-79.5478 Y31.6957 
G01 X-79.7431 Y32.1673 
G01 X-79.7431 Y32.9002 
G01 X-79.5478 Y33.3718 
G01 X-79.1868 Y33.7328 
G01 X-78.7152 Y33.9281 
G01 X-78.2048 Y33.9281 
G01 X-77.7332 Y33.7328 
G01 X-77.3722 Y33.3718 
G01 X-77.2516 Y33.0805 
G01 X-77.2149 Y32.9920 
G01 X-77.1979 Y32.9749 
G01 X-77.1471 Y32.9242 
G01 X-76.1252 Y31.9023 
G01 X-75.7730 Y31.5500 
G01 X-75.7052 Y31.4823 
G01 X-75.6167 Y31.4456 
G01 X-55.0022 Y31.4456 
G01 X-54.9136 Y31.4823 
G01 X-54.6884 Y31.7075 
G01 X-54.4315 Y31.8139 
G01 X-46.2160 Y31.8139 
G01 X-45.9591 Y31.7075 
G01 X-45.7625 Y31.5109 
G01 X-45.7482 Y31.4966 
G01 X-45.6947 Y31.4431 
G01 X-44.8465 Y30.5949 
G01 X-44.8322 Y30.5806 
G01 X-44.7436 Y30.5439 
G01 X-36.6117 Y30.5439 
G01 X-36.5940 Y30.5395 
G01 X-36.5642 Y30.5439 
G01 X-36.5341 Y30.5439 
G01 X-36.5172 Y30.5509 
G01 X-36.4779 Y30.5567 
G01 X-36.4725 Y30.5554 
G01 X-36.4447 Y30.5439 
G01 X-36.4265 Y30.5439 
G01 X-36.4087 Y30.5395 
G01 X-36.3790 Y30.5439 
G01 X-36.3735 Y30.5439 
G01 X-36.3367 Y30.5287 
G01 X-36.3220 Y30.5178 
G01 X-36.2928 Y30.5105 
G01 X-36.2650 Y30.4990 
G01 X-36.2468 Y30.4990 
G01 X-36.2081 Y30.4893 
G01 X-36.2037 Y30.4860 
G01 X-36.1824 Y30.4648 
G01 X-36.1656 Y30.4578 
G01 X-36.1509 Y30.4469 
G01 X-36.1217 Y30.4396 
G01 X-36.1166 Y30.4375 
G01 X-36.0884 Y30.4093 
G01 X-36.0790 Y30.3937 
G01 X-36.0549 Y30.3758 
G01 X-36.0336 Y30.3545 
G01 X-36.0167 Y30.3475 
G01 X-35.9847 Y30.3238 
G01 X-35.9819 Y30.3191 
G01 X-35.9704 Y30.2913 
G01 X-35.9575 Y30.2783 
G01 X-35.9481 Y30.2627 
G01 X-35.9239 Y30.2448 
G01 X-35.9200 Y30.2409 
G01 X-35.9048 Y30.2041 
G01 X-35.9021 Y30.1860 
G01 X-35.8866 Y30.1602 
G01 X-35.8751 Y30.1324 
G01 X-35.8622 Y30.1195 
G01 X-35.0294 Y28.7316 
G01 X-35.0179 Y28.7038 
G01 X-35.0050 Y28.6909 
G01 X-34.9956 Y28.6752 
G01 X-34.9714 Y28.6573 
G01 X-34.9675 Y28.6534 
G01 X-34.9523 Y28.6166 
G01 X-34.9496 Y28.5985 
G01 X-34.9341 Y28.5727 
G01 X-34.9226 Y28.5449 
G01 X-34.9096 Y28.5320 
G01 X-34.8892 Y28.4979 
G01 X-34.8884 Y28.4924 
G01 X-34.8884 Y28.4623 
G01 X-34.8814 Y28.4455 
G01 X-34.8787 Y28.4274 
G01 X-34.8632 Y28.4016 
G01 X-34.8611 Y28.3965 
G01 X-34.8611 Y28.3567 
G01 X-34.8655 Y28.3390 
G01 X-34.8611 Y28.3092 
G01 X-34.8611 Y28.2791 
G01 X-34.8541 Y28.2622 
G01 X-34.8482 Y28.2229 
G01 X-34.8496 Y28.2175 
G01 X-34.8611 Y28.1897 
G01 X-34.8611 Y28.1715 
G01 X-34.8655 Y28.1537 
G01 X-34.8611 Y28.1240 
G01 X-34.8611 Y21.1335 
G01 X-34.9675 Y20.8766 
G01 X-35.1641 Y20.6800 
G01 X-35.4816 Y20.3625 
G01 X-35.7385 Y20.2561 
G01 X-38.1606 Y20.2561 
G01 X-38.2492 Y20.2194 
G01 X-38.3169 Y20.1517 
G01 X-38.3536 Y20.0631 
G01 X-38.3536 Y14.1485 
G01 X-38.4600 Y13.8916 
G01 X-38.6566 Y13.6950 
G01 X-42.5547 Y9.7969 
G01 X-42.6224 Y9.7292 
G01 X-42.6591 Y9.6406 
G01 X-42.6591 Y8.0609 
G01 X-42.7709 Y7.9491 
G01 X-44.2291 Y7.9491 
G01 X-44.2458 Y7.9658 
G01 X-44.3135 Y8.0336 
G01 X-44.3665 Y8.0555 
G01 X-44.4021 Y8.0702 
G01 X-44.4979 Y8.0702 
G01 X-44.5865 Y8.0336 
G01 X-44.6709 Y7.9491 
G01 X-46.2556 Y7.9491 
G01 X-46.2808 Y7.9387 
G01 X-46.3442 Y7.9124 
G01 X-46.5883 Y7.6683 
G01 X-46.6240 Y7.5822 
G01 X-46.6250 Y7.5797 
G01 X-46.6250 Y7.4839 
G01 X-46.6140 Y7.4572 
G01 X-46.5883 Y7.3953 
G01 X-46.5206 Y7.3276 
G01 X-46.4346 Y7.2919 
G01 X-46.4320 Y7.2909 
G01 X-45.9409 Y7.2909 
G01 X-45.8205 Y7.1705 
G01 X-45.7345 Y7.1349 
G01 X-45.7320 Y7.1338 
G01 X-45.6362 Y7.1338 
G01 X-45.6095 Y7.1449 
G01 X-45.5476 Y7.1705 
G01 X-45.5060 Y7.2121 
G01 X-45.4741 Y7.2305 
G01 X-45.4384 Y7.2401 
G01 X-45.1379 Y7.2401 
G01 X-45.1379 Y7.2139 
G01 X-45.4427 Y7.2139 
G01 X-45.4845 Y7.1966 
G01 X-45.5166 Y7.1645 
G01 X-45.5339 Y7.1227 
G01 X-45.5339 Y5.5773 
G01 X-45.5166 Y5.5355 
G01 X-45.4845 Y5.5034 
G01 X-45.4427 Y5.4861 
G01 X-45.3910 Y5.4861 
G01 X-45.3910 Y5.4599 
G01 X-45.4384 Y5.4599 
G01 X-45.4741 Y5.4694 
G01 X-45.5060 Y5.4879 
G01 X-45.5476 Y5.5295 
G01 X-45.6110 Y5.5557 
G01 X-45.6362 Y5.5662 
G01 X-45.7320 Y5.5662 
G01 X-45.8205 Y5.5295 
G01 X-45.9409 Y5.4091 
G01 X-47.3991 Y5.4091 
G01 X-47.5109 Y5.5209 
G01 X-47.5109 Y6.1506 
G01 X-47.5476 Y6.2392 
G01 X-47.5573 Y6.2489 
G01 X-47.6153 Y6.3069 
G01 X-48.1590 Y6.8506 
G01 X-48.1928 Y6.8844 
G01 X-48.2814 Y6.9211 
G01 X-49.1886 Y6.9211 
G01 X-49.2772 Y6.8844 
G01 X-49.5522 Y6.6094 
G01 X-49.6199 Y6.5417 
G01 X-49.6566 Y6.4531 
G01 X-49.6566 Y5.0009 
G01 X-49.7684 Y4.8891 
G01 X-52.4666 Y4.8891 
G01 X-52.5784 Y5.0009 
G01 X-52.5784 Y6.7706 
G01 X-52.6151 Y6.8592 
G01 X-53.4533 Y7.6974 
G01 X-53.5210 Y7.7651 
G01 X-53.6096 Y7.8018 
G01 X-53.7054 Y7.8018 
G01 X-53.7940 Y7.7651 
G01 X-53.8617 Y7.6974 
G01 X-53.8984 Y7.6088 
G01 X-53.8984 Y1.0951 
G01 X-53.8617 Y1.0065 
G01 X-53.7940 Y0.9388 
G01 X-53.7054 Y0.9021 
G01 X-49.0089 Y0.9021 
G01 X-49.0089 Y0.2948 
G01 X-48.9916 Y0.2530 
G01 X-48.9595 Y0.2209 
G01 X-48.9177 Y0.2036 
G01 X-46.3323 Y0.2036 
G01 X-46.2905 Y0.2209 
G01 X-46.2584 Y0.2530 
G01 X-46.2411 Y0.2948 
G01 X-46.2411 Y0.9021 
G01 X-39.9571 Y0.9021 
G01 X-39.8685 Y0.9388 
G01 X-39.8008 Y1.0065 
G01 X-39.7641 Y1.0951 
G01 X-39.7641 Y7.5187 
G01 X-24.9473 Y22.0203 
G01 X-24.9131 Y22.0537 
G01 X-24.8798 Y22.0864 
G01 X-24.8783 Y22.0885 
G01 X-24.8605 Y22.1315 
G01 X-24.8421 Y22.1745 
G01 X-24.8416 Y22.1771 
G01 X-24.8416 Y22.2237 
G01 X-24.8411 Y22.2703 
G01 X-24.8416 Y28.0006 
G01 X-24.8783 Y28.0892 
G01 X-24.9460 Y28.1569 
G00 Z2.0000  F3000
G00 X-29.4134 Y33.4755  F3000
G01 Z-0.2000 F200.00 
G01 X-29.3961 Y33.5173 F500.00 
G01 X-29.3961 Y35.0627 
G01 X-29.4134 Y35.1045 
G01 X-29.4455 Y35.1366 
G01 X-29.4873 Y35.1539 
G01 X-30.8327 Y35.1539 
G01 X-30.8745 Y35.1366 
G01 X-30.9066 Y35.1045 
G01 X-30.9239 Y35.0627 
G01 X-30.9239 Y34.9119 
G01 X-31.5343 Y34.9119 
G01 X-31.6533 Y34.9725 
G01 X-31.8148 Y35.0250 
G01 X-31.9826 Y35.0516 
G01 X-33.7399 Y35.0516 
G01 X-33.9077 Y35.0250 
G01 X-34.0692 Y34.9725 
G01 X-34.2206 Y34.8954 
G01 X-34.3580 Y34.7956 
G01 X-34.4781 Y34.6755 
G01 X-34.5779 Y34.5381 
G01 X-34.6550 Y34.3867 
G01 X-34.7075 Y34.2252 
G01 X-34.7341 Y34.0574 
G01 X-34.7341 Y33.8876 
G01 X-34.7075 Y33.7198 
G01 X-34.6550 Y33.5583 
G01 X-34.5779 Y33.4069 
G01 X-34.4781 Y33.2695 
G01 X-34.3580 Y33.1494 
G01 X-34.2206 Y33.0496 
G01 X-34.0692 Y32.9725 
G01 X-33.9077 Y32.9200 
G01 X-33.7399 Y32.8934 
G01 X-31.9826 Y32.8934 
G01 X-31.8148 Y32.9200 
G01 X-31.6533 Y32.9725 
G01 X-31.5019 Y33.0496 
G01 X-31.3645 Y33.1494 
G01 X-31.2444 Y33.2695 
G01 X-31.1446 Y33.4069 
G01 X-31.0675 Y33.5583 
G01 X-31.0318 Y33.6681 
G01 X-30.9239 Y33.6681 
G01 X-30.9239 Y33.5173 
G01 X-30.9066 Y33.4755 
G01 X-30.8745 Y33.4434 
G01 X-30.8327 Y33.4261 
G01 X-29.4873 Y33.4261 
G01 X-29.4455 Y33.4434 
G01 X-29.4134 Y33.4755 
G00 Z2.0000  F3000
G00 X-36.0930 Y30.3082  F3000
G01 Z-0.2000 F200.00 
G01 X-36.1053 Y30.3173 F500.00 
G01 X-36.1161 Y30.3281 
G01 X-36.1544 Y30.3537 
G01 X-36.1915 Y30.3811 
G01 X-36.2052 Y30.3877 
G01 X-36.2179 Y30.3961 
G01 X-36.2605 Y30.4138 
G01 X-36.3022 Y30.4335 
G01 X-36.3170 Y30.4372 
G01 X-36.3311 Y30.4430 
G01 X-36.3763 Y30.4520 
G01 X-36.4211 Y30.4632 
G01 X-36.4363 Y30.4639 
G01 X-36.4512 Y30.4669 
G01 X-36.4974 Y30.4669 
G01 X-36.5434 Y30.4691 
G01 X-36.5585 Y30.4669 
G01 X-44.8274 Y30.4669 
G01 X-45.9586 Y31.5981 
G01 X-46.0604 Y31.6661 
G01 X-46.1736 Y31.7130 
G01 X-46.2937 Y31.7369 
G01 X-54.3537 Y31.7369 
G01 X-54.4739 Y31.7130 
G01 X-54.5871 Y31.6661 
G01 X-54.6889 Y31.5981 
G01 X-54.9516 Y31.3353 
G01 X-54.9626 Y31.3389 
G01 X-55.1501 Y31.3686 
G01 X-75.7004 Y31.3686 
G01 X-76.0493 Y31.7175 
G01 X-77.2953 Y32.9635 
G01 X-77.3423 Y33.1080 
G01 X-77.4284 Y33.2771 
G01 X-77.5400 Y33.4307 
G01 X-77.6743 Y33.5650 
G01 X-77.8279 Y33.6765 
G01 X-77.9970 Y33.7627 
G01 X-78.1776 Y33.8214 
G01 X-78.3651 Y33.8511 
G01 X-78.5549 Y33.8511 
G01 X-78.7424 Y33.8214 
G01 X-78.9230 Y33.7627 
G01 X-79.0921 Y33.6765 
G01 X-79.2457 Y33.5650 
G01 X-79.3800 Y33.4307 
G01 X-79.4915 Y33.2771 
G01 X-79.5777 Y33.1080 
G01 X-79.6364 Y32.9274 
G01 X-79.6661 Y32.7399 
G01 X-79.6661 Y32.3276 
G01 X-79.6364 Y32.1401 
G01 X-79.5777 Y31.9595 
G01 X-79.4915 Y31.7904 
G01 X-79.3800 Y31.6368 
G01 X-78.0519 Y30.3087 
G01 X-78.8822 Y29.3123 
G01 X-78.9056 Y29.2889 
G01 X-78.9213 Y29.2654 
G01 X-78.9395 Y29.2436 
G01 X-78.9553 Y29.2146 
G01 X-78.9736 Y29.1871 
G01 X-78.9845 Y29.1609 
G01 X-78.9980 Y29.1360 
G01 X-79.0079 Y29.1044 
G01 X-79.0205 Y29.0739 
G01 X-79.0260 Y29.0461 
G01 X-79.0345 Y29.0190 
G01 X-79.0379 Y28.9861 
G01 X-79.0444 Y28.9537 
G01 X-79.0444 Y28.9254 
G01 X-79.0474 Y28.8972 
G01 X-79.0444 Y28.8643 
G01 X-79.0444 Y24.0006 
G01 X-79.9310 Y22.6689 
G01 X-80.4652 Y22.6689 
G01 X-80.5070 Y22.6516 
G01 X-80.5391 Y22.6195 
G01 X-80.5564 Y22.5777 
G01 X-80.5564 Y21.2323 
G01 X-80.5391 Y21.1905 
G01 X-80.5070 Y21.1584 
G01 X-80.4652 Y21.1411 
G01 X-78.9198 Y21.1411 
G01 X-78.8780 Y21.1584 
G01 X-78.8459 Y21.1905 
G01 X-78.8286 Y21.2323 
G01 X-78.8286 Y21.2848 
G01 X-78.6792 Y21.2851 
G01 X-77.9139 Y20.5213 
G01 X-77.9139 Y19.8648 
G01 X-77.8966 Y19.8230 
G01 X-77.8645 Y19.7909 
G01 X-77.8227 Y19.7736 
G01 X-76.4773 Y19.7736 
G01 X-76.4355 Y19.7909 
G01 X-76.4034 Y19.8230 
G01 X-76.3861 Y19.8648 
G01 X-76.3861 Y21.4102 
G01 X-76.4034 Y21.4520 
G01 X-76.4355 Y21.4841 
G01 X-76.4773 Y21.5014 
G01 X-77.1352 Y21.5014 
G01 X-77.9400 Y22.3046 
G01 X-77.9836 Y22.3481 
G01 X-78.0265 Y22.3909 
G01 X-78.0780 Y22.4253 
G01 X-78.1285 Y22.4589 
G01 X-78.1858 Y22.4826 
G01 X-78.2417 Y22.5057 
G01 X-78.3021 Y22.5176 
G01 X-78.3619 Y22.5295 
G01 X-78.4225 Y22.5294 
G01 X-78.4844 Y22.5293 
G01 X-78.5298 Y22.5292 
G01 X-77.9054 Y23.4670 
G01 X-77.8714 Y23.5179 
G01 X-77.8477 Y23.5751 
G01 X-77.8245 Y23.6311 
G01 X-77.8124 Y23.6921 
G01 X-77.8006 Y23.7512 
G01 X-77.8006 Y23.8126 
G01 X-77.8006 Y28.6673 
G01 X-77.1687 Y29.4256 
G01 X-77.1200 Y29.3768 
G01 X-76.9857 Y29.2425 
G01 X-76.8321 Y29.1309 
G01 X-76.6630 Y29.0448 
G01 X-76.4824 Y28.9861 
G01 X-76.2949 Y28.9564 
G01 X-56.4511 Y28.9564 
G01 X-56.4511 Y28.4060 
G01 X-56.7225 Y27.3206 
G01 X-56.7389 Y27.2699 
G01 X-56.7455 Y27.2285 
G01 X-56.7556 Y27.1879 
G01 X-56.7603 Y27.1350 
G01 X-56.7686 Y27.0824 
G01 X-56.7686 Y27.0405 
G01 X-56.7723 Y26.9988 
G01 X-56.7686 Y26.9458 
G01 X-56.7686 Y25.6226 
G01 X-56.7389 Y25.4351 
G01 X-56.7353 Y25.4239 
G01 X-57.0402 Y25.4239 
G01 X-57.0820 Y25.4066 
G01 X-57.1141 Y25.3745 
G01 X-57.1314 Y25.3327 
G01 X-57.1314 Y24.0873 
G01 X-57.1141 Y24.0455 
G01 X-57.0820 Y24.0134 
G01 X-57.0402 Y23.9961 
G01 X-53.9948 Y23.9961 
G01 X-53.9530 Y24.0134 
G01 X-53.9209 Y24.0455 
G01 X-53.9036 Y24.0873 
G01 X-53.9036 Y25.3327 
G01 X-53.9209 Y25.3745 
G01 X-53.9530 Y25.4066 
G01 X-53.9948 Y25.4239 
G01 X-54.3897 Y25.4239 
G01 X-54.3861 Y25.4351 
G01 X-54.3564 Y25.6226 
G01 X-54.3564 Y26.8390 
G01 X-54.1573 Y27.6356 
G01 X-52.8314 Y27.6356 
G01 X-52.8314 Y27.4848 
G01 X-52.8141 Y27.4430 
G01 X-52.7820 Y27.4109 
G01 X-52.7402 Y27.3936 
G01 X-51.3948 Y27.3936 
G01 X-51.3530 Y27.4109 
G01 X-51.3209 Y27.4430 
G01 X-51.3036 Y27.4848 
G01 X-51.3036 Y29.0302 
G01 X-51.3209 Y29.0720 
G01 X-51.3530 Y29.1041 
G01 X-51.3948 Y29.1214 
G01 X-52.7402 Y29.1214 
G01 X-52.7820 Y29.1041 
G01 X-52.8141 Y29.0720 
G01 X-52.8314 Y29.0302 
G01 X-52.8314 Y28.8794 
G01 X-54.0389 Y28.8794 
G01 X-54.0389 Y30.2574 
G01 X-54.0686 Y30.4449 
G01 X-54.0721 Y30.4559 
G01 X-54.0349 Y30.4931 
G01 X-46.6126 Y30.4931 
G01 X-45.4814 Y29.3619 
G01 X-43.7994 Y27.6799 
G01 X-43.7994 Y21.2339 
G01 X-43.8502 Y21.2339 
G01 X-43.8920 Y21.2166 
G01 X-43.9241 Y21.1845 
G01 X-43.9414 Y21.1427 
G01 X-43.9414 Y19.8031 
G01 X-43.9806 Y19.7639 
G01 X-44.0486 Y19.6621 
G01 X-44.0955 Y19.5489 
G01 X-44.1194 Y19.4288 
G01 X-44.1194 Y18.8589 
G01 X-44.2702 Y18.8589 
G01 X-44.3120 Y18.8416 
G01 X-44.3441 Y18.8095 
G01 X-44.3614 Y18.7677 
G01 X-44.3614 Y17.4223 
G01 X-44.3441 Y17.3805 
G01 X-44.3120 Y17.3484 
G01 X-44.2702 Y17.3311 
G01 X-42.7248 Y17.3311 
G01 X-42.6830 Y17.3484 
G01 X-42.6509 Y17.3805 
G01 X-42.6336 Y17.4223 
G01 X-42.6336 Y18.7677 
G01 X-42.6509 Y18.8095 
G01 X-42.6830 Y18.8416 
G01 X-42.7248 Y18.8589 
G01 X-42.8756 Y18.8589 
G01 X-42.8756 Y19.1099 
G01 X-42.6944 Y19.2911 
G01 X-42.6264 Y19.3929 
G01 X-42.6209 Y19.4061 
G01 X-42.5048 Y19.4061 
G01 X-42.4630 Y19.4234 
G01 X-42.4309 Y19.4555 
G01 X-42.4136 Y19.4973 
G01 X-42.4136 Y21.1427 
G01 X-42.4309 Y21.1845 
G01 X-42.4630 Y21.2166 
G01 X-42.5048 Y21.2339 
G01 X-42.5556 Y21.2339 
G01 X-42.5556 Y27.9988 
G01 X-42.5795 Y28.1189 
G01 X-42.6264 Y28.2321 
G01 X-42.6944 Y28.3339 
G01 X-43.5836 Y29.2231 
G01 X-36.8646 Y29.2231 
G01 X-36.1819 Y28.0852 
G01 X-36.1819 Y21.5769 
G01 X-38.7963 Y21.5769 
G01 X-38.9164 Y21.5530 
G01 X-39.0296 Y21.5061 
G01 X-39.1314 Y21.4381 
G01 X-39.2181 Y21.3514 
G01 X-39.5356 Y21.0339 
G01 X-39.6036 Y20.9321 
G01 X-39.6505 Y20.8189 
G01 X-39.6744 Y20.6988 
G01 X-39.6744 Y14.5451 
G01 X-43.9831 Y10.2364 
G01 X-44.0511 Y10.1346 
G01 X-44.0980 Y10.0214 
G01 X-44.1219 Y9.9012 
G01 X-44.1219 Y9.7539 
G01 X-44.1727 Y9.7539 
G01 X-44.2145 Y9.7366 
G01 X-44.2466 Y9.7045 
G01 X-44.2639 Y9.6627 
G01 X-44.2639 Y8.1173 
G01 X-44.2466 Y8.0755 
G01 X-44.2145 Y8.0434 
G01 X-44.1727 Y8.0261 
G01 X-42.8273 Y8.0261 
G01 X-42.7855 Y8.0434 
G01 X-42.7534 Y8.0755 
G01 X-42.7361 Y8.1173 
G01 X-42.7361 Y9.6627 
G01 X-42.7534 Y9.7045 
G01 X-38.6561 Y13.8044 
G01 X-38.5694 Y13.8911 
G01 X-38.5014 Y13.9929 
G01 X-38.4545 Y14.1061 
G01 X-38.4306 Y14.2262 
G01 X-38.4306 Y20.3331 
G01 X-35.8162 Y20.3331 
G01 X-35.6961 Y20.3570 
G01 X-35.5829 Y20.4039 
G01 X-35.4811 Y20.4719 
G01 X-35.1636 Y20.7894 
G01 X-35.0769 Y20.8761 
G01 X-35.0089 Y20.9779 
G01 X-34.9620 Y21.0911 
G01 X-34.9381 Y21.2112 
G01 X-34.9381 Y28.2424 
G01 X-34.9359 Y28.2885 
G01 X-34.9381 Y28.3035 
G01 X-34.9381 Y28.3188 
G01 X-34.9471 Y28.3640 
G01 X-34.9539 Y28.4096 
G01 X-34.9590 Y28.4240 
G01 X-34.9620 Y28.4389 
G01 X-34.9797 Y28.4815 
G01 X-34.9952 Y28.5249 
G01 X-35.0030 Y28.5380 
G01 X-35.0089 Y28.5521 
G01 X-35.0345 Y28.5905 
G01 X-35.9556 Y30.1255 
G01 X-35.9614 Y30.1396 
G01 X-35.9870 Y30.1779 
G01 X-36.0107 Y30.2175 
G01 X-36.0210 Y30.2288 
G01 X-36.0294 Y30.2414 
G01 X-36.0621 Y30.2741 
G01 X-36.0930 Y30.3082 
G00 Z2.0000  F3000
G00 X-36.8627 Y29.0702  F3000
G01 Z-0.2000 F200.00 
G01 X-36.8869 Y29.0881 F500.00 
G01 X-36.9081 Y29.1094 
G01 X-36.9250 Y29.1164 
G01 X-36.9397 Y29.1273 
G01 X-36.9689 Y29.1346 
G01 X-36.9967 Y29.1461 
G01 X-37.0149 Y29.1461 
G01 X-37.0327 Y29.1505 
G01 X-37.0624 Y29.1461 
G01 X-42.8640 Y29.1461 
G01 X-42.9526 Y29.1094 
G01 X-43.0203 Y29.0417 
G01 X-43.0214 Y29.0391 
G01 X-43.0570 Y28.9531 
G01 X-43.0570 Y28.8573 
G01 X-43.0203 Y28.7687 
G01 X-42.5850 Y28.3334 
G01 X-42.4786 Y28.0765 
G01 X-42.4786 Y23.4650 
G01 X-42.4419 Y23.3765 
G01 X-42.3742 Y23.3087 
G01 X-42.3716 Y23.3077 
G01 X-42.2856 Y23.2721 
G01 X-42.1898 Y23.2721 
G01 X-42.1012 Y23.3087 
G01 X-42.0335 Y23.3765 
G01 X-41.9968 Y23.4650 
G01 X-41.8923 Y23.7173 
G01 X-41.6243 Y23.9853 
G01 X-41.2740 Y24.1304 
G01 X-40.8439 Y24.1304 
G01 X-40.7748 Y24.1590 
G01 X-40.5373 Y24.2574 
G01 X-38.5525 Y24.2574 
G01 X-38.5043 Y24.2574 
G01 X-38.4567 Y24.2574 
G01 X-38.4163 Y24.2741 
G01 X-38.3681 Y24.2941 
G01 X-38.3170 Y24.3452 
G01 X-38.3004 Y24.3618 
G01 X-38.2762 Y24.4203 
G01 X-38.2637 Y24.4504 
G01 X-38.2637 Y24.4986 
G01 X-38.2637 Y24.5462 
G01 X-38.2804 Y24.5866 
G01 X-38.3004 Y24.6348 
G01 X-38.3271 Y24.6615 
G01 X-38.3455 Y24.6934 
G01 X-38.3551 Y24.7291 
G01 X-38.3551 Y25.0719 
G01 X-38.3506 Y25.0908 
G01 X-38.3551 Y25.1194 
G01 X-38.3551 Y25.1484 
G01 X-38.3625 Y25.1663 
G01 X-38.3656 Y25.1855 
G01 X-38.3807 Y25.2101 
G01 X-38.3918 Y25.2369 
G01 X-38.4055 Y25.2506 
G01 X-38.4156 Y25.2672 
G01 X-38.4391 Y25.2842 
G01 X-38.4595 Y25.3047 
G01 X-38.4775 Y25.3121 
G01 X-38.4932 Y25.3235 
G01 X-38.5213 Y25.3303 
G01 X-38.5481 Y25.3413 
G01 X-38.5675 Y25.3413 
G01 X-38.5864 Y25.3459 
G01 X-38.6150 Y25.3413 
G01 X-38.6439 Y25.3413 
G01 X-38.6618 Y25.3339 
G01 X-38.6810 Y25.3309 
G01 X-38.7057 Y25.3157 
G01 X-38.7325 Y25.3047 
G01 X-38.7462 Y25.2909 
G01 X-38.7627 Y25.2808 
G01 X-38.7797 Y25.2574 
G01 X-38.8002 Y25.2369 
G01 X-38.8076 Y25.2190 
G01 X-38.8724 Y25.1298 
G01 X-38.9728 Y25.0294 
G01 X-39.0877 Y24.9459 
G01 X-39.2142 Y24.8815 
G01 X-39.3493 Y24.8376 
G01 X-39.4895 Y24.8154 
G01 X-39.9546 Y24.8154 
G01 X-39.9546 Y24.8416 
G01 X-39.4742 Y24.8416 
G01 X-39.3050 Y24.8753 
G01 X-39.1456 Y24.9413 
G01 X-39.0021 Y25.0371 
G01 X-38.8801 Y25.1591 
G01 X-38.7843 Y25.3026 
G01 X-38.7183 Y25.4620 
G01 X-38.6846 Y25.6312 
G01 X-38.6846 Y25.8038 
G01 X-38.7183 Y25.9730 
G01 X-38.7843 Y26.1324 
G01 X-38.8801 Y26.2759 
G01 X-39.0021 Y26.3979 
G01 X-39.1456 Y26.4937 
G01 X-39.3050 Y26.5597 
G01 X-39.4077 Y26.5802 
G01 X-39.3848 Y26.6030 
G01 X-39.3493 Y26.5974 
G01 X-39.2142 Y26.5535 
G01 X-39.0877 Y26.4890 
G01 X-38.9728 Y26.4056 
G01 X-38.8724 Y26.3052 
G01 X-38.7889 Y26.1903 
G01 X-38.7700 Y26.1531 
G01 X-38.7641 Y26.1313 
G01 X-38.7484 Y26.1108 
G01 X-38.7367 Y26.0878 
G01 X-38.7196 Y26.0731 
G01 X-38.7058 Y26.0552 
G01 X-38.6835 Y26.0423 
G01 X-38.6639 Y26.0256 
G01 X-38.6424 Y26.0186 
G01 X-38.6228 Y26.0073 
G01 X-38.5972 Y26.0039 
G01 X-38.5727 Y25.9960 
G01 X-38.5502 Y25.9977 
G01 X-38.5278 Y25.9948 
G01 X-38.5029 Y26.0015 
G01 X-38.4772 Y26.0035 
G01 X-38.4571 Y26.0138 
G01 X-38.4352 Y26.0196 
G01 X-38.4148 Y26.0353 
G01 X-38.3918 Y26.0470 
G01 X-38.3771 Y26.0642 
G01 X-38.3592 Y26.0779 
G01 X-38.3463 Y26.1003 
G01 X-38.3296 Y26.1199 
G01 X-38.3242 Y26.1365 
G01 X-38.3010 Y26.1596 
G01 X-38.2691 Y26.1780 
G01 X-38.2334 Y26.1876 
G01 X-37.8329 Y26.1876 
G01 X-37.8329 Y26.1614 
G01 X-38.2377 Y26.1614 
G01 X-38.2795 Y26.1441 
G01 X-38.3116 Y26.1120 
G01 X-38.3289 Y26.0702 
G01 X-38.3289 Y24.7248 
G01 X-38.3116 Y24.6830 
G01 X-38.2795 Y24.6509 
G01 X-38.2377 Y24.6336 
G01 X-36.6923 Y24.6336 
G01 X-36.6505 Y24.6509 
G01 X-36.6184 Y24.6830 
G01 X-36.6011 Y24.7248 
G01 X-36.6011 Y26.0702 
G01 X-36.6184 Y26.1120 
G01 X-36.6505 Y26.1441 
G01 X-36.6923 Y26.1614 
G01 X-37.0971 Y26.1614 
G01 X-37.0971 Y26.1876 
G01 X-36.6966 Y26.1876 
G01 X-36.6609 Y26.1780 
G01 X-36.6477 Y26.1704 
G01 X-36.6363 Y26.1590 
G01 X-36.6066 Y26.1467 
G01 X-36.5788 Y26.1306 
G01 X-36.5627 Y26.1285 
G01 X-36.5477 Y26.1223 
G01 X-36.5156 Y26.1223 
G01 X-36.4837 Y26.1181 
G01 X-36.4681 Y26.1223 
G01 X-36.4519 Y26.1223 
G01 X-36.4222 Y26.1346 
G01 X-36.3912 Y26.1429 
G01 X-36.3783 Y26.1528 
G01 X-36.3633 Y26.1590 
G01 X-36.3406 Y26.1817 
G01 X-36.3151 Y26.2012 
G01 X-36.3070 Y26.2153 
G01 X-36.2956 Y26.2267 
G01 X-36.2833 Y26.2564 
G01 X-36.2672 Y26.2842 
G01 X-36.2651 Y26.3003 
G01 X-36.2589 Y26.3153 
G01 X-36.2589 Y26.3474 
G01 X-36.2547 Y26.3792 
G01 X-36.2589 Y26.3949 
G01 X-36.2589 Y27.9675 
G01 X-36.2545 Y27.9852 
G01 X-36.2589 Y28.0150 
G01 X-36.2589 Y28.0451 
G01 X-36.2659 Y28.0620 
G01 X-36.2686 Y28.0800 
G01 X-36.2841 Y28.1059 
G01 X-36.2956 Y28.1336 
G01 X-36.3085 Y28.1466 
G01 X-36.8289 Y29.0138 
G01 X-36.8404 Y29.0417 
G01 X-36.8533 Y29.0546 
G01 X-36.8627 Y29.0702 
G00 Z2.0000  F3000
G00 X-36.6923 Y24.2614  F3000
G01 Z-0.2000 F200.00 
G01 X-38.2377 Y24.2614 F500.00 
G01 X-38.2795 Y24.2441 
G01 X-38.3116 Y24.2120 
G01 X-38.3247 Y24.1804 
G01 X-40.4213 Y24.1804 
G01 X-40.6150 Y24.1419 
G01 X-40.7976 Y24.0663 
G01 X-40.8168 Y24.0534 
G01 X-41.1708 Y24.0534 
G01 X-41.3400 Y24.0197 
G01 X-41.4994 Y23.9537 
G01 X-41.6429 Y23.8579 
G01 X-41.7649 Y23.7359 
G01 X-41.8607 Y23.5924 
G01 X-41.9267 Y23.4330 
G01 X-41.9604 Y23.2638 
G01 X-41.9604 Y23.0912 
G01 X-41.9267 Y22.9220 
G01 X-41.8607 Y22.7626 
G01 X-41.7649 Y22.6191 
G01 X-41.7622 Y22.6165 
G01 X-41.8286 Y22.5171 
G01 X-41.8755 Y22.4039 
G01 X-41.8994 Y22.2838 
G01 X-41.8994 Y21.2339 
G01 X-41.9502 Y21.2339 
G01 X-41.9920 Y21.2166 
G01 X-42.0241 Y21.1845 
G01 X-42.0414 Y21.1427 
G01 X-42.0414 Y19.4973 
G01 X-42.0241 Y19.4555 
G01 X-41.9920 Y19.4234 
G01 X-41.9502 Y19.4061 
G01 X-41.8994 Y19.4061 
G01 X-41.8994 Y15.1776 
G01 X-45.3426 Y11.7344 
G01 X-51.8124 Y11.7344 
G01 X-53.2711 Y13.1931 
G01 X-53.3729 Y13.2611 
G01 X-53.4861 Y13.3080 
G01 X-53.6062 Y13.3319 
G01 X-53.9036 Y13.3319 
G01 X-53.9209 Y13.3745 
G01 X-53.9530 Y13.4066 
G01 X-53.9948 Y13.4239 
G01 X-57.0402 Y13.4239 
G01 X-57.0820 Y13.4066 
G01 X-57.1141 Y13.3745 
G01 X-57.1314 Y13.3327 
G01 X-57.1314 Y12.0873 
G01 X-57.1141 Y12.0455 
G01 X-57.0820 Y12.0134 
G01 X-57.0402 Y11.9961 
G01 X-53.9948 Y11.9961 
G01 X-53.9530 Y12.0134 
G01 X-53.9209 Y12.0455 
G01 X-53.9097 Y12.0727 
G01 X-52.5531 Y10.7161 
G01 X-52.4664 Y10.6294 
G01 X-52.3646 Y10.5614 
G01 X-52.2514 Y10.5145 
G01 X-52.1313 Y10.4906 
G01 X-45.0237 Y10.4906 
G01 X-44.9036 Y10.5145 
G01 X-44.7904 Y10.5614 
G01 X-44.6886 Y10.6294 
G01 X-40.8786 Y14.4394 
G01 X-40.7919 Y14.5261 
G01 X-40.7239 Y14.6279 
G01 X-40.6770 Y14.7411 
G01 X-40.6531 Y14.8612 
G01 X-40.6531 Y14.9838 
G01 X-40.6556 Y14.9963 
G01 X-40.6556 Y19.4061 
G01 X-40.6048 Y19.4061 
G01 X-40.5630 Y19.4234 
G01 X-40.5309 Y19.4555 
G01 X-40.5136 Y19.4973 
G01 X-40.5136 Y21.1427 
G01 X-40.5309 Y21.1845 
G01 X-40.5630 Y21.2166 
G01 X-40.6048 Y21.2339 
G01 X-40.6556 Y21.2339 
G01 X-40.6556 Y21.9649 
G01 X-40.4418 Y22.1787 
G01 X-40.4213 Y22.1746 
G01 X-37.6862 Y22.1746 
G01 X-37.4925 Y22.2131 
G01 X-37.3099 Y22.2887 
G01 X-37.1457 Y22.3985 
G01 X-37.0060 Y22.5382 
G01 X-36.8962 Y22.7024 
G01 X-36.8833 Y22.7336 
G01 X-36.6923 Y22.7336 
G01 X-36.6505 Y22.7509 
G01 X-36.6184 Y22.7830 
G01 X-36.6011 Y22.8248 
G01 X-36.6011 Y24.1702 
G01 X-36.6184 Y24.2120 
G01 X-36.6505 Y24.2441 
G01 X-36.6923 Y24.2614 
G00 Z2.0000  F3000
G00 X-40.6904 Y24.8154  F3000
G01 Z-0.2000 F200.00 
G01 X-41.1555 Y24.8154 F500.00 
G01 X-41.2957 Y24.8376 
G01 X-41.4308 Y24.8815 
G01 X-41.5573 Y24.9459 
G01 X-41.6722 Y25.0294 
G01 X-41.7726 Y25.1298 
G01 X-41.8560 Y25.2447 
G01 X-41.9095 Y25.3496 
G01 X-41.8802 Y25.3496 
G01 X-41.8607 Y25.3026 
G01 X-41.7649 Y25.1591 
G01 X-41.6429 Y25.0371 
G01 X-41.4994 Y24.9413 
G01 X-41.3400 Y24.8753 
G01 X-41.1708 Y24.8416 
G01 X-40.6904 Y24.8416 
G01 X-40.6904 Y24.8154 
G00 Z2.0000  F3000
G00 X-41.2373 Y26.5802  F3000
G01 Z-0.2000 F200.00 
G01 X-41.3400 Y26.5597 F500.00 
G01 X-41.4994 Y26.4937 
G01 X-41.6429 Y26.3979 
G01 X-41.7649 Y26.2759 
G01 X-41.8607 Y26.1324 
G01 X-41.8802 Y26.0854 
G01 X-41.9095 Y26.0854 
G01 X-41.8560 Y26.1903 
G01 X-41.7726 Y26.3052 
G01 X-41.6722 Y26.4056 
G01 X-41.5573 Y26.4890 
G01 X-41.4308 Y26.5535 
G01 X-41.2957 Y26.5974 
G01 X-41.2602 Y26.6030 
G01 X-41.2373 Y26.5802 
G00 Z2.0000  F3000
G00 X-43.8764 Y27.5961  F3000
G01 Z-0.2000 F200.00 
G01 X-43.9131 Y27.6847 F500.00 
G01 X-45.6775 Y29.4491 
G01 X-46.5401 Y30.3117 
G01 X-46.6078 Y30.3794 
G01 X-46.6964 Y30.4161 
G01 X-53.7689 Y30.4161 
G01 X-53.8575 Y30.3794 
G01 X-53.9252 Y30.3117 
G01 X-53.9619 Y30.2231 
G01 X-53.9619 Y29.1494 
G01 X-53.9252 Y29.0608 
G01 X-53.8575 Y28.9931 
G01 X-53.7689 Y28.9564 
G01 X-53.0904 Y28.9564 
G01 X-53.0019 Y28.9931 
G01 X-52.7966 Y29.1984 
G01 X-51.3384 Y29.1984 
G01 X-51.2180 Y29.0780 
G01 X-51.1320 Y29.0424 
G01 X-51.1295 Y29.0413 
G01 X-51.0337 Y29.0413 
G01 X-51.0070 Y29.0524 
G01 X-50.9451 Y29.0780 
G01 X-50.9035 Y29.1196 
G01 X-50.8716 Y29.1380 
G01 X-50.8359 Y29.1476 
G01 X-50.5354 Y29.1476 
G01 X-50.5354 Y29.1214 
G01 X-50.8402 Y29.1214 
G01 X-50.8820 Y29.1041 
G01 X-50.9141 Y29.0720 
G01 X-50.9314 Y29.0302 
G01 X-50.9314 Y27.4848 
G01 X-50.9141 Y27.4430 
G01 X-50.8820 Y27.4109 
G01 X-50.8402 Y27.3936 
G01 X-50.5354 Y27.3936 
G01 X-50.5354 Y27.3674 
G01 X-50.8359 Y27.3674 
G01 X-50.8716 Y27.3769 
G01 X-50.9035 Y27.3954 
G01 X-50.9451 Y27.4370 
G01 X-51.0085 Y27.4632 
G01 X-51.0337 Y27.4737 
G01 X-51.1295 Y27.4737 
G01 X-51.2180 Y27.4370 
G01 X-51.3384 Y27.3166 
G01 X-52.7966 Y27.3166 
G01 X-52.9341 Y27.4542 
G01 X-53.0019 Y27.5219 
G01 X-53.0904 Y27.5586 
G01 X-53.8794 Y27.5586 
G01 X-53.8971 Y27.5630 
G01 X-53.9269 Y27.5586 
G01 X-53.9570 Y27.5586 
G01 X-53.9738 Y27.5516 
G01 X-53.9919 Y27.5489 
G01 X-54.0177 Y27.5334 
G01 X-54.0455 Y27.5219 
G01 X-54.0584 Y27.5090 
G01 X-54.0741 Y27.4996 
G01 X-54.0920 Y27.4754 
G01 X-54.1133 Y27.4542 
G01 X-54.1203 Y27.4373 
G01 X-54.1311 Y27.4226 
G01 X-54.1384 Y27.3934 
G01 X-54.1499 Y27.3656 
G01 X-54.1499 Y27.3473 
G01 X-54.2679 Y26.8756 
G01 X-54.2794 Y26.8478 
G01 X-54.2794 Y26.8295 
G01 X-54.2838 Y26.8118 
G01 X-54.2794 Y26.7821 
G01 X-54.2794 Y25.6939 
G01 X-54.2427 Y25.6053 
G01 X-54.1750 Y25.5376 
G01 X-54.0864 Y25.5009 
G01 X-53.9384 Y25.5009 
G01 X-53.8266 Y25.3891 
G01 X-53.8266 Y24.4405 
G01 X-53.8294 Y24.4320 
G01 X-53.8266 Y24.3929 
G01 X-53.8266 Y24.3536 
G01 X-53.8232 Y24.3453 
G01 X-53.8226 Y24.3365 
G01 X-53.8050 Y24.3013 
G01 X-53.7899 Y24.2650 
G01 X-53.7836 Y24.2587 
G01 X-53.7796 Y24.2508 
G01 X-53.7499 Y24.2250 
G01 X-53.7222 Y24.1973 
G01 X-53.7139 Y24.1939 
G01 X-53.7072 Y24.1880 
G01 X-53.6699 Y24.1756 
G01 X-53.6336 Y24.1606 
G01 X-53.6247 Y24.1606 
G01 X-53.6163 Y24.1578 
G01 X-53.5771 Y24.1606 
G01 X-53.5378 Y24.1606 
G01 X-53.5296 Y24.1640 
G01 X-53.5207 Y24.1646 
G01 X-53.4855 Y24.1822 
G01 X-53.4492 Y24.1973 
G01 X-53.4429 Y24.2036 
G01 X-53.4350 Y24.2075 
G01 X-53.4093 Y24.2372 
G01 X-53.3815 Y24.2650 
G01 X-53.3781 Y24.2733 
G01 X-52.8968 Y24.8288 
G01 X-52.8691 Y24.8566 
G01 X-52.8657 Y24.8648 
G01 X-52.8598 Y24.8716 
G01 X-52.8474 Y24.9088 
G01 X-52.8324 Y24.9451 
G01 X-52.8324 Y24.9540 
G01 X-52.8296 Y24.9625 
G01 X-52.8324 Y25.0017 
G01 X-52.8324 Y25.2973 
G01 X-52.6680 Y25.6942 
G01 X-52.3642 Y25.9980 
G01 X-51.9673 Y26.1624 
G01 X-48.0452 Y26.1624 
G01 X-47.7386 Y26.0354 
G01 X-47.3084 Y26.0354 
G01 X-46.9582 Y25.8903 
G01 X-46.6902 Y25.6223 
G01 X-46.5451 Y25.2720 
G01 X-46.5451 Y24.8929 
G01 X-46.6902 Y24.5427 
G01 X-46.9582 Y24.2747 
G01 X-47.3084 Y24.1296 
G01 X-47.7386 Y24.1296 
G01 X-47.7728 Y24.1154 
G01 X-47.9226 Y24.0534 
G01 X-47.9272 Y24.0515 
G01 X-48.0111 Y24.0167 
G01 X-48.0789 Y23.9490 
G01 X-48.1155 Y23.8604 
G01 X-48.1155 Y23.7646 
G01 X-48.1045 Y23.7379 
G01 X-48.0789 Y23.6760 
G01 X-48.0111 Y23.6083 
G01 X-47.9226 Y23.5716 
G01 X-47.8101 Y23.5250 
G01 X-47.7386 Y23.4954 
G01 X-47.3085 Y23.4954 
G01 X-46.9582 Y23.3503 
G01 X-46.6902 Y23.0823 
G01 X-46.5451 Y22.7320 
G01 X-46.5451 Y22.3529 
G01 X-46.6902 Y22.0027 
G01 X-46.9582 Y21.7347 
G01 X-47.3084 Y21.5896 
G01 X-47.7386 Y21.5896 
G01 X-47.9628 Y21.4967 
G01 X-48.0111 Y21.4767 
G01 X-48.0789 Y21.4090 
G01 X-48.1155 Y21.3204 
G01 X-48.1155 Y21.2246 
G01 X-48.0789 Y21.1360 
G01 X-48.0111 Y21.0683 
G01 X-47.7748 Y20.9704 
G01 X-47.7386 Y20.9554 
G01 X-47.3085 Y20.9554 
G01 X-46.9582 Y20.8103 
G01 X-46.6902 Y20.5423 
G01 X-46.5451 Y20.1920 
G01 X-46.5451 Y19.8130 
G01 X-46.6902 Y19.4627 
G01 X-46.9582 Y19.1947 
G01 X-47.3085 Y19.0496 
G01 X-47.7386 Y19.0496 
G01 X-47.9628 Y18.9567 
G01 X-48.0111 Y18.9367 
G01 X-48.0789 Y18.8690 
G01 X-48.1155 Y18.7804 
G01 X-48.1155 Y18.6846 
G01 X-48.0789 Y18.5960 
G01 X-48.0111 Y18.5283 
G01 X-47.7748 Y18.4304 
G01 X-47.7386 Y18.4154 
G01 X-47.3085 Y18.4154 
G01 X-46.9582 Y18.2703 
G01 X-46.6902 Y18.0023 
G01 X-46.5451 Y17.6520 
G01 X-46.5451 Y17.2729 
G01 X-46.6902 Y16.9227 
G01 X-46.9582 Y16.6547 
G01 X-47.3084 Y16.5096 
G01 X-47.7386 Y16.5096 
G01 X-47.8077 Y16.4810 
G01 X-48.0452 Y16.3826 
G01 X-51.1571 Y16.3826 
G01 X-51.2457 Y16.3459 
G01 X-51.4741 Y16.1175 
G01 X-51.7310 Y16.0111 
G01 X-53.7946 Y16.0111 
G01 X-53.8690 Y15.9803 
G01 X-53.8831 Y15.9744 
G01 X-53.9481 Y15.9094 
G01 X-53.9509 Y15.9067 
G01 X-54.0101 Y15.8474 
G01 X-54.0260 Y15.8105 
G01 X-54.0477 Y15.7579 
G01 X-54.0477 Y15.6621 
G01 X-54.0178 Y15.5898 
G01 X-54.0111 Y15.5735 
G01 X-53.9454 Y15.5079 
G01 X-53.8831 Y15.4456 
G01 X-53.7946 Y15.4089 
G01 X-52.9885 Y15.4089 
G01 X-52.7316 Y15.3025 
G01 X-50.9324 Y13.5033 
G01 X-50.8647 Y13.4356 
G01 X-50.7761 Y13.3989 
G01 X-46.3789 Y13.3989 
G01 X-46.2903 Y13.4356 
G01 X-44.5428 Y15.1831 
G01 X-44.4751 Y15.2508 
G01 X-44.4384 Y15.3394 
G01 X-44.4384 Y16.9241 
G01 X-44.3539 Y17.0085 
G01 X-44.3173 Y17.0971 
G01 X-44.3173 Y17.1929 
G01 X-44.3329 Y17.2306 
G01 X-44.3539 Y17.2814 
G01 X-44.4217 Y17.3492 
G01 X-44.4384 Y17.3659 
G01 X-44.4384 Y18.8241 
G01 X-44.2331 Y19.0294 
G01 X-44.1974 Y19.1154 
G01 X-44.1964 Y19.1179 
G01 X-44.1964 Y19.5065 
G01 X-44.0900 Y19.7634 
G01 X-44.0551 Y19.7983 
G01 X-44.0184 Y19.8869 
G01 X-44.0184 Y21.1991 
G01 X-43.9131 Y21.3044 
G01 X-43.8774 Y21.3904 
G01 X-43.8764 Y21.3929 
G01 X-43.8764 Y27.5961 
G00 Z2.0000  F3000
G00 X-46.9396 Y25.7629  F3000
G01 Z-0.2000 F200.00 
G01 X-47.0831 Y25.8587 F500.00 
G01 X-47.2425 Y25.9247 
G01 X-47.4117 Y25.9584 
G01 X-47.7657 Y25.9584 
G01 X-47.7849 Y25.9713 
G01 X-47.9675 Y26.0469 
G01 X-48.1612 Y26.0854 
G01 X-51.8513 Y26.0854 
G01 X-52.0450 Y26.0469 
G01 X-52.2276 Y25.9713 
G01 X-52.3918 Y25.8615 
G01 X-52.5315 Y25.7218 
G01 X-52.6413 Y25.5575 
G01 X-52.7169 Y25.3750 
G01 X-52.7554 Y25.1813 
G01 X-52.7554 Y24.9837 
G01 X-52.7377 Y24.8949 
G01 X-54.0119 Y23.4239 
G01 X-57.0402 Y23.4239 
G01 X-57.0820 Y23.4066 
G01 X-57.1141 Y23.3745 
G01 X-57.1314 Y23.3327 
G01 X-57.1314 Y22.0873 
G01 X-57.1141 Y22.0455 
G01 X-57.0820 Y22.0134 
G01 X-57.0402 Y21.9961 
G01 X-53.9948 Y21.9961 
G01 X-53.9530 Y22.0134 
G01 X-53.9209 Y22.0455 
G01 X-53.9036 Y22.0873 
G01 X-53.8463 Y22.0881 
G01 X-53.8241 Y22.0853 
G01 X-53.7852 Y22.0881 
G01 X-53.7462 Y22.0881 
G01 X-53.7243 Y22.0925 
G01 X-53.7019 Y22.0941 
G01 X-53.6643 Y22.1044 
G01 X-53.6261 Y22.1120 
G01 X-53.6054 Y22.1206 
G01 X-53.5838 Y22.1265 
G01 X-53.5489 Y22.1440 
G01 X-53.5129 Y22.1589 
G01 X-53.4943 Y22.1713 
G01 X-53.4743 Y22.1814 
G01 X-53.4435 Y22.2053 
G01 X-53.4111 Y22.2269 
G01 X-53.3952 Y22.2428 
G01 X-53.3775 Y22.2565 
G01 X-53.3520 Y22.2860 
G01 X-53.3244 Y22.3136 
G01 X-53.3120 Y22.3322 
G01 X-51.7984 Y24.0796 
G01 X-48.1612 Y24.0796 
G01 X-47.9675 Y24.1181 
G01 X-47.7849 Y24.1937 
G01 X-47.7657 Y24.2066 
G01 X-47.4117 Y24.2066 
G01 X-47.2425 Y24.2403 
G01 X-47.0831 Y24.3063 
G01 X-46.9396 Y24.4021 
G01 X-46.8176 Y24.5241 
G01 X-46.7218 Y24.6676 
G01 X-46.6558 Y24.8270 
G01 X-46.6221 Y24.9962 
G01 X-46.6221 Y25.1688 
G01 X-46.6558 Y25.3380 
G01 X-46.7218 Y25.4974 
G01 X-46.8176 Y25.6409 
G01 X-46.9396 Y25.7629 
G00 Z2.0000  F3000
G00 X-46.9396 Y23.2229  F3000
G01 Z-0.2000 F200.00 
G01 X-47.0831 Y23.3187 F500.00 
G01 X-47.2425 Y23.3847 
G01 X-47.4117 Y23.4184 
G01 X-47.7657 Y23.4184 
G01 X-47.7849 Y23.4313 
G01 X-47.9675 Y23.5069 
G01 X-48.1612 Y23.5454 
G01 X-51.5338 Y23.5454 
G01 X-51.7275 Y23.5069 
G01 X-51.9100 Y23.4313 
G01 X-52.0743 Y23.3215 
G01 X-52.2140 Y23.1818 
G01 X-52.3238 Y23.0175 
G01 X-52.3994 Y22.8350 
G01 X-52.4379 Y22.6413 
G01 X-52.4379 Y22.4437 
G01 X-52.4338 Y22.4232 
G01 X-53.5251 Y21.3319 
G01 X-53.9036 Y21.3319 
G01 X-53.9209 Y21.3745 
G01 X-53.9530 Y21.4066 
G01 X-53.9948 Y21.4239 
G01 X-57.0402 Y21.4239 
G01 X-57.0820 Y21.4066 
G01 X-57.1141 Y21.3745 
G01 X-57.1314 Y21.3327 
G01 X-57.1314 Y20.0873 
G01 X-57.1141 Y20.0455 
G01 X-57.0820 Y20.0134 
G01 X-57.0402 Y19.9961 
G01 X-53.9948 Y19.9961 
G01 X-53.9530 Y20.0134 
G01 X-53.9209 Y20.0455 
G01 X-53.9036 Y20.0873 
G01 X-53.2062 Y20.0881 
G01 X-53.0861 Y20.1120 
G01 X-52.9729 Y20.1589 
G01 X-52.8711 Y20.2269 
G01 X-51.5543 Y21.5437 
G01 X-51.5338 Y21.5396 
G01 X-48.1612 Y21.5396 
G01 X-47.9675 Y21.5781 
G01 X-47.7849 Y21.6537 
G01 X-47.7657 Y21.6666 
G01 X-47.4117 Y21.6666 
G01 X-47.2425 Y21.7003 
G01 X-47.0831 Y21.7663 
G01 X-46.9396 Y21.8621 
G01 X-46.8176 Y21.9841 
G01 X-46.7218 Y22.1276 
G01 X-46.6558 Y22.2870 
G01 X-46.6221 Y22.4562 
G01 X-46.6221 Y22.6288 
G01 X-46.6558 Y22.7980 
G01 X-46.7218 Y22.9574 
G01 X-46.8176 Y23.1009 
G01 X-46.9396 Y23.2229 
G00 Z2.0000  F3000
G00 X-46.9396 Y20.6829  F3000
G01 Z-0.2000 F200.00 
G01 X-47.0831 Y20.7787 F500.00 
G01 X-47.2425 Y20.8447 
G01 X-47.4117 Y20.8784 
G01 X-47.7657 Y20.8784 
G01 X-47.7849 Y20.8913 
G01 X-47.9675 Y20.9669 
G01 X-48.1612 Y21.0054 
G01 X-51.5338 Y21.0054 
G01 X-51.7275 Y20.9669 
G01 X-51.9100 Y20.8913 
G01 X-52.0743 Y20.7815 
G01 X-52.2140 Y20.6418 
G01 X-52.3238 Y20.4776 
G01 X-52.3994 Y20.2950 
G01 X-52.4379 Y20.1013 
G01 X-52.4379 Y19.9037 
G01 X-52.4338 Y19.8832 
G01 X-52.9851 Y19.3319 
G01 X-53.9036 Y19.3319 
G01 X-53.9209 Y19.3745 
G01 X-53.9530 Y19.4066 
G01 X-53.9948 Y19.4239 
G01 X-57.0402 Y19.4239 
G01 X-57.0820 Y19.4066 
G01 X-57.1141 Y19.3745 
G01 X-57.1314 Y19.3327 
G01 X-57.1314 Y18.0873 
G01 X-57.1141 Y18.0455 
G01 X-57.0820 Y18.0134 
G01 X-57.0402 Y17.9961 
G01 X-53.9948 Y17.9961 
G01 X-53.9530 Y18.0134 
G01 X-53.9209 Y18.0455 
G01 X-53.9036 Y18.0873 
G01 X-52.6662 Y18.0881 
G01 X-52.5461 Y18.1120 
G01 X-52.4329 Y18.1589 
G01 X-52.3311 Y18.2269 
G01 X-51.5543 Y19.0037 
G01 X-51.5338 Y18.9996 
G01 X-48.1612 Y18.9996 
G01 X-47.9675 Y19.0381 
G01 X-47.7849 Y19.1137 
G01 X-47.7657 Y19.1266 
G01 X-47.4117 Y19.1266 
G01 X-47.2425 Y19.1603 
G01 X-47.0831 Y19.2263 
G01 X-46.9396 Y19.3221 
G01 X-46.8176 Y19.4441 
G01 X-46.7218 Y19.5876 
G01 X-46.6558 Y19.7470 
G01 X-46.6221 Y19.9162 
G01 X-46.6221 Y20.0888 
G01 X-46.6558 Y20.2580 
G01 X-46.7218 Y20.4174 
G01 X-46.8176 Y20.5609 
G01 X-46.9396 Y20.6829 
G00 Z2.0000  F3000
G00 X-46.9396 Y18.1429  F3000
G01 Z-0.2000 F200.00 
G01 X-47.0831 Y18.2387 F500.00 
G01 X-47.2425 Y18.3047 
G01 X-47.4117 Y18.3384 
G01 X-47.7657 Y18.3384 
G01 X-47.7849 Y18.3513 
G01 X-47.9675 Y18.4269 
G01 X-48.1612 Y18.4654 
G01 X-51.2163 Y18.4654 
G01 X-51.4100 Y18.4269 
G01 X-51.5926 Y18.3513 
G01 X-51.7568 Y18.2415 
G01 X-51.8965 Y18.1018 
G01 X-52.0063 Y17.9376 
G01 X-52.0819 Y17.7550 
G01 X-52.1204 Y17.5613 
G01 X-52.1204 Y17.3637 
G01 X-52.1163 Y17.3432 
G01 X-52.1276 Y17.3319 
G01 X-53.9036 Y17.3319 
G01 X-53.9209 Y17.3745 
G01 X-53.9530 Y17.4066 
G01 X-53.9948 Y17.4239 
G01 X-57.0402 Y17.4239 
G01 X-57.0820 Y17.4066 
G01 X-57.1141 Y17.3745 
G01 X-57.1314 Y17.3327 
G01 X-57.1314 Y16.0873 
G01 X-57.1141 Y16.0455 
G01 X-57.0820 Y16.0134 
G01 X-57.0402 Y15.9961 
G01 X-53.9948 Y15.9961 
G01 X-53.9530 Y16.0134 
G01 X-53.9209 Y16.0455 
G01 X-53.9036 Y16.0873 
G01 X-51.8087 Y16.0881 
G01 X-51.6886 Y16.1120 
G01 X-51.5754 Y16.1589 
G01 X-51.4736 Y16.2269 
G01 X-51.2368 Y16.4637 
G01 X-51.2163 Y16.4596 
G01 X-48.1612 Y16.4596 
G01 X-47.9675 Y16.4981 
G01 X-47.7849 Y16.5737 
G01 X-47.7657 Y16.5866 
G01 X-47.4117 Y16.5866 
G01 X-47.2425 Y16.6203 
G01 X-47.0831 Y16.6863 
G01 X-46.9396 Y16.7821 
G01 X-46.8176 Y16.9041 
G01 X-46.7218 Y17.0476 
G01 X-46.6558 Y17.2070 
G01 X-46.6221 Y17.3762 
G01 X-46.6221 Y17.5488 
G01 X-46.6558 Y17.7180 
G01 X-46.7218 Y17.8774 
G01 X-46.8176 Y18.0209 
G01 X-46.9396 Y18.1429 
G00 Z2.0000  F3000
G00 X-44.3441 Y16.9095  F3000
G01 Z-0.2000 F200.00 
G01 X-44.3614 Y16.8677 F500.00 
G01 X-44.3614 Y15.5223 
G01 X-44.3441 Y15.4805 
G01 X-44.3120 Y15.4484 
G01 X-44.2702 Y15.4311 
G01 X-44.1859 Y15.4311 
G01 X-46.2951 Y13.3219 
G01 X-50.8599 Y13.3219 
G01 X-52.7311 Y15.1931 
G01 X-52.8329 Y15.2611 
G01 X-52.9461 Y15.3080 
G01 X-53.0662 Y15.3319 
G01 X-53.9036 Y15.3319 
G01 X-53.9209 Y15.3745 
G01 X-53.9530 Y15.4066 
G01 X-53.9948 Y15.4239 
G01 X-57.0402 Y15.4239 
G01 X-57.0820 Y15.4066 
G01 X-57.1141 Y15.3745 
G01 X-57.1314 Y15.3327 
G01 X-57.1314 Y14.0873 
G01 X-57.1141 Y14.0455 
G01 X-57.0820 Y14.0134 
G01 X-57.0402 Y13.9961 
G01 X-53.9948 Y13.9961 
G01 X-53.9530 Y14.0134 
G01 X-53.9209 Y14.0455 
G01 X-53.9036 Y14.0873 
G01 X-53.3851 Y14.0881 
G01 X-51.6006 Y12.3036 
G01 X-51.5139 Y12.2169 
G01 X-51.4121 Y12.1489 
G01 X-51.2989 Y12.1020 
G01 X-51.1788 Y12.0781 
G01 X-45.9762 Y12.0781 
G01 X-45.8561 Y12.1020 
G01 X-45.7429 Y12.1489 
G01 X-45.6411 Y12.2169 
G01 X-43.1011 Y14.7569 
G01 X-43.0144 Y14.8436 
G01 X-42.9464 Y14.9454 
G01 X-42.8995 Y15.0586 
G01 X-42.8756 Y15.1787 
G01 X-42.8756 Y15.4311 
G01 X-42.7248 Y15.4311 
G01 X-42.6830 Y15.4484 
G01 X-42.6509 Y15.4805 
G01 X-42.6336 Y15.5223 
G01 X-42.6336 Y16.8677 
G01 X-42.6509 Y16.9095 
G01 X-42.6830 Y16.9416 
G01 X-42.7248 Y16.9589 
G01 X-44.2702 Y16.9589 
G01 X-44.3120 Y16.9416 
G01 X-44.3441 Y16.9095 
G00 Z2.0000  F3000
G00 X-48.7028 Y15.8246  F3000
G01 Z-0.2000 F200.00 
G01 X-48.7351 Y15.8113 F500.00 
G01 X-48.7543 Y15.7984 
G01 X-49.1083 Y15.7984 
G01 X-49.2775 Y15.7647 
G01 X-49.4369 Y15.6987 
G01 X-49.5804 Y15.6029 
G01 X-49.7024 Y15.4809 
G01 X-49.7982 Y15.3374 
G01 X-49.8177 Y15.2904 
G01 X-49.8470 Y15.2904 
G01 X-49.7935 Y15.3953 
G01 X-49.7101 Y15.5102 
G01 X-49.6097 Y15.6106 
G01 X-49.4948 Y15.6940 
G01 X-49.3683 Y15.7585 
G01 X-49.2332 Y15.8024 
G01 X-49.0930 Y15.8246 
G01 X-48.7028 Y15.8246 
G00 Z2.0000  F3000
G00 X-48.7028 Y14.0204  F3000
G01 Z-0.2000 F200.00 
G01 X-49.0930 Y14.0204 F500.00 
G01 X-49.2332 Y14.0426 
G01 X-49.3683 Y14.0865 
G01 X-49.4948 Y14.1509 
G01 X-49.6097 Y14.2344 
G01 X-49.7101 Y14.3348 
G01 X-49.7935 Y14.4497 
G01 X-49.8470 Y14.5546 
G01 X-49.8177 Y14.5546 
G01 X-49.7982 Y14.5076 
G01 X-49.7024 Y14.3641 
G01 X-49.5804 Y14.2421 
G01 X-49.4369 Y14.1463 
G01 X-49.2775 Y14.0803 
G01 X-49.1083 Y14.0466 
G01 X-48.7543 Y14.0466 
G01 X-48.7351 Y14.0337 
G01 X-48.7028 Y14.0204 
G00 Z2.0000  F3000
G00 X-46.7514 Y9.3731  F3000
G01 Z-0.2000 F200.00 
G01 X-47.8826 Y8.2419 F500.00 
G01 X-49.5913 Y8.2419 
G01 X-49.7114 Y8.2180 
G01 X-49.8246 Y8.1711 
G01 X-49.9264 Y8.1031 
G01 X-50.0131 Y8.0164 
G01 X-50.2956 Y7.7339 
G01 X-51.6219 Y7.7339 
G01 X-52.7181 Y8.8301 
G01 X-52.7181 Y9.9038 
G01 X-52.7420 Y10.0239 
G01 X-52.7889 Y10.1371 
G01 X-52.8569 Y10.2389 
G01 X-52.9436 Y10.3256 
G01 X-53.8111 Y11.1931 
G01 X-53.9036 Y11.2549 
G01 X-53.9036 Y11.3327 
G01 X-53.9209 Y11.3745 
G01 X-53.9530 Y11.4066 
G01 X-53.9948 Y11.4239 
G01 X-57.0402 Y11.4239 
G01 X-57.0820 Y11.4066 
G01 X-57.1141 Y11.3745 
G01 X-57.1314 Y11.3327 
G01 X-57.1314 Y10.0873 
G01 X-57.1141 Y10.0455 
G01 X-57.0820 Y10.0134 
G01 X-57.0402 Y9.9961 
G01 X-54.3731 Y9.9961 
G01 X-53.9619 Y9.5849 
G01 X-53.9619 Y8.5112 
G01 X-53.9380 Y8.3911 
G01 X-53.8911 Y8.2779 
G01 X-53.8231 Y8.1761 
G01 X-52.5014 Y6.8544 
G01 X-52.5014 Y5.0573 
G01 X-52.4841 Y5.0155 
G01 X-52.4520 Y4.9834 
G01 X-52.4102 Y4.9661 
G01 X-49.8248 Y4.9661 
G01 X-49.7830 Y4.9834 
G01 X-49.7509 Y5.0155 
G01 X-49.7336 Y5.0573 
G01 X-49.7336 Y6.5369 
G01 X-49.2724 Y6.9981 
G01 X-48.1976 Y6.9981 
G01 X-47.4339 Y6.2344 
G01 X-47.4339 Y5.5773 
G01 X-47.4166 Y5.5355 
G01 X-47.3845 Y5.5034 
G01 X-47.3427 Y5.4861 
G01 X-45.9973 Y5.4861 
G01 X-45.9555 Y5.5034 
G01 X-45.9234 Y5.5355 
G01 X-45.9061 Y5.5773 
G01 X-45.9061 Y7.1227 
G01 X-45.9234 Y7.1645 
G01 X-45.9555 Y7.1966 
G01 X-45.9973 Y7.2139 
G01 X-46.6544 Y7.2139 
G01 X-46.9030 Y7.4625 
G01 X-46.1639 Y8.2016 
G01 X-46.1639 Y8.1173 
G01 X-46.1466 Y8.0755 
G01 X-46.1145 Y8.0434 
G01 X-46.0727 Y8.0261 
G01 X-44.7273 Y8.0261 
G01 X-44.6855 Y8.0434 
G01 X-44.6534 Y8.0755 
G01 X-44.6361 Y8.1173 
G01 X-44.6361 Y9.6627 
G01 X-44.6534 Y9.7045 
G01 X-44.6855 Y9.7366 
G01 X-44.7273 Y9.7539 
G01 X-46.0727 Y9.7539 
G01 X-46.1145 Y9.7366 
G01 X-46.1466 Y9.7045 
G01 X-46.1639 Y9.6627 
G01 X-46.1639 Y9.5119 
G01 X-46.4162 Y9.5119 
G01 X-46.5364 Y9.4880 
G01 X-46.6496 Y9.4411 
G01 X-46.7514 Y9.3731 
G00 Z2.0000  F3000
G00 X-44.4021 Y7.2401  F3000
G01 Z-0.2000 F200.00 
G01 X-44.1016 Y7.2401 F500.00 
G01 X-44.0659 Y7.2305 
G01 X-44.0340 Y7.2121 
G01 X-44.0079 Y7.1860 
G01 X-43.9894 Y7.1541 
G01 X-43.9799 Y7.1184 
G01 X-43.9799 Y6.7179 
G01 X-44.0061 Y6.7179 
G01 X-44.0061 Y7.1227 
G01 X-44.0234 Y7.1645 
G01 X-44.0555 Y7.1966 
G01 X-44.0973 Y7.2139 
G01 X-44.4021 Y7.2139 
G01 X-44.4021 Y7.2401 
G00 Z2.0000  F3000
G00 X-44.0061 Y5.9821  F3000
G01 Z-0.2000 F200.00 
G01 X-43.9799 Y5.9821 F500.00 
G01 X-43.9799 Y5.5815 
G01 X-43.9894 Y5.5459 
G01 X-44.0079 Y5.5140 
G01 X-44.0340 Y5.4879 
G01 X-44.0659 Y5.4694 
G01 X-44.1016 Y5.4599 
G01 X-44.1472 Y5.4599 
G01 X-44.1472 Y5.4861 
G01 X-44.0973 Y5.4861 
G01 X-44.0555 Y5.5034 
G01 X-44.0234 Y5.5355 
G01 X-44.0061 Y5.5773 
G01 X-44.0061 Y5.9821 
G00 Z2.0000  F3000
G00 X-57.0614 Y11.6110  F3000
G01 Z-0.2000 F200.00 
G01 X-57.0352 Y11.6744 F500.00 
G01 X-57.0248 Y11.6996 
G01 X-57.0248 Y11.7954 
G01 X-57.0614 Y11.8840 
G01 X-57.2084 Y12.0309 
G01 X-57.2084 Y13.3891 
G01 X-57.0239 Y13.5735 
G01 X-56.9883 Y13.6596 
G01 X-56.9873 Y13.6621 
G01 X-56.9873 Y13.7579 
G01 X-56.9983 Y13.7846 
G01 X-57.0239 Y13.8465 
G01 X-57.0917 Y13.9142 
G01 X-57.2084 Y14.0309 
G01 X-57.2084 Y15.3891 
G01 X-57.0239 Y15.5735 
G01 X-56.9883 Y15.6596 
G01 X-56.9873 Y15.6621 
G01 X-56.9873 Y15.7579 
G01 X-56.9983 Y15.7846 
G01 X-57.0239 Y15.8465 
G01 X-57.0917 Y15.9142 
G01 X-57.2084 Y16.0309 
G01 X-57.2084 Y17.3891 
G01 X-57.0239 Y17.5735 
G01 X-56.9883 Y17.6596 
G01 X-56.9873 Y17.6621 
G01 X-56.9873 Y17.7579 
G01 X-56.9983 Y17.7846 
G01 X-57.0239 Y17.8465 
G01 X-57.0917 Y17.9142 
G01 X-57.2084 Y18.0309 
G01 X-57.2084 Y19.3891 
G01 X-57.0239 Y19.5735 
G01 X-56.9883 Y19.6596 
G01 X-56.9873 Y19.6621 
G01 X-56.9873 Y19.7579 
G01 X-56.9983 Y19.7846 
G01 X-57.0239 Y19.8465 
G01 X-57.0917 Y19.9142 
G01 X-57.2084 Y20.0309 
G01 X-57.2084 Y21.3891 
G01 X-57.0239 Y21.5735 
G01 X-56.9883 Y21.6596 
G01 X-56.9873 Y21.6621 
G01 X-56.9873 Y21.7579 
G01 X-56.9983 Y21.7846 
G01 X-57.0239 Y21.8465 
G01 X-57.0917 Y21.9142 
G01 X-57.2084 Y22.0309 
G01 X-57.2084 Y23.3891 
G01 X-57.0239 Y23.5735 
G01 X-56.9883 Y23.6596 
G01 X-56.9873 Y23.6621 
G01 X-56.9873 Y23.7579 
G01 X-56.9983 Y23.7846 
G01 X-57.0239 Y23.8465 
G01 X-57.0917 Y23.9142 
G01 X-57.2084 Y24.0309 
G01 X-57.2084 Y25.3891 
G01 X-57.0966 Y25.5009 
G01 X-57.0386 Y25.5009 
G01 X-56.9500 Y25.5376 
G01 X-56.8823 Y25.6053 
G01 X-56.8456 Y25.6939 
G01 X-56.8456 Y26.8451 
G01 X-56.8412 Y26.8628 
G01 X-56.8456 Y26.8926 
G01 X-56.8456 Y26.9227 
G01 X-56.8526 Y26.9395 
G01 X-56.8692 Y27.0511 
G01 X-56.8571 Y27.0994 
G01 X-56.8456 Y27.1272 
G01 X-56.8456 Y27.1455 
G01 X-56.8412 Y27.1632 
G01 X-56.8456 Y27.1929 
G01 X-56.8456 Y27.2427 
G01 X-56.8024 Y27.3469 
G01 X-56.7916 Y27.3616 
G01 X-56.7843 Y27.3908 
G01 X-56.7727 Y27.4186 
G01 X-56.7727 Y27.4369 
G01 X-56.5396 Y28.3694 
G01 X-56.5281 Y28.3972 
G01 X-56.5281 Y28.4155 
G01 X-56.5237 Y28.4332 
G01 X-56.5281 Y28.4629 
G01 X-56.5281 Y28.6864 
G01 X-56.5648 Y28.7750 
G01 X-56.6325 Y28.8427 
G01 X-56.7211 Y28.8794 
G01 X-58.1833 Y28.8794 
G01 X-58.2718 Y28.8427 
G01 X-58.3396 Y28.7750 
G01 X-58.3658 Y28.7116 
G01 X-58.3762 Y28.6864 
G01 X-58.3762 Y28.5906 
G01 X-58.3396 Y28.5020 
G01 X-58.2266 Y28.3891 
G01 X-58.2266 Y25.2309 
G01 X-58.3384 Y25.1191 
G01 X-59.6966 Y25.1191 
G01 X-59.8810 Y25.3036 
G01 X-59.9671 Y25.3392 
G01 X-59.9696 Y25.3402 
G01 X-60.0654 Y25.3402 
G01 X-60.0921 Y25.3292 
G01 X-60.1540 Y25.3036 
G01 X-60.2217 Y25.2358 
G01 X-60.3384 Y25.1191 
G01 X-61.6966 Y25.1191 
G01 X-61.8133 Y25.2358 
G01 X-61.8810 Y25.3036 
G01 X-61.9444 Y25.3298 
G01 X-61.9696 Y25.3402 
G01 X-62.0654 Y25.3402 
G01 X-62.1540 Y25.3036 
G01 X-62.3384 Y25.1191 
G01 X-63.6966 Y25.1191 
G01 X-63.8133 Y25.2358 
G01 X-63.8810 Y25.3036 
G01 X-63.9444 Y25.3298 
G01 X-63.9696 Y25.3402 
G01 X-64.0654 Y25.3402 
G01 X-64.1540 Y25.3036 
G01 X-64.3384 Y25.1191 
G01 X-65.6966 Y25.1191 
G01 X-65.8133 Y25.2358 
G01 X-65.8810 Y25.3036 
G01 X-65.9444 Y25.3298 
G01 X-65.9696 Y25.3402 
G01 X-66.0654 Y25.3402 
G01 X-66.1540 Y25.3036 
G01 X-66.3384 Y25.1191 
G01 X-67.6966 Y25.1191 
G01 X-67.8133 Y25.2358 
G01 X-67.8810 Y25.3036 
G01 X-67.9444 Y25.3298 
G01 X-67.9696 Y25.3402 
G01 X-68.0654 Y25.3402 
G01 X-68.1540 Y25.3036 
G01 X-68.3384 Y25.1191 
G01 X-69.6966 Y25.1191 
G01 X-69.8470 Y25.2695 
G01 X-69.8328 Y25.3011 
G01 X-69.8167 Y25.3289 
G01 X-69.8146 Y25.3450 
G01 X-69.8084 Y25.3600 
G01 X-69.8084 Y25.3921 
G01 X-69.8042 Y25.4240 
G01 X-69.8084 Y25.4396 
G01 X-69.8084 Y28.3891 
G01 X-69.6954 Y28.5020 
G01 X-69.6598 Y28.5881 
G01 X-69.6587 Y28.5906 
G01 X-69.6587 Y28.6864 
G01 X-69.6698 Y28.7131 
G01 X-69.6954 Y28.7750 
G01 X-69.7632 Y28.8427 
G01 X-69.8492 Y28.8784 
G01 X-69.8517 Y28.8794 
G01 X-76.4552 Y28.8794 
G01 X-76.9268 Y29.0747 
G01 X-76.9511 Y29.0990 
G01 X-76.9564 Y29.1090 
G01 X-76.9848 Y29.1327 
G01 X-77.0109 Y29.1588 
G01 X-77.0213 Y29.1632 
G01 X-77.0300 Y29.1704 
G01 X-77.0653 Y29.1814 
G01 X-77.0995 Y29.1955 
G01 X-77.1107 Y29.1955 
G01 X-77.1215 Y29.1989 
G01 X-77.1583 Y29.1955 
G01 X-77.1953 Y29.1955 
G01 X-77.2057 Y29.1912 
G01 X-77.2169 Y29.1902 
G01 X-77.2497 Y29.1730 
G01 X-77.2838 Y29.1588 
G01 X-77.2918 Y29.1509 
G01 X-77.3018 Y29.1457 
G01 X-77.3255 Y29.1172 
G01 X-77.3516 Y29.0911 
G01 X-77.3559 Y29.0807 
G01 X-77.6608 Y28.7149 
G01 X-77.6869 Y28.6887 
G01 X-77.6912 Y28.6783 
G01 X-77.6984 Y28.6697 
G01 X-77.7094 Y28.6343 
G01 X-77.7236 Y28.6002 
G01 X-77.7236 Y28.5889 
G01 X-77.7269 Y28.5782 
G01 X-77.7236 Y28.5413 
G01 X-77.7236 Y23.9294 
G01 X-77.7283 Y23.9054 
G01 X-77.7236 Y23.8819 
G01 X-77.7236 Y23.8579 
G01 X-77.7143 Y23.8354 
G01 X-77.7099 Y23.8137 
G01 X-77.7144 Y23.7908 
G01 X-77.7236 Y23.7686 
G01 X-77.7236 Y23.7442 
G01 X-77.7283 Y23.7203 
G01 X-77.7236 Y23.6968 
G01 X-77.7236 Y23.6735 
G01 X-77.7321 Y23.6530 
G01 X-77.7456 Y23.6327 
G01 X-77.7502 Y23.6092 
G01 X-77.7594 Y23.5870 
G01 X-77.7594 Y23.5626 
G01 X-77.7637 Y23.5409 
G01 X-77.7766 Y23.5215 
G01 X-77.7936 Y23.5045 
G01 X-77.8029 Y23.4820 
G01 X-77.8164 Y23.4617 
G01 X-77.8211 Y23.4381 
G01 X-77.8300 Y23.4166 
G01 X-77.8457 Y23.4009 
G01 X-77.8659 Y23.3874 
G01 X-77.8792 Y23.3674 
G01 X-77.8962 Y23.3504 
G01 X-77.9055 Y23.3279 
G01 X-78.1881 Y22.9034 
G01 X-78.2052 Y22.8862 
G01 X-78.2144 Y22.8639 
G01 X-78.2278 Y22.8438 
G01 X-78.2325 Y22.8200 
G01 X-78.2417 Y22.7976 
G01 X-78.2417 Y22.7735 
G01 X-78.2464 Y22.7498 
G01 X-78.2416 Y22.7260 
G01 X-78.2415 Y22.7018 
G01 X-78.2323 Y22.6795 
G01 X-78.2275 Y22.6558 
G01 X-78.2140 Y22.6357 
G01 X-78.2047 Y22.6133 
G01 X-78.1876 Y22.5963 
G01 X-78.1741 Y22.5762 
G01 X-78.1540 Y22.5628 
G01 X-78.1368 Y22.5457 
G01 X-78.1145 Y22.5365 
G01 X-78.0944 Y22.5231 
G01 X-78.0706 Y22.5184 
G01 X-78.0274 Y22.5006 
G01 X-77.9629 Y22.4362 
G01 X-77.9287 Y22.4021 
G01 X-77.8952 Y22.3686 
G01 X-77.8311 Y22.3048 
G01 X-77.7966 Y22.2703 
G01 X-77.7634 Y22.2369 
G01 X-77.1734 Y21.6482 
G01 X-77.1402 Y21.6151 
G01 X-77.0957 Y21.5967 
G01 X-77.0517 Y21.5784 
G01 X-77.0035 Y21.5784 
G01 X-76.8020 Y21.5784 
G01 X-76.7135 Y21.6151 
G01 X-76.6457 Y21.6828 
G01 X-76.6195 Y21.7462 
G01 X-76.6090 Y21.7714 
G01 X-76.6090 Y21.8672 
G01 X-76.6457 Y21.9558 
G01 X-76.8234 Y22.1334 
G01 X-76.8234 Y23.5916 
G01 X-76.7708 Y23.6442 
G01 X-76.7252 Y23.6897 
G01 X-76.7030 Y23.7120 
G01 X-76.6831 Y23.7601 
G01 X-76.6663 Y23.8005 
G01 X-76.6663 Y23.8490 
G01 X-76.6663 Y23.8963 
G01 X-76.6909 Y23.9556 
G01 X-76.7030 Y23.9849 
G01 X-76.7446 Y24.0265 
G01 X-76.7630 Y24.0584 
G01 X-76.7726 Y24.0941 
G01 X-76.7726 Y24.3946 
G01 X-76.7464 Y24.3946 
G01 X-76.7464 Y24.0898 
G01 X-76.7291 Y24.0480 
G01 X-76.6970 Y24.0159 
G01 X-76.6552 Y23.9986 
G01 X-75.1098 Y23.9986 
G01 X-75.0680 Y24.0159 
G01 X-75.0359 Y24.0480 
G01 X-75.0186 Y24.0898 
G01 X-75.0186 Y24.3946 
G01 X-74.9924 Y24.3946 
G01 X-74.9924 Y24.0941 
G01 X-75.0019 Y24.0584 
G01 X-75.0204 Y24.0265 
G01 X-75.0620 Y23.9849 
G01 X-75.0987 Y23.8964 
G01 X-75.0987 Y23.8479 
G01 X-75.0987 Y23.8005 
G01 X-75.0620 Y23.7120 
G01 X-75.0352 Y23.6852 
G01 X-74.9942 Y23.6442 
G01 X-74.9432 Y23.5932 
G01 X-74.9137 Y23.5614 
G01 X-74.9094 Y23.5593 
G01 X-74.9060 Y23.5560 
G01 X-74.8660 Y23.5394 
G01 X-74.8267 Y23.5213 
G01 X-74.8219 Y23.5211 
G01 X-74.8175 Y23.5193 
G01 X-74.7742 Y23.5193 
G01 X-73.6744 Y23.4770 
G01 X-73.6700 Y23.4751 
G01 X-73.6267 Y23.4752 
G01 X-73.5835 Y23.4735 
G01 X-73.5790 Y23.4752 
G01 X-73.5742 Y23.4752 
G01 X-73.5342 Y23.4917 
G01 X-73.5148 Y23.4989 
G01 X-73.4996 Y23.5009 
G01 X-73.4675 Y23.5009 
G01 X-73.4525 Y23.5071 
G01 X-73.4364 Y23.5092 
G01 X-73.4086 Y23.5253 
G01 X-73.3790 Y23.5376 
G01 X-73.3675 Y23.5490 
G01 X-73.3535 Y23.5571 
G01 X-73.3339 Y23.5826 
G01 X-73.3112 Y23.6053 
G01 X-73.3050 Y23.6203 
G01 X-73.2951 Y23.6332 
G01 X-73.2868 Y23.6642 
G01 X-73.2745 Y23.6939 
G01 X-73.2745 Y23.7101 
G01 X-73.2703 Y23.7257 
G01 X-73.2745 Y23.7576 
G01 X-73.2745 Y23.7897 
G01 X-73.2807 Y23.8047 
G01 X-73.2828 Y23.8208 
G01 X-73.2989 Y23.8486 
G01 X-73.3112 Y23.8783 
G01 X-73.3226 Y23.8897 
G01 X-73.3307 Y23.9037 
G01 X-73.3562 Y23.9233 
G01 X-73.3790 Y23.9460 
G01 X-73.3939 Y23.9522 
G01 X-73.4068 Y23.9621 
G01 X-73.4378 Y23.9704 
G01 X-73.4675 Y23.9827 
G01 X-73.4772 Y23.9827 
G01 X-73.5035 Y23.9979 
G01 X-73.5296 Y24.0240 
G01 X-73.5481 Y24.0559 
G01 X-73.5576 Y24.0916 
G01 X-73.5576 Y24.3421 
G01 X-73.5314 Y24.3421 
G01 X-73.5314 Y24.0873 
G01 X-73.5141 Y24.0455 
G01 X-73.4820 Y24.0134 
G01 X-73.4402 Y23.9961 
G01 X-70.3948 Y23.9961 
G01 X-70.3530 Y24.0134 
G01 X-70.3209 Y24.0455 
G01 X-70.3036 Y24.0873 
G01 X-70.3036 Y24.3421 
G01 X-70.2774 Y24.3421 
G01 X-70.2774 Y24.0916 
G01 X-70.2869 Y24.0559 
G01 X-70.3054 Y24.0240 
G01 X-70.3315 Y23.9979 
G01 X-70.3578 Y23.9827 
G01 X-70.3675 Y23.9827 
G01 X-70.3972 Y23.9704 
G01 X-70.4282 Y23.9621 
G01 X-70.4411 Y23.9522 
G01 X-70.4560 Y23.9460 
G01 X-70.4788 Y23.9233 
G01 X-70.5042 Y23.9037 
G01 X-70.5124 Y23.8897 
G01 X-70.5238 Y23.8783 
G01 X-70.5361 Y23.8486 
G01 X-70.5522 Y23.8208 
G01 X-70.5543 Y23.8047 
G01 X-70.5605 Y23.7897 
G01 X-70.5605 Y23.7576 
G01 X-70.5647 Y23.7257 
G01 X-70.5605 Y23.7101 
G01 X-70.5605 Y23.6939 
G01 X-70.5482 Y23.6642 
G01 X-70.5399 Y23.6332 
G01 X-70.5300 Y23.6203 
G01 X-70.5238 Y23.6053 
G01 X-70.5011 Y23.5826 
G01 X-70.4815 Y23.5571 
G01 X-70.4675 Y23.5490 
G01 X-70.4560 Y23.5376 
G01 X-70.4264 Y23.5253 
G01 X-70.3985 Y23.5092 
G01 X-70.3825 Y23.5071 
G01 X-70.3675 Y23.5009 
G01 X-70.3384 Y23.5009 
G01 X-70.2266 Y23.3891 
G01 X-70.2266 Y22.0309 
G01 X-70.3433 Y21.9142 
G01 X-70.4111 Y21.8465 
G01 X-70.4373 Y21.7831 
G01 X-70.4477 Y21.7579 
G01 X-70.4477 Y21.6621 
G01 X-70.4111 Y21.5735 
G01 X-70.2266 Y21.3891 
G01 X-70.2266 Y20.0309 
G01 X-70.3433 Y19.9142 
G01 X-70.4111 Y19.8465 
G01 X-70.4373 Y19.7831 
G01 X-70.4477 Y19.7579 
G01 X-70.4477 Y19.6621 
G01 X-70.4111 Y19.5735 
G01 X-70.2266 Y19.3891 
G01 X-70.2266 Y18.0309 
G01 X-70.3433 Y17.9142 
G01 X-70.4111 Y17.8465 
G01 X-70.4373 Y17.7831 
G01 X-70.4477 Y17.7579 
G01 X-70.4477 Y17.6621 
G01 X-70.4111 Y17.5735 
G01 X-70.2266 Y17.3891 
G01 X-70.2266 Y16.0309 
G01 X-70.4111 Y15.8465 
G01 X-70.4467 Y15.7604 
G01 X-70.4477 Y15.7579 
G01 X-70.4477 Y15.6621 
G01 X-70.4367 Y15.6354 
G01 X-70.4111 Y15.5735 
G01 X-70.3433 Y15.5058 
G01 X-70.2266 Y15.3891 
G01 X-70.2266 Y14.0309 
G01 X-70.3433 Y13.9142 
G01 X-70.4111 Y13.8465 
G01 X-70.4373 Y13.7831 
G01 X-70.4477 Y13.7579 
G01 X-70.4477 Y13.6621 
G01 X-70.4111 Y13.5735 
G01 X-70.2266 Y13.3891 
G01 X-70.2266 Y12.0309 
G01 X-70.3736 Y11.8840 
G01 X-70.4092 Y11.7979 
G01 X-70.4102 Y11.7954 
G01 X-70.4102 Y11.6996 
G01 X-70.3992 Y11.6729 
G01 X-70.3736 Y11.6110 
G01 X-70.3058 Y11.5433 
G01 X-70.2198 Y11.5076 
G01 X-70.2173 Y11.5066 
G01 X-57.2177 Y11.5066 
G01 X-57.1292 Y11.5433 
G01 X-57.0614 Y11.6110 
G00 Z2.0000  F3000
G00 X-70.3530 Y11.4066  F3000
G01 Z-0.2000 F200.00 
G01 X-70.3948 Y11.4239 F500.00 
G01 X-73.4402 Y11.4239 
G01 X-73.4820 Y11.4066 
G01 X-73.5141 Y11.3745 
G01 X-73.5314 Y11.3327 
G01 X-74.4412 Y11.3319 
G01 X-74.5614 Y11.3080 
G01 X-74.6746 Y11.2611 
G01 X-74.7764 Y11.1931 
G01 X-75.3264 Y10.6431 
G01 X-75.4131 Y10.5564 
G01 X-75.4811 Y10.4546 
G01 X-75.5280 Y10.3414 
G01 X-75.5519 Y10.2212 
G01 X-75.5519 Y7.5601 
G01 X-76.4576 Y6.6544 
G01 X-79.1174 Y6.6544 
G01 X-79.2835 Y6.8205 
G01 X-79.1869 Y6.9170 
G01 X-79.0871 Y7.0544 
G01 X-79.0100 Y7.2058 
G01 X-78.9575 Y7.3673 
G01 X-78.9309 Y7.5351 
G01 X-78.9309 Y9.9274 
G01 X-78.9575 Y10.0952 
G01 X-79.0100 Y10.2567 
G01 X-79.0871 Y10.4081 
G01 X-79.1341 Y10.4728 
G01 X-79.1341 Y10.6908 
G01 X-79.1678 Y10.8600 
G01 X-79.2338 Y11.0194 
G01 X-79.3296 Y11.1629 
G01 X-79.4516 Y11.2849 
G01 X-79.5951 Y11.3807 
G01 X-79.7545 Y11.4467 
G01 X-79.9237 Y11.4804 
G01 X-80.0963 Y11.4804 
G01 X-80.2655 Y11.4467 
G01 X-80.4249 Y11.3807 
G01 X-80.5684 Y11.2849 
G01 X-80.6904 Y11.1629 
G01 X-80.7862 Y11.0194 
G01 X-80.8522 Y10.8600 
G01 X-80.8859 Y10.6908 
G01 X-80.8859 Y10.4728 
G01 X-80.9329 Y10.4081 
G01 X-81.0100 Y10.2567 
G01 X-81.0625 Y10.0952 
G01 X-81.0891 Y9.9274 
G01 X-81.0891 Y7.5351 
G01 X-81.0625 Y7.3673 
G01 X-81.0100 Y7.2058 
G01 X-80.9329 Y7.0544 
G01 X-80.8331 Y6.9170 
G01 X-80.7130 Y6.7969 
G01 X-80.6319 Y6.7380 
G01 X-80.6319 Y6.6062 
G01 X-80.6080 Y6.4861 
G01 X-80.5611 Y6.3729 
G01 X-80.4931 Y6.2711 
G01 X-80.4064 Y6.1844 
G01 X-79.7714 Y5.5494 
G01 X-79.6696 Y5.4814 
G01 X-79.5564 Y5.4345 
G01 X-79.4363 Y5.4106 
G01 X-76.1387 Y5.4106 
G01 X-76.0186 Y5.4345 
G01 X-75.9054 Y5.4814 
G01 X-75.8036 Y5.5494 
G01 X-75.7169 Y5.6361 
G01 X-74.4469 Y6.9061 
G01 X-74.3789 Y7.0079 
G01 X-74.3320 Y7.1211 
G01 X-74.3081 Y7.2412 
G01 X-74.3081 Y9.9024 
G01 X-74.1224 Y10.0881 
G01 X-73.5314 Y10.0881 
G01 X-73.5141 Y10.0455 
G01 X-73.4820 Y10.0134 
G01 X-73.4402 Y9.9961 
G01 X-70.3948 Y9.9961 
G01 X-70.3530 Y10.0134 
G01 X-70.3209 Y10.0455 
G01 X-70.3036 Y10.0873 
G01 X-70.3036 Y11.3327 
G01 X-70.3209 Y11.3745 
G01 X-70.3530 Y11.4066 
G00 Z2.0000  F3000
G00 X-70.3530 Y12.0134  F3000
G01 Z-0.2000 F200.00 
G01 X-70.3209 Y12.0455 F500.00 
G01 X-70.3036 Y12.0873 
G01 X-70.3036 Y13.3327 
G01 X-70.3209 Y13.3745 
G01 X-70.3530 Y13.4066 
G01 X-70.3948 Y13.4239 
G01 X-73.4402 Y13.4239 
G01 X-73.4820 Y13.4066 
G01 X-73.5141 Y13.3745 
G01 X-73.5314 Y13.3327 
G01 X-81.6488 Y13.3319 
G01 X-81.7689 Y13.3080 
G01 X-81.8821 Y13.2611 
G01 X-81.9839 Y13.1931 
G01 X-82.3661 Y12.8109 
G01 X-82.4651 Y12.8266 
G01 X-82.6349 Y12.8266 
G01 X-82.8027 Y12.8000 
G01 X-82.9642 Y12.7475 
G01 X-83.1156 Y12.6704 
G01 X-83.2530 Y12.5706 
G01 X-83.3731 Y12.4505 
G01 X-83.4729 Y12.3131 
G01 X-83.5500 Y12.1617 
G01 X-83.6025 Y12.0002 
G01 X-83.6291 Y11.8324 
G01 X-83.6291 Y9.7576 
G01 X-83.6025 Y9.5898 
G01 X-83.5500 Y9.4283 
G01 X-83.4729 Y9.2769 
G01 X-83.4259 Y9.2122 
G01 X-83.4259 Y8.9942 
G01 X-83.3922 Y8.8250 
G01 X-83.3262 Y8.6656 
G01 X-83.2304 Y8.5221 
G01 X-83.1084 Y8.4001 
G01 X-82.9649 Y8.3043 
G01 X-82.8055 Y8.2383 
G01 X-82.6363 Y8.2046 
G01 X-82.4637 Y8.2046 
G01 X-82.2945 Y8.2383 
G01 X-82.1351 Y8.3043 
G01 X-81.9916 Y8.4001 
G01 X-81.8696 Y8.5221 
G01 X-81.7738 Y8.6656 
G01 X-81.7078 Y8.8250 
G01 X-81.6741 Y8.9942 
G01 X-81.6741 Y9.2122 
G01 X-81.6271 Y9.2769 
G01 X-81.5500 Y9.4283 
G01 X-81.4975 Y9.5898 
G01 X-81.4709 Y9.7576 
G01 X-81.4709 Y11.8324 
G01 X-81.4866 Y11.9314 
G01 X-81.3299 Y12.0881 
G01 X-73.5314 Y12.0881 
G01 X-73.5141 Y12.0455 
G01 X-73.4820 Y12.0134 
G01 X-73.4402 Y11.9961 
G01 X-70.3948 Y11.9961 
G01 X-70.3530 Y12.0134 
G00 Z2.0000  F3000
G00 X-70.3530 Y14.0134  F3000
G01 Z-0.2000 F200.00 
G01 X-70.3209 Y14.0455 F500.00 
G01 X-70.3036 Y14.0873 
G01 X-70.3036 Y15.3327 
G01 X-70.3209 Y15.3745 
G01 X-70.3530 Y15.4066 
G01 X-70.3948 Y15.4239 
G01 X-73.4402 Y15.4239 
G01 X-73.4820 Y15.4066 
G01 X-73.5141 Y15.3745 
G01 X-73.5314 Y15.3327 
G01 X-73.5314 Y15.2269 
G01 X-89.2306 Y15.2269 
G01 X-89.2306 Y17.5522 
G01 X-85.9020 Y21.4860 
G01 X-85.8769 Y21.5111 
G01 X-85.8625 Y21.5327 
G01 X-85.8457 Y21.5525 
G01 X-85.8285 Y21.5835 
G01 X-85.8089 Y21.6129 
G01 X-85.7989 Y21.6369 
G01 X-85.7863 Y21.6597 
G01 X-85.7755 Y21.6934 
G01 X-85.7620 Y21.7261 
G01 X-85.7569 Y21.7516 
G01 X-85.7490 Y21.7764 
G01 X-85.7450 Y21.8115 
G01 X-85.7381 Y21.8462 
G01 X-85.7381 Y21.8723 
G01 X-85.7352 Y21.8981 
G01 X-85.7381 Y21.9334 
G01 X-85.7381 Y34.9849 
G01 X-81.9749 Y38.7481 
G01 X-66.4748 Y38.7481 
G01 X-65.5314 Y38.3708 
G01 X-65.5314 Y37.9123 
G01 X-65.5141 Y37.8705 
G01 X-65.4820 Y37.8384 
G01 X-65.4402 Y37.8211 
G01 X-64.0948 Y37.8211 
G01 X-64.0530 Y37.8384 
G01 X-64.0209 Y37.8705 
G01 X-64.0036 Y37.9123 
G01 X-64.0036 Y39.5577 
G01 X-64.0209 Y39.5995 
G01 X-64.0530 Y39.6316 
G01 X-64.0948 Y39.6489 
G01 X-65.3777 Y39.6489 
G01 X-66.1206 Y39.9460 
G01 X-66.1736 Y39.9680 
G01 X-66.1773 Y39.9687 
G01 X-66.1809 Y39.9702 
G01 X-66.2375 Y39.9807 
G01 X-66.2937 Y39.9919 
G01 X-66.2976 Y39.9919 
G01 X-66.3013 Y39.9926 
G01 X-66.3587 Y39.9919 
G01 X-82.2938 Y39.9919 
G01 X-82.4139 Y39.9680 
G01 X-82.5271 Y39.9211 
G01 X-82.6289 Y39.8531 
G01 X-82.7156 Y39.7664 
G01 X-86.7564 Y35.7256 
G01 X-86.8431 Y35.6389 
G01 X-86.9111 Y35.5371 
G01 X-86.9580 Y35.4239 
G01 X-86.9819 Y35.3038 
G01 X-86.9819 Y22.1353 
G01 X-90.3105 Y18.2015 
G01 X-90.3356 Y18.1764 
G01 X-90.3500 Y18.1548 
G01 X-90.3668 Y18.1349 
G01 X-90.3840 Y18.1040 
G01 X-90.4036 Y18.0746 
G01 X-90.4136 Y18.0505 
G01 X-90.4262 Y18.0278 
G01 X-90.4370 Y17.9941 
G01 X-90.4505 Y17.9614 
G01 X-90.4556 Y17.9359 
G01 X-90.4635 Y17.9111 
G01 X-90.4675 Y17.8759 
G01 X-90.4744 Y17.8412 
G01 X-90.4744 Y17.8152 
G01 X-90.4773 Y17.7894 
G01 X-90.4744 Y17.7541 
G01 X-90.4744 Y14.5437 
G01 X-90.4505 Y14.4236 
G01 X-90.4036 Y14.3104 
G01 X-90.3356 Y14.2086 
G01 X-90.2489 Y14.1219 
G01 X-90.1471 Y14.0539 
G01 X-90.0339 Y14.0070 
G01 X-89.9137 Y13.9831 
G01 X-71.9612 Y13.9831 
G01 X-71.8959 Y13.9961 
G01 X-70.3948 Y13.9961 
G01 X-70.3530 Y14.0134 
G00 Z2.0000  F3000
G00 X-70.3530 Y16.0134  F3000
G01 Z-0.2000 F200.00 
G01 X-70.3209 Y16.0455 F500.00 
G01 X-70.3036 Y16.0873 
G01 X-70.3036 Y17.3327 
G01 X-70.3209 Y17.3745 
G01 X-70.3530 Y17.4066 
G01 X-70.3948 Y17.4239 
G01 X-73.4402 Y17.4239 
G01 X-73.4820 Y17.4066 
G01 X-73.5141 Y17.3745 
G01 X-73.5314 Y17.3327 
G01 X-73.5314 Y16.0873 
G01 X-73.5141 Y16.0455 
G01 X-73.4820 Y16.0134 
G01 X-73.4402 Y15.9961 
G01 X-70.3948 Y15.9961 
G01 X-70.3530 Y16.0134 
G00 Z2.0000  F3000
G00 X-70.3530 Y18.0134  F3000
G01 Z-0.2000 F200.00 
G01 X-70.3209 Y18.0455 F500.00 
G01 X-70.3036 Y18.0873 
G01 X-70.3036 Y19.3327 
G01 X-70.3209 Y19.3745 
G01 X-70.3530 Y19.4066 
G01 X-70.3948 Y19.4239 
G01 X-73.4402 Y19.4239 
G01 X-73.4820 Y19.4066 
G01 X-73.5141 Y19.3745 
G01 X-73.5314 Y19.3327 
G01 X-73.9696 Y19.3319 
G01 X-74.0003 Y19.3349 
G01 X-74.0307 Y19.3319 
G01 X-74.0613 Y19.3319 
G01 X-74.0915 Y19.3259 
G01 X-74.1222 Y19.3228 
G01 X-74.1515 Y19.3140 
G01 X-74.1814 Y19.3080 
G01 X-74.2099 Y19.2962 
G01 X-77.4413 Y18.3142 
G01 X-77.5394 Y18.3854 
G01 X-77.6908 Y18.4625 
G01 X-77.8523 Y18.5150 
G01 X-78.0201 Y18.5416 
G01 X-78.1899 Y18.5416 
G01 X-78.3577 Y18.5150 
G01 X-78.4099 Y18.4981 
G01 X-78.4991 Y18.5874 
G01 X-78.6426 Y18.6832 
G01 X-78.7741 Y18.7377 
G01 X-78.8887 Y19.2540 
G01 X-78.8780 Y19.2584 
G01 X-78.8459 Y19.2905 
G01 X-78.8286 Y19.3323 
G01 X-78.8286 Y20.6777 
G01 X-78.8459 Y20.7195 
G01 X-78.8780 Y20.7516 
G01 X-78.9198 Y20.7689 
G01 X-80.4652 Y20.7689 
G01 X-80.5070 Y20.7516 
G01 X-80.5391 Y20.7195 
G01 X-80.5564 Y20.6777 
G01 X-80.5564 Y19.3323 
G01 X-80.5391 Y19.2905 
G01 X-80.5070 Y19.2584 
G01 X-80.4652 Y19.2411 
G01 X-80.1599 Y19.2411 
G01 X-79.9095 Y18.1133 
G01 X-79.9334 Y17.9933 
G01 X-79.9334 Y17.7753 
G01 X-79.9804 Y17.7106 
G01 X-80.0575 Y17.5592 
G01 X-80.1100 Y17.3977 
G01 X-80.1366 Y17.2299 
G01 X-80.1366 Y17.0601 
G01 X-80.1100 Y16.8923 
G01 X-80.0575 Y16.7308 
G01 X-79.9804 Y16.5794 
G01 X-79.9334 Y16.5147 
G01 X-79.9334 Y16.2967 
G01 X-79.8997 Y16.1275 
G01 X-79.8337 Y15.9681 
G01 X-79.7379 Y15.8246 
G01 X-79.6159 Y15.7026 
G01 X-79.4724 Y15.6068 
G01 X-79.3130 Y15.5408 
G01 X-79.1438 Y15.5071 
G01 X-78.9712 Y15.5071 
G01 X-78.8020 Y15.5408 
G01 X-78.6426 Y15.6068 
G01 X-78.4991 Y15.7026 
G01 X-78.3771 Y15.8246 
G01 X-78.2813 Y15.9681 
G01 X-78.2408 Y16.0659 
G01 X-78.0201 Y16.0659 
G01 X-77.8523 Y16.0925 
G01 X-77.6908 Y16.1450 
G01 X-77.5394 Y16.2221 
G01 X-77.4020 Y16.3219 
G01 X-77.2819 Y16.4420 
G01 X-77.1821 Y16.5794 
G01 X-77.1050 Y16.7308 
G01 X-77.0525 Y16.8923 
G01 X-77.0259 Y17.0601 
G01 X-77.0259 Y17.1405 
G01 X-73.9076 Y18.0881 
G01 X-73.5314 Y18.0881 
G01 X-73.5141 Y18.0455 
G01 X-73.4820 Y18.0134 
G01 X-73.4402 Y17.9961 
G01 X-70.3948 Y17.9961 
G01 X-70.3530 Y18.0134 
G00 Z2.0000  F3000
G00 X-70.3530 Y20.0134  F3000
G01 Z-0.2000 F200.00 
G01 X-70.3209 Y20.0455 F500.00 
G01 X-70.3036 Y20.0873 
G01 X-70.3036 Y21.3327 
G01 X-70.3209 Y21.3745 
G01 X-70.3530 Y21.4066 
G01 X-70.3948 Y21.4239 
G01 X-73.4402 Y21.4239 
G01 X-73.4820 Y21.4066 
G01 X-73.5141 Y21.3745 
G01 X-73.5314 Y21.3327 
G01 X-73.5314 Y21.2969 
G01 X-74.4861 Y21.2762 
G01 X-74.4861 Y21.4102 
G01 X-74.5034 Y21.4520 
G01 X-74.5355 Y21.4841 
G01 X-74.5773 Y21.5014 
G01 X-75.9227 Y21.5014 
G01 X-75.9645 Y21.4841 
G01 X-75.9966 Y21.4520 
G01 X-76.0139 Y21.4102 
G01 X-76.0139 Y19.8648 
G01 X-75.9966 Y19.8230 
G01 X-75.9645 Y19.7909 
G01 X-75.9227 Y19.7736 
G01 X-74.5773 Y19.7736 
G01 X-74.5355 Y19.7909 
G01 X-74.5034 Y19.8230 
G01 X-74.4861 Y19.8648 
G01 X-74.4861 Y20.0321 
G01 X-73.5172 Y20.0531 
G01 X-73.5141 Y20.0455 
G01 X-73.4820 Y20.0134 
G01 X-73.4402 Y19.9961 
G01 X-70.3948 Y19.9961 
G01 X-70.3530 Y20.0134 
G00 Z2.0000  F3000
G00 X-70.3530 Y22.0134  F3000
G01 Z-0.2000 F200.00 
G01 X-70.3209 Y22.0455 F500.00 
G01 X-70.3036 Y22.0873 
G01 X-70.3036 Y23.3327 
G01 X-70.3209 Y23.3745 
G01 X-70.3530 Y23.4066 
G01 X-70.3948 Y23.4239 
G01 X-73.4402 Y23.4239 
G01 X-73.4820 Y23.4066 
G01 X-73.4955 Y23.3930 
G01 X-75.0186 Y23.4516 
G01 X-75.0186 Y23.5352 
G01 X-75.0359 Y23.5770 
G01 X-75.0680 Y23.6091 
G01 X-75.1098 Y23.6264 
G01 X-76.6552 Y23.6264 
G01 X-76.6970 Y23.6091 
G01 X-76.7291 Y23.5770 
G01 X-76.7464 Y23.5352 
G01 X-76.7464 Y22.1898 
G01 X-76.7291 Y22.1480 
G01 X-76.6970 Y22.1159 
G01 X-76.6552 Y22.0986 
G01 X-75.1098 Y22.0986 
G01 X-75.0680 Y22.1159 
G01 X-75.0359 Y22.1480 
G01 X-75.0186 Y22.1898 
G01 X-75.0186 Y22.2069 
G01 X-73.5314 Y22.1497 
G01 X-73.5314 Y22.0873 
G01 X-73.5141 Y22.0455 
G01 X-73.4820 Y22.0134 
G01 X-73.4402 Y21.9961 
G01 X-70.3948 Y21.9961 
G01 X-70.3530 Y22.0134 
G00 Z2.0000  F3000
G00 X-70.3036 Y25.0779  F3000
G01 Z-0.2000 F200.00 
G01 X-70.3036 Y25.3327 F500.00 
G01 X-70.3209 Y25.3745 
G01 X-70.3530 Y25.4066 
G01 X-70.3948 Y25.4239 
G01 X-71.5496 Y25.4239 
G01 X-71.5496 Y25.4501 
G01 X-70.3991 Y25.4501 
G01 X-70.3634 Y25.4405 
G01 X-70.3315 Y25.4221 
G01 X-70.3054 Y25.3960 
G01 X-70.2902 Y25.3697 
G01 X-70.2902 Y25.3600 
G01 X-70.2779 Y25.3303 
G01 X-70.2696 Y25.2993 
G01 X-70.2597 Y25.2864 
G01 X-70.2535 Y25.2714 
G01 X-70.2388 Y25.2567 
G01 X-70.2764 Y25.1688 
G01 X-70.2774 Y25.1663 
G01 X-70.2774 Y25.0779 
G01 X-70.3036 Y25.0779 
G00 Z2.0000  F3000
G00 X-69.6820 Y25.2134  F3000
G01 Z-0.2000 F200.00 
G01 X-69.6402 Y25.1961 F500.00 
G01 X-68.3948 Y25.1961 
G01 X-68.3530 Y25.2134 
G01 X-68.3209 Y25.2455 
G01 X-68.3036 Y25.2873 
G01 X-68.3036 Y28.3327 
G01 X-68.3209 Y28.3745 
G01 X-68.3530 Y28.4066 
G01 X-68.3948 Y28.4239 
G01 X-69.6402 Y28.4239 
G01 X-69.6820 Y28.4066 
G01 X-69.7141 Y28.3745 
G01 X-69.7314 Y28.3327 
G01 X-69.7314 Y25.2873 
G01 X-69.7141 Y25.2455 
G01 X-69.6820 Y25.2134 
G00 Z2.0000  F3000
G00 X-67.6820 Y25.2134  F3000
G01 Z-0.2000 F200.00 
G01 X-67.6402 Y25.1961 F500.00 
G01 X-66.3948 Y25.1961 
G01 X-66.3530 Y25.2134 
G01 X-66.3209 Y25.2455 
G01 X-66.3036 Y25.2873 
G01 X-66.3036 Y28.3327 
G01 X-66.3209 Y28.3745 
G01 X-66.3530 Y28.4066 
G01 X-66.3948 Y28.4239 
G01 X-67.6402 Y28.4239 
G01 X-67.6820 Y28.4066 
G01 X-67.7141 Y28.3745 
G01 X-67.7314 Y28.3327 
G01 X-67.7314 Y25.2873 
G01 X-67.7141 Y25.2455 
G01 X-67.6820 Y25.2134 
G00 Z2.0000  F3000
G00 X-65.6820 Y25.2134  F3000
G01 Z-0.2000 F200.00 
G01 X-65.6402 Y25.1961 F500.00 
G01 X-64.3948 Y25.1961 
G01 X-64.3530 Y25.2134 
G01 X-64.3209 Y25.2455 
G01 X-64.3036 Y25.2873 
G01 X-64.3036 Y28.3327 
G01 X-64.3209 Y28.3745 
G01 X-64.3530 Y28.4066 
G01 X-64.3948 Y28.4239 
G01 X-65.6402 Y28.4239 
G01 X-65.6820 Y28.4066 
G01 X-65.7141 Y28.3745 
G01 X-65.7314 Y28.3327 
G01 X-65.7314 Y25.2873 
G01 X-65.7141 Y25.2455 
G01 X-65.6820 Y25.2134 
G00 Z2.0000  F3000
G00 X-63.6820 Y25.2134  F3000
G01 Z-0.2000 F200.00 
G01 X-63.6402 Y25.1961 F500.00 
G01 X-62.3948 Y25.1961 
G01 X-62.3530 Y25.2134 
G01 X-62.3209 Y25.2455 
G01 X-62.3036 Y25.2873 
G01 X-62.3036 Y28.3327 
G01 X-62.3209 Y28.3745 
G01 X-62.3530 Y28.4066 
G01 X-62.3948 Y28.4239 
G01 X-63.6402 Y28.4239 
G01 X-63.6820 Y28.4066 
G01 X-63.7141 Y28.3745 
G01 X-63.7314 Y28.3327 
G01 X-63.7314 Y25.2873 
G01 X-63.7141 Y25.2455 
G01 X-63.6820 Y25.2134 
G00 Z2.0000  F3000
G00 X-61.6820 Y25.2134  F3000
G01 Z-0.2000 F200.00 
G01 X-61.6402 Y25.1961 F500.00 
G01 X-60.3948 Y25.1961 
G01 X-60.3530 Y25.2134 
G01 X-60.3209 Y25.2455 
G01 X-60.3036 Y25.2873 
G01 X-60.3036 Y28.3327 
G01 X-60.3209 Y28.3745 
G01 X-60.3530 Y28.4066 
G01 X-60.3948 Y28.4239 
G01 X-61.6402 Y28.4239 
G01 X-61.6820 Y28.4066 
G01 X-61.7141 Y28.3745 
G01 X-61.7314 Y28.3327 
G01 X-61.7314 Y25.2873 
G01 X-61.7141 Y25.2455 
G01 X-61.6820 Y25.2134 
G00 Z2.0000  F3000
G00 X-59.6820 Y25.2134  F3000
G01 Z-0.2000 F200.00 
G01 X-59.6402 Y25.1961 F500.00 
G01 X-58.3948 Y25.1961 
G01 X-58.3530 Y25.2134 
G01 X-58.3209 Y25.2455 
G01 X-58.3036 Y25.2873 
G01 X-58.3036 Y28.3327 
G01 X-58.3209 Y28.3745 
G01 X-58.3530 Y28.4066 
G01 X-58.3948 Y28.4239 
G01 X-59.6402 Y28.4239 
G01 X-59.6820 Y28.4066 
G01 X-59.7141 Y28.3745 
G01 X-59.7314 Y28.3327 
G01 X-59.7314 Y25.2873 
G01 X-59.7141 Y25.2455 
G01 X-59.6820 Y25.2134 
G00 Z2.0000  F3000
G00 X-61.5809 Y34.4420  F3000
G01 Z-0.2000 F200.00 
G01 X-61.5954 Y34.4420 F500.00 
G01 X-61.5954 Y34.4682 
G01 X-61.5918 Y34.4682 
G01 X-61.1382 Y34.9218 
G01 X-61.1382 Y34.9254 
G01 X-61.1120 Y34.9254 
G01 X-61.1120 Y34.9109 
G01 X-61.5809 Y34.4420 
G00 Z2.0000  F3000
G00 X-62.2296 Y34.4420  F3000
G01 Z-0.2000 F200.00 
G01 X-62.2441 Y34.4420 F500.00 
G01 X-62.7130 Y34.9109 
G01 X-62.7130 Y34.9254 
G01 X-62.6868 Y34.9254 
G01 X-62.6868 Y34.9218 
G01 X-62.2332 Y34.4682 
G01 X-62.2296 Y34.4682 
G01 X-62.2296 Y34.4420 
G00 Z2.0000  F3000
G00 X-62.6868 Y35.5596  F3000
G01 Z-0.2000 F200.00 
G01 X-62.7130 Y35.5596 F500.00 
G01 X-62.7130 Y35.5741 
G01 X-62.2441 Y36.0430 
G01 X-62.2296 Y36.0430 
G01 X-62.2296 Y36.0168 
G01 X-62.2332 Y36.0168 
G01 X-62.6868 Y35.5632 
G01 X-62.6868 Y35.5596 
G00 Z2.0000  F3000
G00 X-61.1382 Y35.5596  F3000
G01 Z-0.2000 F200.00 
G01 X-61.1382 Y35.5632 F500.00 
G01 X-61.5918 Y36.0168 
G01 X-61.5954 Y36.0168 
G01 X-61.5954 Y36.0430 
G01 X-61.5809 Y36.0430 
G01 X-61.1120 Y35.5741 
G01 X-61.1120 Y35.5596 
G01 X-61.1382 Y35.5596 
G00 Z2.0000  F3000
G00 X-62.1209 Y37.8705  F3000
G01 Z-0.2000 F200.00 
G01 X-62.1036 Y37.9123 F500.00 
G01 X-62.1036 Y38.1131 
G01 X-51.1432 Y38.1131 
G01 X-51.1377 Y38.1121 
G01 X-51.0820 Y38.1131 
G01 X-51.0262 Y38.1131 
G01 X-51.0208 Y38.1142 
G01 X-49.4689 Y38.1418 
G01 X-49.4689 Y37.9698 
G01 X-49.4516 Y37.9280 
G01 X-49.4195 Y37.8959 
G01 X-49.3777 Y37.8786 
G01 X-46.3323 Y37.8786 
G01 X-46.2905 Y37.8959 
G01 X-46.2584 Y37.9280 
G01 X-46.2411 Y37.9698 
G01 X-46.2411 Y39.6152 
G01 X-46.2584 Y39.6570 
G01 X-46.2905 Y39.6891 
G01 X-46.3323 Y39.7064 
G01 X-49.3777 Y39.7064 
G01 X-49.4195 Y39.6891 
G01 X-49.4516 Y39.6570 
G01 X-49.4689 Y39.6152 
G01 X-49.4689 Y39.3858 
G01 X-51.0930 Y39.3569 
G01 X-62.1036 Y39.3569 
G01 X-62.1036 Y39.5577 
G01 X-62.1209 Y39.5995 
G01 X-62.1530 Y39.6316 
G01 X-62.1948 Y39.6489 
G01 X-63.5402 Y39.6489 
G01 X-63.5820 Y39.6316 
G01 X-63.6141 Y39.5995 
G01 X-63.6314 Y39.5577 
G01 X-63.6314 Y37.9123 
G01 X-63.6141 Y37.8705 
G01 X-63.5820 Y37.8384 
G01 X-63.5402 Y37.8211 
G01 X-62.1948 Y37.8211 
G01 X-62.1530 Y37.8384 
G01 X-62.1209 Y37.8705 
G00 Z2.0000  F3000
G00 X-67.9479 Y37.7110  F3000
G01 Z-0.2000 F200.00 
G01 X-67.9294 Y37.6791 F500.00 
G01 X-67.9199 Y37.6434 
G01 X-67.9199 Y35.2929 
G01 X-67.9461 Y35.2929 
G01 X-67.9461 Y37.6477 
G01 X-67.9634 Y37.6895 
G01 X-67.9955 Y37.7216 
G01 X-68.0373 Y37.7389 
G01 X-70.7921 Y37.7389 
G01 X-70.7921 Y37.7651 
G01 X-68.0416 Y37.7651 
G01 X-68.0059 Y37.7555 
G01 X-67.9740 Y37.7371 
G01 X-67.9479 Y37.7110 
G00 Z2.0000  F3000
G00 X-67.9461 Y34.3666  F3000
G01 Z-0.2000 F200.00 
G01 X-67.9199 Y34.3666 F500.00 
G01 X-67.9199 Y32.2066 
G01 X-67.9294 Y32.1709 
G01 X-67.9479 Y32.1390 
G01 X-67.9740 Y32.1129 
G01 X-68.0059 Y32.0944 
G01 X-68.0416 Y32.0849 
G01 X-70.7921 Y32.0849 
G01 X-70.7921 Y32.1111 
G01 X-68.0373 Y32.1111 
G01 X-67.9955 Y32.1284 
G01 X-67.9634 Y32.1605 
G01 X-67.9461 Y32.2023 
G01 X-67.9461 Y34.3666 
G00 Z2.0000  F3000
G00 X-71.5279 Y32.1111  F3000
G01 Z-0.2000 F200.00 
G01 X-71.5279 Y32.0849 F500.00 
G01 X-74.2784 Y32.0849 
G01 X-74.3141 Y32.0944 
G01 X-74.3460 Y32.1129 
G01 X-74.3721 Y32.1390 
G01 X-74.3905 Y32.1709 
G01 X-74.4001 Y32.2066 
G01 X-74.4001 Y34.5571 
G01 X-74.3739 Y34.5571 
G01 X-74.3739 Y32.2023 
G01 X-74.3566 Y32.1605 
G01 X-74.3245 Y32.1284 
G01 X-74.2827 Y32.1111 
G01 X-71.5279 Y32.1111 
G00 Z2.0000  F3000
G00 X-71.5279 Y37.7389  F3000
G01 Z-0.2000 F200.00 
G01 X-74.2827 Y37.7389 F500.00 
G01 X-74.3245 Y37.7216 
G01 X-74.3566 Y37.6895 
G01 X-74.3739 Y37.6477 
G01 X-74.3739 Y35.2929 
G01 X-74.4001 Y35.2929 
G01 X-74.4001 Y37.6434 
G01 X-74.3905 Y37.6791 
G01 X-74.3721 Y37.7110 
G01 X-74.3460 Y37.7371 
G01 X-74.3141 Y37.7555 
G01 X-74.2784 Y37.7651 
G01 X-71.5279 Y37.7651 
G01 X-71.5279 Y37.7389 
G00 Z2.0000  F3000
G00 X-77.3844 Y37.7589  F3000
G01 Z-0.2000 F200.00 
G01 X-77.4843 Y37.9203 F500.00 
G01 X-77.6082 Y38.0641 
G01 X-77.7531 Y38.1868 
G01 X-77.9154 Y38.2853 
G01 X-78.0911 Y38.3572 
G01 X-78.2759 Y38.4007 
G01 X-78.4652 Y38.4148 
G01 X-79.2486 Y38.3498 
G01 X-79.3396 Y38.3428 
G01 X-79.3432 Y38.3419 
G01 X-79.3469 Y38.3416 
G01 X-79.4354 Y38.3199 
G01 X-79.5242 Y38.2988 
G01 X-79.5277 Y38.2974 
G01 X-79.5313 Y38.2965 
G01 X-79.6154 Y38.2612 
G01 X-79.6998 Y38.2265 
G01 X-79.7029 Y38.2245 
G01 X-79.7064 Y38.2231 
G01 X-79.7840 Y38.1751 
G01 X-79.8618 Y38.1276 
G01 X-79.8647 Y38.1252 
G01 X-79.8678 Y38.1232 
G01 X-79.9370 Y38.0636 
G01 X-81.3914 Y36.8260 
G01 X-81.4307 Y36.7975 
G01 X-81.4635 Y36.7646 
G01 X-81.4989 Y36.7345 
G01 X-81.5306 Y36.6976 
G01 X-82.8350 Y35.3932 
G01 X-82.9465 Y35.2396 
G01 X-83.0327 Y35.0705 
G01 X-83.0914 Y34.8899 
G01 X-83.1211 Y34.7024 
G01 X-83.1211 Y31.3686 
G01 X-83.5974 Y31.3686 
G01 X-83.7849 Y31.3389 
G01 X-83.9655 Y31.2802 
G01 X-84.1346 Y31.1940 
G01 X-84.2882 Y31.0825 
G01 X-84.4225 Y30.9482 
G01 X-84.5340 Y30.7946 
G01 X-84.6202 Y30.6255 
G01 X-84.6789 Y30.4449 
G01 X-84.7086 Y30.2574 
G01 X-84.7086 Y23.7176 
G01 X-84.6789 Y23.5301 
G01 X-84.6202 Y23.3495 
G01 X-84.5340 Y23.1804 
G01 X-84.4225 Y23.0268 
G01 X-84.2882 Y22.8925 
G01 X-84.1346 Y22.7810 
G01 X-83.9655 Y22.6948 
G01 X-83.7849 Y22.6361 
G01 X-83.5974 Y22.6064 
G01 X-83.4076 Y22.6064 
G01 X-83.2201 Y22.6361 
G01 X-83.0395 Y22.6948 
G01 X-82.8704 Y22.7810 
G01 X-82.7168 Y22.8925 
G01 X-82.5825 Y23.0268 
G01 X-82.4710 Y23.1804 
G01 X-82.3848 Y23.3495 
G01 X-82.3261 Y23.5301 
G01 X-82.2964 Y23.7176 
G01 X-82.2964 Y28.9564 
G01 X-82.1376 Y28.9564 
G01 X-81.9501 Y28.9861 
G01 X-81.7695 Y29.0448 
G01 X-81.6004 Y29.1309 
G01 X-81.4468 Y29.2425 
G01 X-80.9950 Y29.6943 
G01 X-80.8834 Y29.8479 
G01 X-80.7973 Y30.0170 
G01 X-80.7386 Y30.1976 
G01 X-80.7089 Y30.3851 
G01 X-80.7089 Y34.1079 
G01 X-79.8264 Y34.9904 
G01 X-78.6662 Y35.9776 
G01 X-78.2656 Y36.0109 
G01 X-78.0812 Y36.0560 
G01 X-77.9061 Y36.1294 
G01 X-77.7447 Y36.2293 
G01 X-77.6008 Y36.3532 
G01 X-77.4782 Y36.4981 
G01 X-77.3797 Y36.6604 
G01 X-77.3078 Y36.8361 
G01 X-77.2643 Y37.0209 
G01 X-77.2502 Y37.2102 
G01 X-77.2659 Y37.3994 
G01 X-77.3110 Y37.5838 
G01 X-77.3844 Y37.7589 
G00 Z2.0000  F3000
G00 X-87.1633 Y35.5267  F3000
G01 Z-0.2000 F200.00 
G01 X-87.2519 Y35.5633 F500.00 
G01 X-87.3477 Y35.5633 
G01 X-87.4363 Y35.5267 
G01 X-87.5040 Y35.4589 
G01 X-90.7041 Y32.2588 
G01 X-90.7552 Y32.2077 
G01 X-90.7919 Y32.1192 
G01 X-90.7919 Y27.3673 
G01 X-90.8038 Y27.3386 
G01 X-90.8038 Y27.2902 
G01 X-90.8038 Y27.2428 
G01 X-90.7793 Y27.1836 
G01 X-90.7671 Y27.1542 
G01 X-90.7105 Y27.0976 
G01 X-90.6993 Y27.0864 
G01 X-90.5052 Y26.8923 
G01 X-90.3601 Y26.5420 
G01 X-90.3601 Y26.1629 
G01 X-90.5052 Y25.8127 
G01 X-90.7732 Y25.5447 
G01 X-91.1234 Y25.3996 
G01 X-91.6863 Y25.3996 
G01 X-91.8703 Y25.3234 
G01 X-92.2797 Y25.3234 
G01 X-92.4603 Y25.3982 
G01 X-92.4637 Y25.3996 
G01 X-92.8849 Y25.3996 
G01 X-92.9735 Y25.3629 
G01 X-93.0412 Y25.2952 
G01 X-93.0779 Y25.2066 
G01 X-93.0779 Y24.9076 
G01 X-93.0412 Y24.8190 
G01 X-92.9735 Y24.7513 
G01 X-92.8849 Y24.7146 
G01 X-92.4429 Y24.7146 
G01 X-92.4429 Y24.6884 
G01 X-92.9233 Y24.6884 
G01 X-93.0925 Y24.6547 
G01 X-93.2519 Y24.5887 
G01 X-93.3954 Y24.4929 
G01 X-93.5174 Y24.3709 
G01 X-93.6132 Y24.2274 
G01 X-93.6792 Y24.0680 
G01 X-93.7129 Y23.8988 
G01 X-93.7129 Y23.7262 
G01 X-93.6792 Y23.5570 
G01 X-93.6132 Y23.3976 
G01 X-93.5174 Y23.2541 
G01 X-93.3954 Y23.1321 
G01 X-93.2519 Y23.0363 
G01 X-93.0925 Y22.9703 
G01 X-92.9233 Y22.9366 
G01 X-92.4429 Y22.9366 
G01 X-92.4429 Y22.9104 
G01 X-92.8849 Y22.9104 
G01 X-92.9735 Y22.8737 
G01 X-93.0412 Y22.8060 
G01 X-93.0779 Y22.7174 
G01 X-93.0779 Y20.6392 
G01 X-93.1306 Y20.5865 
G01 X-93.2586 Y20.4103 
G01 X-93.3575 Y20.2162 
G01 X-93.4248 Y20.0091 
G01 X-93.4589 Y19.7939 
G01 X-93.4589 Y19.5761 
G01 X-93.4248 Y19.3609 
G01 X-93.3575 Y19.1538 
G01 X-93.2586 Y18.9597 
G01 X-93.1306 Y18.7834 
G01 X-93.0779 Y18.7308 
G01 X-93.0779 Y10.8353 
G01 X-93.1782 Y10.7625 
G01 X-93.3125 Y10.6282 
G01 X-93.4240 Y10.4746 
G01 X-93.5102 Y10.3055 
G01 X-93.5689 Y10.1249 
G01 X-93.5986 Y9.9374 
G01 X-93.5986 Y9.7476 
G01 X-93.5689 Y9.5601 
G01 X-93.5102 Y9.3795 
G01 X-93.4240 Y9.2104 
G01 X-93.3125 Y9.0568 
G01 X-92.7020 Y8.4463 
G01 X-92.5484 Y8.3347 
G01 X-92.5219 Y8.3212 
G01 X-92.4896 Y8.2741 
G01 X-92.3554 Y8.1431 
