;(.../Electronics/Eagle/pcb-gcode/pcb-gcode.ulp)
;(Copyright 2005 - 2012 by John Johnson)
;(See readme.txt for licensing terms.)
;(This file generated from the board:)
;(.../WiFi/Electronics/wifiboard.brd)
;(Current profile is .../pcb-gcode/profiles/generic.pp  )
;(This file generated 07/06/2017 21:17)
;(Settings from pcb-machine.h)
;(spindle on time = 1000.0000)
;(  Tool Size)
;(0.1778 )
;(spindle speed = 30000.0000)
;(tool change at 0.0000 0.0000 5.0000 )
;(feed rate xy = F500.00 )
;(feed rate z  = F200.00 )
;(Z Axis Settings)
;(  High     Up        Down     Drill)
;(5.0000 	2.0000 	-0.2000 	-2.0000 )
;(Settings from pcb-defaults.h)
;(isolate min = 0.0250)
;(isolate max = 0.5000)
;(isolate step = 0.0800)
;(Generated bottom outlines, bottom drill, )
;(Unit of measure: mm)
;(Metric Mode)
G21
;(Absolute Coordinates)
G90
;S30000
G00 Z5.0000  F3000
G00 X0.0000 Y0.0000  F3000
;M03 S1
G04 P1000.000000
G00 Z2.0000  F3000
G00 X-4.8039 Y3.7710  F3000
G01 Z-0.2000 F200.00 
G01 X-4.6427 Y3.9809 F500.00 
G01 X-4.5104 Y4.2101 
G01 X-4.4091 Y4.4546 
G01 X-4.3406 Y4.7103 
G01 X-4.3061 Y4.9727 
G01 X-4.3061 Y9.0012 
G01 X-4.3406 Y9.2636 
G01 X-4.4091 Y9.5192 
G01 X-4.5104 Y9.7637 
G01 X-4.6427 Y9.9929 
G01 X-4.8039 Y10.2029 
G01 X-4.9910 Y10.3900 
G01 X-5.2009 Y10.5512 
G01 X-5.4301 Y10.6835 
G01 X-5.6746 Y10.7848 
G01 X-5.9303 Y10.8533 
G01 X-6.1927 Y10.8878 
G01 X-6.4573 Y10.8878 
G01 X-6.7197 Y10.8533 
G01 X-6.9753 Y10.7848 
G01 X-7.2199 Y10.6835 
G01 X-7.4490 Y10.5512 
G01 X-7.6590 Y10.3900 
G01 X-7.8461 Y10.2029 
G01 X-8.0073 Y9.9929 
G01 X-8.1396 Y9.7637 
G01 X-8.2409 Y9.5192 
G01 X-8.3094 Y9.2636 
G01 X-8.3439 Y9.0012 
G01 X-8.3439 Y5.9413 
G01 X-8.4563 Y5.8289 
G01 X-20.8411 Y5.8289 
G01 X-20.8411 Y8.9423 
G01 X-20.8756 Y9.2047 
G01 X-20.9441 Y9.4603 
G01 X-21.0454 Y9.7049 
G01 X-21.1777 Y9.9340 
G01 X-21.3389 Y10.1440 
G01 X-21.6060 Y10.4111 
G01 X-21.8160 Y10.5723 
G01 X-22.0451 Y10.7046 
G01 X-22.2897 Y10.8059 
G01 X-22.5453 Y10.8744 
G01 X-22.8077 Y10.9089 
G01 X-23.0723 Y10.9089 
G01 X-23.3347 Y10.8744 
G01 X-23.5903 Y10.8059 
G01 X-23.8348 Y10.7046 
G01 X-24.0640 Y10.5723 
G01 X-24.2740 Y10.4111 
G01 X-24.4611 Y10.2240 
G01 X-24.6223 Y10.0140 
G01 X-24.7546 Y9.7849 
G01 X-24.8559 Y9.5403 
G01 X-24.9244 Y9.2847 
G01 X-24.9589 Y9.0223 
G01 X-24.9589 Y8.7577 
G01 X-24.9244 Y8.4953 
G01 X-24.8789 Y8.3256 
G01 X-24.8789 Y3.6777 
G01 X-24.8444 Y3.4153 
G01 X-24.7759 Y3.1597 
G01 X-24.6746 Y2.9151 
G01 X-24.5423 Y2.6860 
G01 X-24.3811 Y2.4760 
G01 X-24.1940 Y2.2889 
G01 X-23.9840 Y2.1277 
G01 X-23.7549 Y1.9954 
G01 X-23.5103 Y1.8941 
G01 X-23.2547 Y1.8256 
G01 X-22.9923 Y1.7911 
G01 X-7.4877 Y1.7911 
G01 X-7.2253 Y1.8256 
G01 X-6.9696 Y1.8941 
G01 X-6.7251 Y1.9954 
G01 X-6.4959 Y2.1277 
G01 X-6.2860 Y2.2889 
G01 X-4.8039 Y3.7710 
G00 Z2.0000  F3000
G00 X-5.4234 Y12.8933  F3000
G01 Z-0.2000 F200.00 
G01 X-1.4844 Y16.8324 F500.00 
G01 X-1.3564 Y17.0086 
G01 X-1.2575 Y17.2027 
G01 X-1.1902 Y17.4098 
G01 X-1.1561 Y17.6250 
G01 X-1.1561 Y30.5889 
G01 X-1.1902 Y30.8041 
G01 X-1.2575 Y31.0112 
G01 X-1.3564 Y31.2053 
G01 X-1.4844 Y31.3815 
G01 X-1.6384 Y31.5356 
G01 X-1.8147 Y31.6636 
G01 X-2.0088 Y31.7625 
G01 X-2.2159 Y31.8298 
G01 X-2.4311 Y31.8639 
G01 X-2.6489 Y31.8639 
G01 X-2.7821 Y31.8428 
G01 X-6.4339 Y31.8428 
G01 X-6.6491 Y31.8087 
G01 X-6.8562 Y31.7414 
G01 X-7.0503 Y31.6425 
G01 X-7.2265 Y31.5145 
G01 X-7.3806 Y31.3604 
G01 X-7.5086 Y31.1842 
G01 X-7.6075 Y30.9901 
G01 X-7.6748 Y30.7830 
G01 X-7.7089 Y30.5678 
G01 X-7.7089 Y30.3500 
G01 X-7.6748 Y30.1348 
G01 X-7.6075 Y29.9277 
G01 X-7.5086 Y29.7336 
G01 X-7.3806 Y29.5573 
G01 X-7.2265 Y29.4033 
G01 X-7.0503 Y29.2753 
G01 X-6.8562 Y29.1764 
G01 X-6.6491 Y29.1091 
G01 X-6.4339 Y29.0750 
G01 X-3.9239 Y29.0750 
G01 X-3.9239 Y18.3071 
G01 X-7.2792 Y14.9518 
G01 X-7.7399 Y14.9518 
G01 X-7.9336 Y14.9133 
G01 X-8.1161 Y14.8377 
G01 X-8.2804 Y14.7279 
G01 X-13.4790 Y9.5293 
G01 X-13.5888 Y9.3651 
G01 X-13.6644 Y9.1825 
G01 X-13.7029 Y8.9888 
G01 X-13.7029 Y8.7912 
G01 X-13.6644 Y8.5975 
G01 X-13.5888 Y8.4149 
G01 X-13.4790 Y8.2507 
G01 X-13.3393 Y8.1110 
G01 X-13.1751 Y8.0012 
G01 X-12.9925 Y7.9256 
G01 X-12.7988 Y7.8871 
G01 X-12.6012 Y7.8871 
G01 X-12.4075 Y7.9256 
G01 X-12.2249 Y8.0012 
G01 X-12.0607 Y8.1110 
G01 X-7.2525 Y12.9192 
G01 X-7.2265 Y12.8933 
G01 X-7.0503 Y12.7653 
G01 X-6.8562 Y12.6664 
G01 X-6.6491 Y12.5991 
G01 X-6.4339 Y12.5650 
G01 X-6.2161 Y12.5650 
G01 X-6.0009 Y12.5991 
G01 X-5.7938 Y12.6664 
G01 X-5.5997 Y12.7653 
G01 X-5.4234 Y12.8933 
G00 Z2.0000  F3000
G00 X-6.0989 Y18.9860  F3000
G01 Z-0.2000 F200.00 
G01 X-5.9377 Y19.1959 F500.00 
G01 X-5.8054 Y19.4251 
G01 X-5.7041 Y19.6697 
G01 X-5.6356 Y19.9253 
G01 X-5.6011 Y20.1877 
G01 X-5.6011 Y23.2476 
G01 X-4.8039 Y24.0449 
G01 X-4.6427 Y24.2549 
G01 X-4.5104 Y24.4840 
G01 X-4.4091 Y24.7285 
G01 X-4.3406 Y24.9842 
G01 X-4.3061 Y25.2466 
G01 X-4.3061 Y25.5112 
G01 X-4.3406 Y25.7736 
G01 X-4.4091 Y26.0292 
G01 X-4.5104 Y26.2737 
G01 X-4.6427 Y26.5029 
G01 X-4.8039 Y26.7129 
G01 X-4.9910 Y26.9000 
G01 X-5.2009 Y27.0612 
G01 X-5.4301 Y27.1935 
G01 X-5.6746 Y27.2948 
G01 X-5.9303 Y27.3633 
G01 X-6.1927 Y27.3978 
G01 X-6.4573 Y27.3978 
G01 X-6.7197 Y27.3633 
G01 X-6.9753 Y27.2948 
G01 X-7.2199 Y27.1935 
G01 X-7.4490 Y27.0612 
G01 X-7.6590 Y26.9000 
G01 X-9.1411 Y25.4179 
G01 X-9.3023 Y25.2079 
G01 X-9.4346 Y24.9788 
G01 X-9.5359 Y24.7342 
G01 X-9.6044 Y24.4786 
G01 X-9.6389 Y24.2162 
G01 X-9.6389 Y21.1563 
G01 X-14.2211 Y16.5740 
G01 X-14.3823 Y16.3640 
G01 X-14.5146 Y16.1349 
G01 X-14.6159 Y15.8903 
G01 X-14.6844 Y15.6347 
G01 X-14.7189 Y15.3723 
G01 X-14.7189 Y15.1782 
G01 X-15.8132 Y14.0839 
G01 X-16.6189 Y14.0839 
G01 X-16.8341 Y14.0498 
G01 X-17.0412 Y13.9825 
G01 X-17.2353 Y13.8836 
G01 X-17.4115 Y13.7556 
G01 X-17.4642 Y13.7029 
G01 X-17.4978 Y13.7029 
G01 X-17.6915 Y13.6644 
G01 X-17.8741 Y13.5888 
G01 X-18.0383 Y13.4790 
G01 X-18.1780 Y13.3393 
G01 X-18.2878 Y13.1751 
G01 X-18.3634 Y12.9925 
G01 X-18.4019 Y12.7988 
G01 X-18.4019 Y12.6012 
G01 X-18.3634 Y12.4075 
G01 X-18.2878 Y12.2249 
G01 X-18.1780 Y12.0607 
G01 X-18.0383 Y11.9210 
G01 X-17.8741 Y11.8112 
G01 X-17.6915 Y11.7356 
G01 X-17.4978 Y11.6971 
G01 X-17.4642 Y11.6971 
G01 X-17.4115 Y11.6444 
G01 X-17.2353 Y11.5164 
G01 X-17.0412 Y11.4175 
G01 X-16.8341 Y11.3502 
G01 X-16.6189 Y11.3161 
G01 X-15.1311 Y11.3161 
G01 X-14.9159 Y11.3502 
G01 X-14.7088 Y11.4175 
G01 X-14.5147 Y11.5164 
G01 X-14.3384 Y11.6444 
G01 X-12.7618 Y13.2211 
G01 X-12.5677 Y13.2211 
G01 X-12.3053 Y13.2556 
G01 X-12.0496 Y13.3241 
G01 X-11.8051 Y13.4254 
G01 X-11.5760 Y13.5577 
G01 X-11.3660 Y13.7189 
G01 X-6.2860 Y18.7989 
G01 X-6.0989 Y18.9860 
G00 Z2.0000  F3000
G00 X-14.8277 Y18.9040  F3000
G01 Z-0.2000 F200.00 
G01 X-14.9889 Y19.1140 F500.00 
G01 X-15.1760 Y19.3011 
G01 X-15.3859 Y19.4623 
G01 X-15.6151 Y19.5946 
G01 X-15.8597 Y19.6959 
G01 X-16.1153 Y19.7644 
G01 X-16.3777 Y19.7989 
G01 X-25.6671 Y19.7989 
G01 X-25.6671 Y21.6888 
G01 X-25.7056 Y21.8825 
G01 X-25.7812 Y22.0650 
G01 X-25.8910 Y22.2293 
G01 X-26.0307 Y22.3690 
G01 X-26.1949 Y22.4788 
G01 X-26.3775 Y22.5544 
G01 X-26.5712 Y22.5929 
G01 X-26.7688 Y22.5929 
G01 X-26.9625 Y22.5544 
G01 X-27.1451 Y22.4788 
G01 X-27.3093 Y22.3690 
G01 X-27.4490 Y22.2293 
G01 X-27.5588 Y22.0650 
G01 X-27.6344 Y21.8825 
G01 X-27.6729 Y21.6888 
G01 X-27.6729 Y19.7989 
G01 X-29.3423 Y19.7989 
G01 X-29.6047 Y19.7644 
G01 X-29.8603 Y19.6959 
G01 X-30.1048 Y19.5946 
G01 X-30.3340 Y19.4623 
G01 X-30.5440 Y19.3011 
G01 X-38.9363 Y10.9089 
G01 X-45.7723 Y10.9089 
G01 X-46.0347 Y10.8744 
G01 X-46.2903 Y10.8059 
G01 X-46.5348 Y10.7046 
G01 X-46.7640 Y10.5723 
G01 X-46.9740 Y10.4111 
G01 X-47.1611 Y10.2240 
G01 X-47.3223 Y10.0140 
G01 X-47.4546 Y9.7849 
G01 X-47.5559 Y9.5403 
G01 X-47.6244 Y9.2847 
G01 X-47.6589 Y9.0223 
G01 X-47.6589 Y8.7577 
G01 X-47.6244 Y8.4953 
G01 X-47.5559 Y8.2396 
G01 X-47.4546 Y7.9951 
G01 X-47.3223 Y7.7660 
G01 X-47.1611 Y7.5560 
G01 X-46.9740 Y7.3689 
G01 X-46.7640 Y7.2077 
G01 X-46.5348 Y7.0754 
G01 X-46.2903 Y6.9741 
G01 X-46.0347 Y6.9056 
G01 X-45.7723 Y6.8711 
G01 X-37.9677 Y6.8711 
G01 X-37.7053 Y6.9056 
G01 X-37.4496 Y6.9741 
G01 X-37.2051 Y7.0754 
G01 X-36.9759 Y7.2077 
G01 X-36.7660 Y7.3689 
G01 X-28.3737 Y15.7611 
G01 X-26.8023 Y15.7611 
G01 X-16.3777 Y15.7611 
G01 X-16.1153 Y15.7956 
G01 X-15.8597 Y15.8641 
G01 X-15.6151 Y15.9654 
G01 X-15.3859 Y16.0977 
G01 X-15.1760 Y16.2589 
G01 X-14.9889 Y16.4460 
G01 X-14.8277 Y16.6560 
G01 X-14.6954 Y16.8851 
G01 X-14.5941 Y17.1297 
G01 X-14.5256 Y17.3853 
G01 X-14.4911 Y17.6477 
G01 X-14.4911 Y17.9123 
G01 X-14.5256 Y18.1747 
G01 X-14.5941 Y18.4303 
G01 X-14.6954 Y18.6748 
G01 X-14.8277 Y18.9040 
G00 Z2.0000  F3000
G00 X-18.2710 Y26.0307  F3000
G01 Z-0.2000 F200.00 
G01 X-18.1612 Y26.1949 F500.00 
G01 X-18.0856 Y26.3775 
G01 X-18.0471 Y26.5712 
G01 X-18.0471 Y26.9401 
G01 X-17.8685 Y26.9756 
G01 X-17.6859 Y27.0512 
G01 X-17.5217 Y27.1610 
G01 X-17.3820 Y27.3007 
G01 X-17.2722 Y27.4649 
G01 X-17.1966 Y27.6475 
G01 X-17.1581 Y27.8412 
G01 X-17.1581 Y28.0388 
G01 X-17.1966 Y28.2325 
G01 X-17.2722 Y28.4151 
G01 X-17.3820 Y28.5793 
G01 X-17.5217 Y28.7190 
G01 X-17.6859 Y28.8288 
G01 X-17.8685 Y28.9044 
G01 X-18.0622 Y28.9429 
G01 X-20.0378 Y28.9429 
G01 X-20.2315 Y28.9044 
G01 X-20.4140 Y28.8288 
G01 X-20.5783 Y28.7190 
G01 X-20.7180 Y28.5793 
G01 X-20.8278 Y28.4151 
G01 X-20.9034 Y28.2325 
G01 X-20.9419 Y28.0388 
G01 X-20.9419 Y27.8412 
G01 X-20.9034 Y27.6475 
G01 X-20.8278 Y27.4649 
G01 X-20.7180 Y27.3007 
G01 X-20.5783 Y27.1610 
G01 X-20.4140 Y27.0512 
G01 X-20.2315 Y26.9756 
G01 X-20.1741 Y26.9642 
G01 X-20.7354 Y26.4029 
G01 X-29.3088 Y26.4029 
G01 X-29.5025 Y26.3644 
G01 X-29.6851 Y26.2888 
G01 X-29.8493 Y26.1790 
G01 X-39.7854 Y16.2429 
G01 X-46.9470 Y16.2429 
G01 X-47.0026 Y16.2477 
G01 X-47.0456 Y16.2429 
G01 X-47.0888 Y16.2429 
G01 X-47.1435 Y16.2320 
G01 X-47.1989 Y16.2259 
G01 X-47.2401 Y16.2128 
G01 X-47.2825 Y16.2044 
G01 X-47.3341 Y16.1830 
G01 X-47.3872 Y16.1662 
G01 X-47.4251 Y16.1453 
G01 X-47.4650 Y16.1288 
G01 X-47.5114 Y16.0978 
G01 X-47.5603 Y16.0709 
G01 X-47.5934 Y16.0430 
G01 X-47.6293 Y16.0190 
G01 X-47.6687 Y15.9796 
G01 X-47.7114 Y15.9436 
G01 X-47.7384 Y15.9099 
G01 X-47.7690 Y15.8793 
G01 X-47.8000 Y15.8329 
G01 X-52.5927 Y9.8421 
G01 X-67.6279 Y9.8421 
G01 X-67.6279 Y15.3338 
G01 X-67.6645 Y15.5177 
G01 X-67.7161 Y15.6423 
G01 X-67.7161 Y16.2327 
G01 X-67.7334 Y16.2745 
G01 X-67.7655 Y16.3066 
G01 X-67.8073 Y16.3239 
G01 X-69.3527 Y16.3239 
G01 X-69.3945 Y16.3066 
G01 X-69.4266 Y16.2745 
G01 X-69.4439 Y16.2327 
G01 X-69.4439 Y15.6423 
G01 X-69.4955 Y15.5177 
G01 X-69.5321 Y15.3338 
G01 X-69.5321 Y14.9221 
G01 X-71.4379 Y14.9221 
G01 X-71.4379 Y21.1756 
G01 X-71.3774 Y21.2361 
G01 X-71.2873 Y21.2361 
G01 X-71.2455 Y21.2534 
G01 X-71.2134 Y21.2855 
G01 X-71.1961 Y21.3273 
G01 X-71.1961 Y21.5684 
G01 X-71.1945 Y21.5723 
G01 X-71.1579 Y21.7562 
G01 X-71.1579 Y21.9438 
G01 X-71.1945 Y22.1277 
G01 X-71.1961 Y22.1316 
G01 X-71.1961 Y22.3727 
G01 X-71.2134 Y22.4145 
G01 X-71.2455 Y22.4466 
G01 X-71.2873 Y22.4639 
G01 X-71.3774 Y22.4639 
G01 X-71.5031 Y22.5895 
G01 X-71.6590 Y22.6937 
G01 X-71.8323 Y22.7655 
G01 X-72.0162 Y22.8021 
G01 X-72.4838 Y22.8021 
G01 X-72.6677 Y22.7655 
G01 X-72.8410 Y22.6937 
G01 X-72.9969 Y22.5895 
G01 X-73.1295 Y22.4569 
G01 X-73.2337 Y22.3010 
G01 X-73.3055 Y22.1277 
G01 X-73.3421 Y21.9438 
G01 X-73.3421 Y14.9221 
G01 X-76.1671 Y14.9221 
G01 X-76.2557 Y14.9588 
G01 X-76.4543 Y14.9983 
G01 X-78.4857 Y14.9983 
G01 X-78.6843 Y14.9588 
G01 X-78.8715 Y14.8813 
G01 X-79.0399 Y14.7687 
G01 X-79.1831 Y14.6255 
G01 X-79.2957 Y14.4571 
G01 X-79.3732 Y14.2699 
G01 X-79.4127 Y14.0713 
G01 X-79.4127 Y13.8687 
G01 X-79.3732 Y13.6701 
G01 X-79.2957 Y13.4829 
G01 X-79.1831 Y13.3145 
G01 X-79.0399 Y13.1713 
G01 X-78.8715 Y13.0587 
G01 X-78.6843 Y12.9812 
G01 X-78.4857 Y12.9417 
G01 X-76.4543 Y12.9417 
G01 X-76.2557 Y12.9812 
G01 X-76.1671 Y13.0179 
G01 X-69.5321 Y13.0179 
G01 X-69.5321 Y8.7962 
G01 X-69.4955 Y8.6123 
G01 X-69.4237 Y8.4390 
G01 X-69.3195 Y8.2831 
G01 X-69.1869 Y8.1505 
G01 X-69.0310 Y8.0463 
G01 X-68.8577 Y7.9745 
G01 X-68.6738 Y7.9379 
G01 X-52.3877 Y7.9379 
G01 X-52.2542 Y7.8992 
G01 X-52.0574 Y7.8823 
G01 X-51.8611 Y7.9041 
G01 X-51.6728 Y7.9638 
G01 X-51.4997 Y8.0591 
G01 X-51.3486 Y8.1864 
G01 X-46.5080 Y14.2371 
G01 X-39.2712 Y14.2371 
G01 X-39.0775 Y14.2756 
G01 X-38.8949 Y14.3512 
G01 X-38.7307 Y14.4610 
G01 X-28.7946 Y24.3971 
G01 X-20.2212 Y24.3971 
G01 X-20.0275 Y24.4356 
G01 X-19.8449 Y24.5112 
G01 X-19.6807 Y24.6210 
G01 X-19.5410 Y24.7607 
G01 X-18.2710 Y26.0307 
G00 Z2.0000  F3000
G00 X-18.0622 Y29.4771  F3000
G01 Z-0.2000 F200.00 
G01 X-17.8685 Y29.5156 F500.00 
G01 X-17.6859 Y29.5912 
G01 X-17.5217 Y29.7010 
G01 X-17.3820 Y29.8407 
G01 X-17.2722 Y30.0049 
G01 X-17.1966 Y30.1875 
G01 X-17.1581 Y30.3812 
G01 X-17.1581 Y30.5788 
G01 X-17.1966 Y30.7725 
G01 X-17.2722 Y30.9550 
G01 X-17.3820 Y31.1193 
G01 X-17.5217 Y31.2590 
G01 X-17.6859 Y31.3688 
G01 X-17.8685 Y31.4444 
G01 X-18.0622 Y31.4829 
G01 X-18.9512 Y31.4829 
G01 X-30.7488 Y31.4829 
G01 X-30.9425 Y31.4444 
G01 X-31.1251 Y31.3688 
G01 X-31.2893 Y31.2590 
G01 X-41.5890 Y20.9593 
G01 X-41.6988 Y20.7950 
G01 X-41.7744 Y20.6125 
G01 X-41.8129 Y20.4188 
G01 X-41.8129 Y20.2212 
G01 X-41.7744 Y20.0275 
G01 X-41.6988 Y19.8449 
G01 X-41.5890 Y19.6807 
G01 X-41.4493 Y19.5410 
G01 X-41.2850 Y19.4312 
G01 X-41.1025 Y19.3556 
G01 X-40.9088 Y19.3171 
G01 X-40.7112 Y19.3171 
G01 X-40.5175 Y19.3556 
G01 X-40.3349 Y19.4312 
G01 X-40.1707 Y19.5410 
G01 X-30.2346 Y29.4771 
G01 X-18.0622 Y29.4771 
G00 Z2.0000  F3000
G00 X-23.9353 Y29.3367  F3000
G01 Z-0.2000 F200.00 
G01 X-24.0076 Y29.3785 F500.00 
G01 X-24.0882 Y29.4001 
G01 X-30.1131 Y29.4001 
G01 X-30.1937 Y29.3785 
G01 X-30.2660 Y29.3367 
G01 X-40.1983 Y19.4045 
G01 X-40.5952 Y19.2401 
G01 X-41.0248 Y19.2401 
G01 X-41.4217 Y19.4045 
G01 X-41.6287 Y19.6115 
G01 X-41.6877 Y19.6705 
G01 X-41.7601 Y19.7123 
G01 X-41.8407 Y19.7339 
G01 X-42.1961 Y19.7339 
G01 X-42.1961 Y19.8927 
G01 X-42.2134 Y19.9345 
G01 X-42.2455 Y19.9666 
G01 X-42.2873 Y19.9839 
G01 X-43.7327 Y19.9839 
G01 X-43.7745 Y19.9666 
G01 X-43.8066 Y19.9345 
G01 X-43.8239 Y19.8927 
G01 X-43.8239 Y19.7339 
G01 X-43.8501 Y19.7339 
G01 X-43.8501 Y19.8884 
G01 X-43.8406 Y19.9241 
G01 X-43.8221 Y19.9560 
G01 X-43.7960 Y19.9821 
G01 X-43.7756 Y19.9939 
G01 X-43.7712 Y19.9965 
G01 X-43.7414 Y20.0262 
G01 X-43.7121 Y20.0555 
G01 X-43.7069 Y20.0646 
G01 X-43.6704 Y20.1278 
G01 X-43.6559 Y20.1820 
G01 X-43.6488 Y20.2084 
G01 X-43.6488 Y20.2507 
G01 X-43.6488 Y20.2919 
G01 X-43.6591 Y20.3306 
G01 X-43.6704 Y20.3726 
G01 X-43.7094 Y20.4403 
G01 X-43.7121 Y20.4449 
G01 X-43.7499 Y20.4826 
G01 X-43.7711 Y20.5039 
G01 X-44.4155 Y21.1483 
G01 X-44.5799 Y21.5452 
G01 X-44.5799 Y21.9748 
G01 X-44.5612 Y22.0200 
G01 X-44.5507 Y22.0381 
G01 X-44.5453 Y22.0584 
G01 X-44.5373 Y22.0777 
G01 X-44.5345 Y22.0985 
G01 X-44.5291 Y22.1188 
G01 X-44.5291 Y22.1397 
G01 X-44.5264 Y22.1605 
G01 X-44.5291 Y22.1813 
G01 X-44.5291 Y22.7565 
G01 X-44.5286 Y22.7600 
G01 X-44.5232 Y22.7802 
G01 X-44.5232 Y22.8012 
G01 X-44.5205 Y22.8220 
G01 X-44.5232 Y22.8428 
G01 X-44.5232 Y22.8637 
G01 X-44.5286 Y22.8840 
G01 X-44.5314 Y22.9047 
G01 X-44.5394 Y22.9241 
G01 X-44.5448 Y22.9444 
G01 X-44.5553 Y22.9625 
G01 X-44.5633 Y22.9819 
G01 X-44.5761 Y22.9985 
G01 X-44.5866 Y23.0167 
G01 X-44.6014 Y23.0315 
G01 X-44.6141 Y23.0481 
G01 X-44.6308 Y23.0609 
G01 X-44.6456 Y23.0757 
G01 X-44.6637 Y23.0862 
G01 X-44.6804 Y23.0990 
G01 X-44.6997 Y23.1070 
G01 X-44.7179 Y23.1175 
G01 X-44.7381 Y23.1229 
G01 X-44.7575 Y23.1309 
G01 X-44.7783 Y23.1337 
G01 X-44.7986 Y23.1391 
G01 X-44.8195 Y23.1391 
G01 X-44.8403 Y23.1418 
G01 X-44.8611 Y23.1391 
G01 X-45.3392 Y23.1391 
G01 X-45.3600 Y23.1418 
G01 X-45.3808 Y23.1391 
G01 X-45.4017 Y23.1391 
G01 X-45.4220 Y23.1337 
G01 X-45.4428 Y23.1309 
G01 X-45.4621 Y23.1229 
G01 X-45.4824 Y23.1175 
G01 X-45.5005 Y23.1070 
G01 X-45.5153 Y23.1009 
G01 X-47.8387 Y23.1009 
G01 X-47.8595 Y23.1036 
G01 X-47.8803 Y23.1009 
G01 X-47.9012 Y23.1009 
G01 X-47.9215 Y23.0955 
G01 X-47.9423 Y23.0927 
G01 X-47.9616 Y23.0847 
G01 X-47.9819 Y23.0793 
G01 X-48.0000 Y23.0688 
G01 X-48.0452 Y23.0501 
G01 X-48.4748 Y23.0501 
G01 X-48.8717 Y23.2145 
G01 X-51.1249 Y25.4677 
G01 X-51.1839 Y25.5267 
G01 X-51.2563 Y25.5685 
G01 X-51.3369 Y25.5901 
G01 X-52.8688 Y25.5901 
G01 X-52.9494 Y25.5685 
G01 X-52.9660 Y25.5589 
G01 X-53.0217 Y25.5267 
G01 X-53.0808 Y25.4677 
G01 X-53.1225 Y25.3954 
G01 X-53.1441 Y25.3147 
G01 X-53.1441 Y25.2312 
G01 X-53.1225 Y25.1506 
G01 X-53.1130 Y25.1341 
G01 X-53.0808 Y25.0783 
G01 X-53.0217 Y25.0193 
G01 X-52.7586 Y24.7561 
G01 X-52.5903 Y24.3499 
G01 X-52.5903 Y23.9101 
G01 X-52.7586 Y23.5039 
G01 X-53.0695 Y23.1930 
G01 X-53.1275 Y23.1689 
G01 X-53.1872 Y23.1442 
G01 X-53.2047 Y23.1370 
G01 X-53.2520 Y23.1006 
G01 X-53.2709 Y23.0862 
G01 X-53.3217 Y23.0199 
G01 X-53.3537 Y22.9428 
G01 X-53.3621 Y22.8784 
G01 X-53.3646 Y22.8600 
G01 X-53.3537 Y22.7772 
G01 X-53.3268 Y22.7124 
G01 X-53.3217 Y22.7001 
G01 X-53.2854 Y22.6527 
G01 X-53.2709 Y22.6338 
G01 X-53.2047 Y22.5830 
G01 X-53.0695 Y22.5270 
G01 X-52.7586 Y22.2161 
G01 X-52.5903 Y21.8099 
G01 X-52.5903 Y21.3701 
G01 X-52.7586 Y20.9639 
G01 X-53.0695 Y20.6530 
G01 X-53.2047 Y20.5970 
G01 X-53.2709 Y20.5462 
G01 X-53.2872 Y20.5249 
G01 X-53.3217 Y20.4799 
G01 X-53.3276 Y20.4658 
G01 X-53.3537 Y20.4028 
G01 X-53.3646 Y20.3200 
G01 X-53.3619 Y20.2999 
G01 X-53.3537 Y20.2372 
G01 X-53.3217 Y20.1601 
G01 X-53.2709 Y20.0938 
G01 X-53.2496 Y20.0775 
G01 X-53.2047 Y20.0430 
G01 X-53.1846 Y20.0347 
G01 X-53.1275 Y20.0111 
G01 X-53.0695 Y19.9870 
G01 X-52.7586 Y19.6761 
G01 X-52.5903 Y19.2699 
G01 X-52.5903 Y18.8301 
G01 X-52.7586 Y18.4239 
G01 X-53.0695 Y18.1130 
G01 X-53.1275 Y18.0889 
G01 X-53.2047 Y18.0570 
G01 X-53.2709 Y18.0062 
G01 X-53.3001 Y17.9682 
G01 X-53.3217 Y17.9399 
G01 X-53.3537 Y17.8628 
G01 X-53.3637 Y17.7870 
G01 X-53.3646 Y17.7800 
G01 X-53.3537 Y17.6972 
G01 X-53.3217 Y17.6201 
G01 X-53.2709 Y17.5538 
G01 X-53.2329 Y17.5247 
G01 X-53.2047 Y17.5030 
G01 X-53.1275 Y17.4711 
G01 X-53.0695 Y17.4470 
G01 X-52.7586 Y17.1361 
G01 X-52.5903 Y16.7299 
G01 X-52.5903 Y16.2901 
G01 X-52.7586 Y15.8839 
G01 X-53.0695 Y15.5730 
G01 X-53.1275 Y15.5489 
G01 X-53.1872 Y15.5242 
G01 X-53.2047 Y15.5170 
G01 X-53.2520 Y15.4806 
G01 X-53.2709 Y15.4662 
G01 X-53.3217 Y15.3999 
G01 X-53.3537 Y15.3228 
G01 X-53.3622 Y15.2584 
G01 X-53.3646 Y15.2400 
G01 X-53.3537 Y15.1572 
G01 X-53.3268 Y15.0924 
G01 X-53.3217 Y15.0801 
G01 X-53.2854 Y15.0327 
G01 X-53.2709 Y15.0138 
G01 X-53.2047 Y14.9630 
G01 X-53.0695 Y14.9070 
G01 X-52.7586 Y14.5961 
G01 X-52.5903 Y14.1899 
G01 X-52.5903 Y13.7501 
G01 X-52.7586 Y13.3439 
G01 X-53.0695 Y13.0330 
G01 X-53.4757 Y12.8647 
G01 X-55.7397 Y12.8647 
G01 X-55.7463 Y12.8685 
G01 X-55.7665 Y12.8739 
G01 X-55.7859 Y12.8819 
G01 X-55.8067 Y12.8847 
G01 X-55.8269 Y12.8901 
G01 X-55.8479 Y12.8901 
G01 X-55.8687 Y12.8928 
G01 X-55.8895 Y12.8901 
G01 X-58.6348 Y12.8901 
G01 X-59.0317 Y13.0545 
G01 X-59.3355 Y13.3583 
G01 X-59.4999 Y13.7552 
G01 X-59.4999 Y34.5048 
G01 X-59.3355 Y34.9017 
G01 X-59.0317 Y35.2055 
G01 X-58.6348 Y35.3699 
G01 X-45.8252 Y35.3699 
G01 X-45.7800 Y35.3512 
G01 X-45.7619 Y35.3407 
G01 X-45.7416 Y35.3353 
G01 X-45.7223 Y35.3273 
G01 X-45.7015 Y35.3245 
G01 X-45.6812 Y35.3191 
G01 X-45.6603 Y35.3191 
G01 X-45.6395 Y35.3164 
G01 X-45.6187 Y35.3191 
G01 X-44.2453 Y35.3191 
G01 X-43.8671 Y35.1624 
G01 X-43.5776 Y34.8729 
G01 X-43.4209 Y34.4947 
G01 X-43.4209 Y32.8153 
G01 X-43.4270 Y32.8005 
G01 X-43.4375 Y32.7824 
G01 X-43.4429 Y32.7621 
G01 X-43.4509 Y32.7428 
G01 X-43.4537 Y32.7220 
G01 X-43.4591 Y32.7017 
G01 X-43.4591 Y32.6808 
G01 X-43.4618 Y32.6600 
G01 X-43.4591 Y32.6392 
G01 X-43.4591 Y31.9709 
G01 X-43.4853 Y31.9447 
G01 X-43.5168 Y31.8902 
G01 X-43.5271 Y31.8724 
G01 X-43.5373 Y31.8341 
G01 X-43.5487 Y31.7918 
G01 X-43.5487 Y31.7082 
G01 X-43.5393 Y31.6734 
G01 X-43.5271 Y31.6276 
G01 X-43.4974 Y31.5763 
G01 X-43.4853 Y31.5553 
G01 X-43.4591 Y31.5291 
G01 X-43.4591 Y30.8608 
G01 X-43.4618 Y30.8400 
G01 X-43.4591 Y30.8192 
G01 X-43.4591 Y30.7982 
G01 X-43.4537 Y30.7780 
G01 X-43.4509 Y30.7572 
G01 X-43.4429 Y30.7378 
G01 X-43.4375 Y30.7176 
G01 X-43.4270 Y30.6994 
G01 X-43.4209 Y30.6847 
G01 X-43.4209 Y30.5144 
G01 X-43.3993 Y30.4338 
G01 X-43.3575 Y30.3615 
G01 X-43.2985 Y30.3025 
G01 X-43.2262 Y30.2607 
G01 X-43.1455 Y30.2391 
G01 X-41.9444 Y30.2391 
G01 X-41.8638 Y30.2607 
G01 X-41.7915 Y30.3025 
G01 X-41.7325 Y30.3615 
G01 X-41.6907 Y30.4338 
G01 X-41.6691 Y30.5144 
G01 X-41.6691 Y30.6847 
G01 X-41.6130 Y30.8202 
G01 X-41.6025 Y30.8383 
G01 X-41.5971 Y30.8586 
G01 X-41.5891 Y30.8779 
G01 X-41.5863 Y30.8987 
G01 X-41.5809 Y30.9190 
G01 X-41.5809 Y30.9399 
G01 X-41.5782 Y30.9607 
G01 X-41.5809 Y30.9815 
G01 X-41.5809 Y31.5291 
G01 X-41.5733 Y31.5366 
G01 X-41.5143 Y31.5957 
G01 X-41.4785 Y31.6577 
G01 X-41.4725 Y31.6680 
G01 X-41.4623 Y31.7063 
G01 X-41.4509 Y31.7486 
G01 X-41.4509 Y31.8321 
G01 X-41.4671 Y31.8924 
G01 X-41.4725 Y31.9128 
G01 X-41.4915 Y31.9456 
G01 X-41.5143 Y31.9851 
G01 X-41.5206 Y31.9959 
G01 X-41.5301 Y32.0315 
G01 X-41.5301 Y32.2611 
G01 X-41.5039 Y32.2611 
G01 X-41.5039 Y32.0273 
G01 X-41.4866 Y31.9855 
G01 X-41.4545 Y31.9534 
G01 X-41.4127 Y31.9361 
G01 X-39.8673 Y31.9361 
G01 X-39.8255 Y31.9534 
G01 X-39.7934 Y31.9855 
G01 X-39.7761 Y32.0273 
G01 X-39.7761 Y32.2611 
G01 X-39.7499 Y32.2611 
G01 X-39.7499 Y32.0315 
G01 X-39.7594 Y31.9959 
G01 X-39.7657 Y31.9851 
G01 X-39.7891 Y31.9445 
G01 X-39.8074 Y31.9128 
G01 X-39.8136 Y31.8899 
G01 X-39.8291 Y31.8321 
G01 X-39.8291 Y31.7486 
G01 X-39.8172 Y31.7045 
G01 X-39.8075 Y31.6680 
G01 X-39.8005 Y31.6559 
G01 X-39.7657 Y31.5957 
G01 X-39.7628 Y31.5927 
G01 X-39.7067 Y31.5366 
G01 X-39.6991 Y31.5291 
G01 X-39.6991 Y30.9815 
G01 X-39.7018 Y30.9607 
G01 X-39.6991 Y30.9399 
G01 X-39.6991 Y30.9190 
G01 X-39.6937 Y30.8987 
G01 X-39.6909 Y30.8779 
G01 X-39.6829 Y30.8586 
G01 X-39.6775 Y30.8383 
G01 X-39.6670 Y30.8202 
G01 X-39.6109 Y30.6847 
G01 X-39.6109 Y30.5144 
G01 X-39.5893 Y30.4338 
G01 X-39.5475 Y30.3615 
G01 X-39.4885 Y30.3025 
G01 X-39.4162 Y30.2607 
G01 X-39.3355 Y30.2391 
G01 X-38.6159 Y30.2391 
G01 X-38.5352 Y30.2607 
G01 X-38.4629 Y30.3025 
G01 X-36.7115 Y32.0539 
G01 X-36.6525 Y32.1129 
G01 X-36.6107 Y32.1852 
G01 X-36.5891 Y32.2659 
G01 X-36.5891 Y34.4947 
G01 X-36.5450 Y34.6012 
G01 X-36.5345 Y34.6193 
G01 X-36.5291 Y34.6396 
G01 X-36.5211 Y34.6589 
G01 X-36.5183 Y34.6797 
G01 X-36.5129 Y34.7000 
G01 X-36.5129 Y34.7209 
G01 X-36.5102 Y34.7417 
G01 X-36.5129 Y34.7625 
G01 X-36.5129 Y35.2415 
G01 X-36.3678 Y35.5918 
G01 X-36.0998 Y35.8598 
G01 X-35.7495 Y36.0049 
G01 X-35.3705 Y36.0049 
G01 X-35.0202 Y35.8598 
G01 X-34.7522 Y35.5918 
G01 X-34.6071 Y35.2415 
G01 X-34.6071 Y34.7625 
G01 X-34.6098 Y34.7417 
G01 X-34.6071 Y34.7209 
G01 X-34.6071 Y34.7000 
G01 X-34.6017 Y34.6797 
G01 X-34.5989 Y34.6590 
G01 X-34.5909 Y34.6396 
G01 X-34.5855 Y34.6193 
G01 X-34.5750 Y34.6012 
G01 X-34.5401 Y34.5169 
G01 X-34.5347 Y34.4967 
G01 X-34.5242 Y34.4785 
G01 X-34.5162 Y34.4592 
G01 X-34.5034 Y34.4425 
G01 X-34.4929 Y34.4244 
G01 X-34.4781 Y34.4096 
G01 X-34.4654 Y34.3929 
G01 X-34.4487 Y34.3802 
G01 X-34.4339 Y34.3653 
G01 X-34.4157 Y34.3549 
G01 X-34.3991 Y34.3421 
G01 X-34.3798 Y34.3341 
G01 X-34.3616 Y34.3236 
G01 X-34.3413 Y34.3182 
G01 X-34.3220 Y34.3101 
G01 X-34.3012 Y34.3074 
G01 X-34.2809 Y34.3020 
G01 X-34.2600 Y34.3020 
G01 X-34.2392 Y34.2992 
G01 X-34.2184 Y34.3020 
G01 X-34.1974 Y34.3020 
G01 X-34.1772 Y34.3074 
G01 X-34.1564 Y34.3101 
G01 X-34.1371 Y34.3182 
G01 X-34.1168 Y34.3236 
G01 X-34.0986 Y34.3341 
G01 X-34.0793 Y34.3421 
G01 X-34.0627 Y34.3548 
G01 X-34.0445 Y34.3653 
G01 X-34.0297 Y34.3802 
G01 X-34.0229 Y34.3854 
G01 X-34.0229 Y34.1912 
G01 X-33.9844 Y33.9975 
G01 X-33.9088 Y33.8149 
G01 X-33.8959 Y33.7957 
G01 X-33.8959 Y33.4417 
G01 X-33.8622 Y33.2725 
G01 X-33.7962 Y33.1131 
G01 X-33.7004 Y32.9696 
G01 X-33.5784 Y32.8476 
G01 X-33.4349 Y32.7518 
G01 X-33.3879 Y32.7323 
G01 X-33.3879 Y32.7030 
G01 X-33.4928 Y32.7565 
G01 X-33.6077 Y32.8399 
G01 X-33.7081 Y32.9403 
G01 X-33.7915 Y33.0552 
G01 X-33.8560 Y33.1817 
G01 X-33.8967 Y33.3070 
G01 X-33.8967 Y33.3135 
G01 X-33.9032 Y33.3377 
G01 X-33.9071 Y33.3625 
G01 X-33.9140 Y33.3779 
G01 X-33.9183 Y33.3941 
G01 X-33.9309 Y33.4159 
G01 X-33.9411 Y33.4388 
G01 X-33.9517 Y33.4519 
G01 X-33.9601 Y33.4664 
G01 X-33.9778 Y33.4842 
G01 X-33.9936 Y33.5037 
G01 X-34.0072 Y33.5136 
G01 X-34.0191 Y33.5255 
G01 X-34.0409 Y33.5380 
G01 X-34.0612 Y33.5528 
G01 X-34.0769 Y33.5588 
G01 X-34.0914 Y33.5672 
G01 X-34.1157 Y33.5737 
G01 X-34.1391 Y33.5827 
G01 X-34.1558 Y33.5845 
G01 X-34.1720 Y33.5888 
G01 X-34.1972 Y33.5888 
G01 X-34.2222 Y33.5914 
G01 X-34.2388 Y33.5888 
G01 X-34.2555 Y33.5888 
G01 X-34.2798 Y33.5823 
G01 X-34.3046 Y33.5784 
G01 X-34.3200 Y33.5715 
G01 X-34.3362 Y33.5672 
G01 X-34.3579 Y33.5546 
G01 X-34.3809 Y33.5444 
G01 X-34.3939 Y33.5339 
G01 X-34.4085 Y33.5255 
G01 X-34.4263 Y33.5077 
G01 X-34.4458 Y33.4919 
G01 X-34.4557 Y33.4783 
G01 X-34.4675 Y33.4664 
G01 X-34.4801 Y33.4447 
G01 X-34.4949 Y33.4243 
G01 X-34.5009 Y33.4087 
G01 X-34.5093 Y33.3941 
G01 X-34.5158 Y33.3698 
G01 X-34.5248 Y33.3464 
G01 X-34.5265 Y33.3297 
G01 X-34.5309 Y33.3135 
G01 X-34.5309 Y33.2883 
G01 X-34.5335 Y33.2634 
G01 X-34.5309 Y33.2468 
G01 X-34.5309 Y31.5453 
G01 X-34.6876 Y31.1671 
G01 X-37.1534 Y28.7012 
G01 X-37.5171 Y28.3376 
G01 X-37.8953 Y28.1809 
G01 X-50.0108 Y28.1809 
G01 X-50.0316 Y28.1836 
G01 X-50.0524 Y28.1809 
G01 X-50.0733 Y28.1809 
G01 X-50.0936 Y28.1755 
G01 X-50.1144 Y28.1727 
G01 X-50.1337 Y28.1647 
G01 X-50.1540 Y28.1593 
G01 X-50.1721 Y28.1488 
G01 X-50.1915 Y28.1408 
G01 X-50.2081 Y28.1280 
G01 X-50.2263 Y28.1175 
G01 X-50.2411 Y28.1027 
G01 X-50.2577 Y28.0899 
G01 X-50.2705 Y28.0733 
G01 X-50.2853 Y28.0585 
G01 X-50.2958 Y28.0403 
G01 X-50.3086 Y28.0237 
G01 X-50.3166 Y28.0043 
G01 X-50.3271 Y27.9862 
G01 X-50.3325 Y27.9659 
G01 X-50.3405 Y27.9465 
G01 X-50.3432 Y27.9258 
G01 X-50.3487 Y27.9055 
G01 X-50.3487 Y27.8846 
G01 X-50.3514 Y27.8638 
G01 X-50.3487 Y27.8430 
G01 X-50.3487 Y27.8221 
G01 X-50.3432 Y27.8018 
G01 X-50.3405 Y27.7810 
G01 X-50.3325 Y27.7616 
G01 X-50.3271 Y27.7414 
G01 X-50.3166 Y27.7232 
G01 X-50.3085 Y27.7039 
G01 X-50.2958 Y27.6872 
G01 X-50.2853 Y27.6691 
G01 X-50.2705 Y27.6543 
G01 X-50.2577 Y27.6376 
G01 X-50.2411 Y27.6249 
G01 X-50.2263 Y27.6101 
G01 X-50.2081 Y27.5996 
G01 X-50.1915 Y27.5868 
G01 X-50.1883 Y27.5855 
G01 X-47.8843 Y25.2815 
G01 X-47.8252 Y25.2225 
G01 X-47.7529 Y25.1807 
G01 X-47.6723 Y25.1591 
G01 X-45.5153 Y25.1591 
G01 X-45.5005 Y25.1530 
G01 X-45.4824 Y25.1425 
G01 X-45.4621 Y25.1371 
G01 X-45.4428 Y25.1291 
G01 X-45.4220 Y25.1263 
G01 X-45.4017 Y25.1209 
G01 X-45.3808 Y25.1209 
G01 X-45.3600 Y25.1182 
G01 X-45.3392 Y25.1209 
G01 X-44.6709 Y25.1209 
G01 X-44.6447 Y25.0947 
G01 X-44.6269 Y25.0844 
G01 X-44.5724 Y25.0529 
G01 X-44.5251 Y25.0403 
G01 X-44.4917 Y25.0313 
G01 X-44.4082 Y25.0313 
G01 X-44.3641 Y25.0431 
G01 X-44.3276 Y25.0529 
G01 X-44.3066 Y25.0650 
G01 X-44.2553 Y25.0947 
G01 X-44.2291 Y25.1209 
G01 X-43.5608 Y25.1209 
G01 X-43.5400 Y25.1182 
G01 X-43.5192 Y25.1209 
G01 X-43.4982 Y25.1209 
G01 X-43.4780 Y25.1263 
G01 X-43.4572 Y25.1291 
G01 X-43.4378 Y25.1371 
G01 X-43.4176 Y25.1425 
G01 X-43.3995 Y25.1530 
G01 X-43.3847 Y25.1591 
G01 X-42.9753 Y25.1591 
G01 X-42.9605 Y25.1530 
G01 X-42.9424 Y25.1425 
G01 X-42.9221 Y25.1371 
G01 X-42.9028 Y25.1291 
G01 X-42.8820 Y25.1263 
G01 X-42.8617 Y25.1209 
G01 X-42.8408 Y25.1209 
G01 X-42.8200 Y25.1182 
G01 X-42.7992 Y25.1209 
G01 X-42.7709 Y25.1209 
G01 X-42.7509 Y25.1009 
G01 X-42.7382 Y25.0843 
G01 X-42.7215 Y25.0715 
G01 X-42.7067 Y25.0567 
G01 X-42.6885 Y25.0462 
G01 X-42.6719 Y25.0334 
G01 X-42.6526 Y25.0254 
G01 X-42.6344 Y25.0149 
G01 X-42.6141 Y25.0095 
G01 X-42.5971 Y25.0024 
G01 X-42.3076 Y24.7129 
G01 X-42.1509 Y24.3347 
G01 X-42.1509 Y22.6553 
G01 X-42.2719 Y22.3631 
G01 X-42.2824 Y22.3450 
G01 X-42.2878 Y22.3247 
G01 X-42.2959 Y22.3054 
G01 X-42.2986 Y22.2846 
G01 X-42.3040 Y22.2643 
G01 X-42.3040 Y22.2434 
G01 X-42.3068 Y22.2226 
G01 X-42.3040 Y22.2018 
G01 X-42.3040 Y22.1808 
G01 X-42.2986 Y22.1606 
G01 X-42.2959 Y22.1398 
G01 X-42.2878 Y22.1204 
G01 X-42.2824 Y22.1002 
G01 X-42.2719 Y22.0820 
G01 X-42.2639 Y22.0627 
G01 X-42.2511 Y22.0460 
G01 X-42.2407 Y22.0279 
G01 X-42.2258 Y22.0131 
G01 X-42.2131 Y21.9964 
G01 X-42.1964 Y21.9836 
G01 X-42.0945 Y21.8817 
G01 X-41.9301 Y21.4848 
G01 X-41.9301 Y21.4509 
G01 X-41.9085 Y21.3702 
G01 X-41.8667 Y21.2979 
G01 X-41.8077 Y21.2389 
G01 X-41.7354 Y21.1972 
G01 X-41.6547 Y21.1755 
G01 X-41.5712 Y21.1755 
G01 X-41.4906 Y21.1972 
G01 X-41.4183 Y21.2389 
G01 X-31.2617 Y31.3955 
G01 X-30.8648 Y31.5599 
G01 X-24.0882 Y31.5599 
G01 X-24.0076 Y31.5815 
G01 X-23.9353 Y31.6233 
G01 X-23.8763 Y31.6823 
G01 X-23.8345 Y31.7546 
G01 X-23.8129 Y31.8352 
G01 X-23.8129 Y33.3358 
G01 X-23.6549 Y33.4012 
G01 X-23.4907 Y33.5110 
G01 X-23.3510 Y33.6507 
G01 X-21.1746 Y35.8271 
G01 X-12.6012 Y35.8271 
G01 X-12.4075 Y35.8656 
G01 X-12.2249 Y35.9412 
G01 X-12.0607 Y36.0510 
G01 X-11.9210 Y36.1907 
G01 X-11.8112 Y36.3549 
G01 X-11.7356 Y36.5375 
G01 X-11.6971 Y36.7312 
G01 X-11.6971 Y36.9288 
G01 X-11.7356 Y37.1225 
G01 X-11.8112 Y37.3051 
G01 X-11.9210 Y37.4693 
G01 X-12.0607 Y37.6090 
G01 X-12.2249 Y37.7188 
G01 X-12.4075 Y37.7944 
G01 X-12.6012 Y37.8329 
G01 X-21.6888 Y37.8329 
G01 X-21.8825 Y37.7944 
G01 X-22.0650 Y37.7188 
G01 X-22.2293 Y37.6090 
G01 X-23.8129 Y36.0254 
G01 X-23.8129 Y40.7225 
G01 X-23.8345 Y40.8032 
G01 X-23.8763 Y40.8755 
G01 X-23.9353 Y40.9345 
G01 X-24.0076 Y40.9763 
G01 X-24.0882 Y40.9979 
G01 X-26.2960 Y40.9979 
G01 X-26.3168 Y41.0006 
G01 X-26.3376 Y40.9979 
G01 X-26.3585 Y40.9979 
G01 X-26.3788 Y40.9925 
G01 X-26.3996 Y40.9897 
G01 X-26.4189 Y40.9817 
G01 X-26.4392 Y40.9763 
G01 X-26.4573 Y40.9658 
G01 X-26.4767 Y40.9578 
G01 X-26.4933 Y40.9450 
G01 X-26.5115 Y40.9345 
G01 X-26.5263 Y40.9197 
G01 X-26.5429 Y40.9070 
G01 X-26.5557 Y40.8903 
G01 X-26.5705 Y40.8755 
G01 X-26.5810 Y40.8573 
G01 X-26.5938 Y40.8407 
G01 X-26.6018 Y40.8213 
G01 X-26.6123 Y40.8032 
G01 X-26.6177 Y40.7829 
G01 X-26.6257 Y40.7636 
G01 X-26.6284 Y40.7428 
G01 X-26.6339 Y40.7225 
G01 X-26.6339 Y40.7016 
G01 X-26.6366 Y40.6808 
G01 X-26.6339 Y40.6600 
G01 X-26.6339 Y40.6390 
G01 X-26.6284 Y40.6188 
G01 X-26.6257 Y40.5980 
G01 X-26.6177 Y40.5787 
G01 X-26.6123 Y40.5584 
G01 X-26.6018 Y40.5402 
G01 X-26.5938 Y40.5209 
G01 X-26.5810 Y40.5043 
G01 X-26.5705 Y40.4861 
G01 X-26.5557 Y40.4713 
G01 X-26.5429 Y40.4546 
G01 X-26.5263 Y40.4419 
G01 X-26.5115 Y40.4271 
G01 X-26.4933 Y40.4166 
G01 X-26.4767 Y40.4038 
G01 X-26.4573 Y40.3958 
G01 X-26.4392 Y40.3853 
G01 X-26.4189 Y40.3799 
G01 X-26.0871 Y40.2424 
G01 X-25.7976 Y39.9529 
G01 X-25.6409 Y39.5747 
G01 X-25.6409 Y39.1653 
G01 X-25.7976 Y38.7871 
G01 X-26.0871 Y38.4976 
G01 X-26.4653 Y38.3409 
G01 X-88.8655 Y38.3409 
G01 X-88.9462 Y38.3193 
G01 X-89.0185 Y38.2775 
G01 X-89.0775 Y38.2185 
G01 X-89.1193 Y38.1462 
G01 X-89.1409 Y38.0655 
G01 X-89.1409 Y31.6334 
G01 X-89.1436 Y31.6126 
G01 X-89.1409 Y31.5919 
G01 X-89.1409 Y31.5709 
G01 X-89.1355 Y31.5507 
G01 X-89.1327 Y31.5299 
G01 X-89.1247 Y31.5105 
G01 X-89.1193 Y31.4903 
G01 X-89.1088 Y31.4721 
G01 X-89.1008 Y31.4527 
G01 X-89.0880 Y31.4361 
G01 X-89.0775 Y31.4179 
G01 X-89.0627 Y31.4031 
G01 X-89.0500 Y31.3865 
G01 X-89.0333 Y31.3737 
G01 X-89.0185 Y31.3589 
G01 X-89.0003 Y31.3484 
G01 X-88.9837 Y31.3357 
G01 X-88.9644 Y31.3276 
G01 X-88.9462 Y31.3172 
G01 X-88.9259 Y31.3117 
G01 X-88.8682 Y31.2878 
G01 X-88.6002 Y31.0198 
G01 X-88.4551 Y30.6695 
G01 X-88.4551 Y30.2905 
G01 X-88.6002 Y29.9402 
G01 X-88.8682 Y29.6722 
G01 X-89.2185 Y29.5271 
G01 X-89.6975 Y29.5271 
G01 X-89.7183 Y29.5298 
G01 X-89.7390 Y29.5271 
G01 X-89.7600 Y29.5271 
G01 X-89.7803 Y29.5217 
G01 X-89.8010 Y29.5189 
G01 X-89.8204 Y29.5109 
G01 X-89.8407 Y29.5055 
G01 X-89.8588 Y29.4950 
G01 X-89.9430 Y29.4601 
G01 X-89.9633 Y29.4547 
G01 X-89.9815 Y29.4442 
G01 X-90.0008 Y29.4362 
G01 X-90.0174 Y29.4234 
G01 X-90.0356 Y29.4129 
G01 X-90.0504 Y29.3981 
G01 X-90.0671 Y29.3854 
G01 X-90.0798 Y29.3687 
G01 X-90.0947 Y29.3539 
G01 X-90.1051 Y29.3357 
G01 X-90.1179 Y29.3191 
G01 X-90.1259 Y29.2997 
G01 X-90.1364 Y29.2816 
G01 X-90.1418 Y29.2613 
G01 X-90.1498 Y29.2420 
G01 X-90.1526 Y29.2212 
G01 X-90.1580 Y29.2009 
G01 X-90.1580 Y29.1800 
G01 X-90.1607 Y29.1592 
G01 X-90.1580 Y29.1384 
G01 X-90.1580 Y29.1174 
G01 X-90.1526 Y29.0972 
G01 X-90.1498 Y29.0764 
G01 X-90.1418 Y29.0571 
G01 X-90.1364 Y29.0368 
G01 X-90.1259 Y29.0186 
G01 X-90.1179 Y28.9993 
G01 X-90.1051 Y28.9827 
G01 X-90.0947 Y28.9645 
G01 X-90.0798 Y28.9497 
G01 X-90.0671 Y28.9330 
G01 X-90.0504 Y28.9203 
G01 X-90.0356 Y28.9055 
G01 X-90.0175 Y28.8950 
G01 X-90.0008 Y28.8822 
G01 X-89.9815 Y28.8742 
G01 X-89.9633 Y28.8637 
G01 X-89.9431 Y28.8583 
G01 X-89.9237 Y28.8503 
G01 X-89.9029 Y28.8475 
G01 X-89.8827 Y28.8421 
G01 X-89.8617 Y28.8421 
G01 X-89.8409 Y28.8394 
G01 X-89.8201 Y28.8421 
G01 X-89.3370 Y28.8421 
G01 X-89.1967 Y28.8199 
G01 X-89.0617 Y28.7760 
G01 X-88.9352 Y28.7115 
G01 X-88.8203 Y28.6281 
G01 X-88.7199 Y28.5277 
G01 X-88.6364 Y28.4128 
G01 X-88.5830 Y28.3079 
G01 X-88.6123 Y28.3079 
G01 X-88.6318 Y28.3549 
G01 X-88.7276 Y28.4984 
G01 X-88.8496 Y28.6204 
G01 X-88.9931 Y28.7162 
G01 X-89.1525 Y28.7822 
G01 X-89.3217 Y28.8159 
G01 X-91.0183 Y28.8159 
G01 X-91.1875 Y28.7822 
G01 X-91.3469 Y28.7162 
G01 X-91.4904 Y28.6204 
G01 X-91.6124 Y28.4984 
G01 X-91.7082 Y28.3549 
G01 X-91.7277 Y28.3079 
G01 X-91.7570 Y28.3079 
G01 X-91.7035 Y28.4128 
G01 X-91.6201 Y28.5277 
G01 X-91.5197 Y28.6281 
G01 X-91.4048 Y28.7115 
G01 X-91.2783 Y28.7760 
G01 X-91.1433 Y28.8199 
G01 X-91.0030 Y28.8421 
G01 X-90.5199 Y28.8421 
G01 X-90.4991 Y28.8394 
G01 X-90.4783 Y28.8421 
G01 X-90.4573 Y28.8421 
G01 X-90.4371 Y28.8475 
G01 X-90.4163 Y28.8503 
G01 X-90.3969 Y28.8583 
G01 X-90.3767 Y28.8637 
G01 X-90.3585 Y28.8742 
G01 X-90.3392 Y28.8822 
G01 X-90.3225 Y28.8950 
G01 X-90.3044 Y28.9055 
G01 X-90.2896 Y28.9203 
G01 X-90.2729 Y28.9330 
G01 X-90.2602 Y28.9497 
G01 X-90.2453 Y28.9645 
G01 X-90.2349 Y28.9827 
G01 X-90.2221 Y28.9993 
G01 X-90.2141 Y29.0186 
G01 X-90.2036 Y29.0368 
G01 X-90.1982 Y29.0571 
G01 X-90.1901 Y29.0764 
G01 X-90.1874 Y29.0972 
G01 X-90.1820 Y29.1174 
G01 X-90.1820 Y29.1384 
G01 X-90.1792 Y29.1592 
G01 X-90.1820 Y29.1800 
G01 X-90.1820 Y29.2009 
G01 X-90.1874 Y29.2212 
G01 X-90.1901 Y29.2420 
G01 X-90.1982 Y29.2613 
G01 X-90.2036 Y29.2816 
G01 X-90.2141 Y29.2997 
G01 X-90.2221 Y29.3191 
G01 X-90.2349 Y29.3357 
G01 X-90.2453 Y29.3539 
G01 X-90.2602 Y29.3687 
G01 X-90.2729 Y29.3854 
G01 X-90.2896 Y29.3981 
G01 X-90.3044 Y29.4129 
G01 X-90.3225 Y29.4234 
G01 X-90.3392 Y29.4362 
G01 X-90.3585 Y29.4442 
G01 X-90.3767 Y29.4547 
G01 X-90.3969 Y29.4601 
G01 X-90.4812 Y29.4950 
G01 X-90.4993 Y29.5055 
G01 X-90.5196 Y29.5109 
G01 X-90.5390 Y29.5189 
G01 X-90.5597 Y29.5217 
G01 X-90.5800 Y29.5271 
G01 X-90.6009 Y29.5271 
G01 X-90.6217 Y29.5298 
G01 X-90.6425 Y29.5271 
G01 X-91.1215 Y29.5271 
G01 X-91.4718 Y29.6722 
G01 X-91.7398 Y29.9402 
G01 X-91.8849 Y30.2905 
G01 X-91.8849 Y30.6695 
G01 X-91.7398 Y31.0198 
G01 X-91.4718 Y31.2878 
G01 X-91.4141 Y31.3117 
G01 X-91.3938 Y31.3172 
G01 X-91.3756 Y31.3276 
G01 X-91.3563 Y31.3357 
G01 X-91.3397 Y31.3484 
G01 X-91.3215 Y31.3589 
G01 X-91.3067 Y31.3737 
G01 X-91.2900 Y31.3865 
G01 X-91.2773 Y31.4031 
G01 X-91.2625 Y31.4179 
G01 X-91.2520 Y31.4361 
G01 X-91.2392 Y31.4527 
G01 X-91.2312 Y31.4721 
G01 X-91.2207 Y31.4903 
G01 X-91.2153 Y31.5105 
G01 X-91.2073 Y31.5299 
G01 X-91.2045 Y31.5507 
G01 X-91.1991 Y31.5709 
G01 X-91.1991 Y31.5919 
G01 X-91.1964 Y31.6126 
G01 X-91.1991 Y31.6334 
G01 X-91.1991 Y39.5747 
G01 X-91.0424 Y39.9529 
G01 X-90.7529 Y40.2424 
G01 X-90.4211 Y40.3799 
G01 X-90.4008 Y40.3853 
G01 X-90.3827 Y40.3958 
G01 X-90.3633 Y40.4038 
G01 X-90.3467 Y40.4166 
G01 X-90.3285 Y40.4271 
G01 X-90.3137 Y40.4419 
G01 X-90.2971 Y40.4546 
G01 X-90.2843 Y40.4713 
G01 X-90.2695 Y40.4861 
G01 X-90.2590 Y40.5043 
G01 X-90.2462 Y40.5209 
G01 X-90.2382 Y40.5402 
G01 X-90.2277 Y40.5584 
G01 X-90.2223 Y40.5787 
G01 X-90.2143 Y40.5980 
G01 X-90.2115 Y40.6188 
G01 X-90.2061 Y40.6390 
G01 X-90.2061 Y40.6600 
G01 X-90.2034 Y40.6808 
G01 X-90.2061 Y40.7016 
G01 X-90.2061 Y40.7225 
G01 X-90.2116 Y40.7428 
G01 X-90.2143 Y40.7636 
G01 X-90.2223 Y40.7829 
G01 X-90.2277 Y40.8032 
G01 X-90.2382 Y40.8213 
G01 X-90.2462 Y40.8407 
G01 X-90.2590 Y40.8573 
G01 X-90.2695 Y40.8755 
G01 X-90.2843 Y40.8903 
G01 X-90.2971 Y40.9070 
G01 X-90.3137 Y40.9197 
G01 X-90.3285 Y40.9345 
G01 X-90.3467 Y40.9450 
G01 X-90.3633 Y40.9578 
G01 X-90.3827 Y40.9658 
G01 X-90.4008 Y40.9763 
G01 X-90.4211 Y40.9817 
G01 X-90.4404 Y40.9897 
G01 X-90.4612 Y40.9925 
G01 X-90.4815 Y40.9979 
G01 X-90.5024 Y40.9979 
G01 X-90.5232 Y41.0006 
G01 X-90.5440 Y40.9979 
G01 X-93.7425 Y40.9979 
G01 X-93.8232 Y40.9763 
G01 X-93.8955 Y40.9345 
G01 X-93.9545 Y40.8755 
G01 X-93.9963 Y40.8032 
G01 X-94.0179 Y40.7225 
G01 X-94.0179 Y1.1774 
G01 X-93.9963 Y1.0968 
G01 X-93.9545 Y1.0245 
G01 X-93.8955 Y0.9655 
G01 X-93.8232 Y0.9237 
G01 X-93.7425 Y0.9021 
G01 X-49.4883 Y0.9021 
G01 X-49.4076 Y0.9237 
G01 X-49.3353 Y0.9655 
G01 X-49.2763 Y1.0245 
G01 X-49.2345 Y1.0968 
G01 X-49.2129 Y1.1774 
G01 X-49.2129 Y9.8047 
G01 X-49.2102 Y9.8222 
G01 X-49.2129 Y9.8463 
G01 X-49.2129 Y9.8705 
G01 X-49.2175 Y9.8876 
G01 X-49.2195 Y9.9052 
G01 X-49.2283 Y9.9277 
G01 X-49.2345 Y9.9511 
G01 X-49.2434 Y9.9665 
G01 X-49.2498 Y9.9830 
G01 X-49.2642 Y10.0025 
G01 X-49.2763 Y10.0234 
G01 X-49.2888 Y10.0360 
G01 X-49.2993 Y10.0502 
G01 X-49.3182 Y10.0653 
G01 X-49.3353 Y10.0825 
G01 X-49.3507 Y10.0913 
G01 X-49.3645 Y10.1024 
G01 X-49.3867 Y10.1121 
G01 X-49.4076 Y10.1242 
G01 X-49.4247 Y10.1288 
G01 X-49.4410 Y10.1359 
G01 X-49.4649 Y10.1395 
G01 X-49.4883 Y10.1458 
G01 X-49.5060 Y10.1458 
G01 X-49.5235 Y10.1485 
G01 X-49.5476 Y10.1458 
G01 X-49.5717 Y10.1458 
G01 X-49.5889 Y10.1412 
G01 X-49.6065 Y10.1393 
G01 X-49.6290 Y10.1305 
G01 X-49.6524 Y10.1242 
G01 X-49.6678 Y10.1153 
G01 X-49.6843 Y10.1089 
G01 X-49.7037 Y10.0945 
G01 X-49.7247 Y10.0825 
G01 X-49.7373 Y10.0699 
G01 X-49.7515 Y10.0594 
G01 X-49.7666 Y10.0405 
G01 X-49.7837 Y10.0234 
G01 X-49.7926 Y10.0080 
G01 X-51.3609 Y8.0477 
G01 X-51.7372 Y7.8404 
G01 X-52.1642 Y7.7930 
G01 X-52.3184 Y7.8377 
G01 X-52.3212 Y7.8393 
G01 X-52.3584 Y7.8492 
G01 X-52.3955 Y7.8600 
G01 X-52.3987 Y7.8601 
G01 X-52.4019 Y7.8609 
G01 X-52.4404 Y7.8609 
G01 X-52.4790 Y7.8617 
G01 X-52.4821 Y7.8609 
G01 X-68.7847 Y7.8609 
G01 X-69.1629 Y8.0176 
G01 X-69.4524 Y8.3071 
G01 X-69.6091 Y8.6853 
G01 X-69.6091 Y12.6655 
G01 X-69.6307 Y12.7462 
G01 X-69.6725 Y12.8185 
G01 X-69.7315 Y12.8775 
G01 X-69.8038 Y12.9193 
G01 X-69.8844 Y12.9409 
G01 X-76.0679 Y12.9409 
G01 X-76.0887 Y12.9436 
G01 X-76.1095 Y12.9409 
G01 X-76.1304 Y12.9409 
G01 X-76.1507 Y12.9355 
G01 X-76.1715 Y12.9327 
G01 X-76.1908 Y12.9247 
G01 X-76.2111 Y12.9193 
G01 X-76.2293 Y12.9088 
G01 X-76.3357 Y12.8647 
G01 X-78.6043 Y12.8647 
G01 X-79.0105 Y13.0330 
G01 X-79.3214 Y13.3439 
G01 X-79.4897 Y13.7501 
G01 X-79.4897 Y14.1899 
G01 X-79.3214 Y14.5961 
G01 X-79.0105 Y14.9070 
G01 X-78.8580 Y14.9702 
G01 X-78.8302 Y14.9792 
G01 X-78.8196 Y14.9861 
G01 X-78.8079 Y14.9909 
G01 X-78.7847 Y15.0088 
G01 X-78.7601 Y15.0247 
G01 X-78.7517 Y15.0341 
G01 X-78.7417 Y15.0417 
G01 X-78.7239 Y15.0650 
G01 X-78.7043 Y15.0868 
G01 X-78.6986 Y15.0980 
G01 X-78.6909 Y15.1080 
G01 X-78.6797 Y15.1350 
G01 X-78.6664 Y15.1611 
G01 X-78.6638 Y15.1735 
G01 X-78.6589 Y15.1851 
G01 X-78.6551 Y15.2142 
G01 X-78.6490 Y15.2428 
G01 X-78.6497 Y15.2554 
G01 X-78.6480 Y15.2679 
G01 X-78.6519 Y15.2969 
G01 X-78.6534 Y15.3262 
G01 X-78.6573 Y15.3382 
G01 X-78.6589 Y15.3507 
G01 X-78.6701 Y15.3777 
G01 X-78.6792 Y15.4056 
G01 X-78.6861 Y15.4162 
G01 X-78.6909 Y15.4278 
G01 X-78.7087 Y15.4511 
G01 X-78.7247 Y15.4756 
G01 X-78.7340 Y15.4841 
G01 X-78.7417 Y15.4941 
G01 X-78.7587 Y15.5071 
G01 X-78.6134 Y15.5071 
G01 X-78.4857 Y15.4817 
G01 X-76.4543 Y15.4817 
G01 X-76.2557 Y15.5212 
G01 X-76.0685 Y15.5987 
G01 X-75.9001 Y15.7113 
G01 X-75.7569 Y15.8545 
G01 X-75.6443 Y16.0229 
G01 X-75.5950 Y16.1421 
G01 X-75.5664 Y16.1421 
G01 X-75.5784 Y16.1052 
G01 X-75.6537 Y15.9573 
G01 X-75.7513 Y15.8230 
G01 X-75.8686 Y15.7057 
G01 X-75.9970 Y15.6124 
G01 X-75.9998 Y15.6117 
G01 X-76.0287 Y15.5950 
G01 X-76.0585 Y15.5798 
G01 X-76.0648 Y15.5741 
G01 X-76.0721 Y15.5699 
G01 X-76.0957 Y15.5463 
G01 X-76.1206 Y15.5239 
G01 X-76.1251 Y15.5169 
G01 X-76.1311 Y15.5109 
G01 X-76.1478 Y15.4819 
G01 X-76.1660 Y15.4539 
G01 X-76.1686 Y15.4459 
G01 X-76.1729 Y15.4386 
G01 X-76.1815 Y15.4063 
G01 X-76.1918 Y15.3745 
G01 X-76.1923 Y15.3661 
G01 X-76.1945 Y15.3579 
G01 X-76.1945 Y15.3245 
G01 X-76.1962 Y15.2911 
G01 X-76.1945 Y15.2829 
G01 X-76.1945 Y15.2744 
G01 X-76.1858 Y15.2422 
G01 X-76.1789 Y15.2094 
G01 X-76.1750 Y15.2019 
G01 X-76.1729 Y15.1938 
G01 X-76.1561 Y15.1649 
G01 X-76.1410 Y15.1351 
G01 X-76.1353 Y15.1288 
G01 X-76.1311 Y15.1215 
G01 X-76.1075 Y15.0978 
G01 X-76.0851 Y15.0730 
G01 X-76.0780 Y15.0684 
G01 X-76.0721 Y15.0625 
G01 X-76.0431 Y15.0457 
G01 X-76.0151 Y15.0275 
G01 X-76.0071 Y15.0249 
G01 X-75.9998 Y15.0207 
G01 X-75.9675 Y15.0121 
G01 X-75.9357 Y15.0017 
G01 X-75.9272 Y15.0013 
G01 X-75.9191 Y14.9991 
G01 X-75.8857 Y14.9991 
G01 X-75.8523 Y14.9973 
G01 X-75.8440 Y14.9991 
G01 X-73.6944 Y14.9991 
G01 X-73.6138 Y15.0207 
G01 X-73.5415 Y15.0625 
G01 X-73.4825 Y15.1215 
G01 X-73.4407 Y15.1938 
G01 X-73.4191 Y15.2744 
G01 X-73.4191 Y22.0547 
G01 X-73.2624 Y22.4329 
G01 X-72.9729 Y22.7224 
G01 X-72.5947 Y22.8791 
G01 X-71.9053 Y22.8791 
G01 X-71.5271 Y22.7224 
G01 X-71.4679 Y22.6633 
G01 X-71.4089 Y22.6043 
G01 X-71.3366 Y22.5625 
G01 X-71.2559 Y22.5409 
G01 X-71.2309 Y22.5409 
G01 X-71.1191 Y22.4291 
G01 X-71.1191 Y22.2308 
G01 X-71.1218 Y22.2100 
G01 X-71.1191 Y22.1892 
G01 X-71.1191 Y22.1682 
G01 X-71.1137 Y22.1480 
G01 X-71.1109 Y22.1272 
G01 X-71.1029 Y22.1078 
G01 X-71.0975 Y22.0876 
G01 X-71.0870 Y22.0694 
G01 X-71.0809 Y22.0547 
G01 X-71.0809 Y21.6453 
G01 X-71.0870 Y21.6305 
G01 X-71.0975 Y21.6124 
G01 X-71.1029 Y21.5921 
G01 X-71.1109 Y21.5728 
G01 X-71.1137 Y21.5520 
G01 X-71.1191 Y21.5317 
G01 X-71.1191 Y21.5108 
G01 X-71.1218 Y21.4900 
G01 X-71.1191 Y21.4692 
G01 X-71.1191 Y21.2709 
G01 X-71.2975 Y21.0925 
G01 X-71.3393 Y21.0202 
G01 X-71.3609 Y20.9395 
G01 X-71.3609 Y15.2744 
G01 X-71.3393 Y15.1938 
G01 X-71.2975 Y15.1215 
G01 X-71.2385 Y15.0625 
G01 X-71.1662 Y15.0207 
G01 X-71.0855 Y14.9991 
G01 X-69.8844 Y14.9991 
G01 X-69.8038 Y15.0207 
G01 X-69.7315 Y15.0625 
G01 X-69.6725 Y15.1215 
G01 X-69.6307 Y15.1938 
G01 X-69.6091 Y15.2744 
G01 X-69.6091 Y15.4447 
G01 X-69.5530 Y15.5802 
G01 X-69.5425 Y15.5983 
G01 X-69.5371 Y15.6186 
G01 X-69.5291 Y15.6379 
G01 X-69.5263 Y15.6587 
G01 X-69.5209 Y15.6790 
G01 X-69.5209 Y15.6999 
G01 X-69.5182 Y15.7207 
G01 X-69.5209 Y15.7415 
G01 X-69.5209 Y16.2891 
G01 X-69.5133 Y16.2966 
G01 X-69.4543 Y16.3557 
G01 X-69.4185 Y16.4177 
G01 X-69.4125 Y16.4280 
G01 X-69.4023 Y16.4663 
G01 X-69.3909 Y16.5086 
G01 X-69.3909 Y16.5921 
G01 X-69.4071 Y16.6524 
G01 X-69.4125 Y16.6728 
G01 X-69.4315 Y16.7056 
G01 X-69.4543 Y16.7451 
G01 X-69.4606 Y16.7559 
G01 X-69.4701 Y16.7915 
G01 X-69.4701 Y17.0211 
G01 X-69.4439 Y17.0211 
G01 X-69.4439 Y16.7873 
G01 X-69.4266 Y16.7455 
G01 X-69.3945 Y16.7134 
G01 X-69.3527 Y16.6961 
G01 X-67.8073 Y16.6961 
G01 X-67.7655 Y16.7134 
G01 X-67.7334 Y16.7455 
G01 X-67.7161 Y16.7873 
G01 X-67.7161 Y17.0211 
G01 X-67.6899 Y17.0211 
G01 X-67.6899 Y16.7915 
G01 X-67.6994 Y16.7559 
G01 X-67.7057 Y16.7451 
G01 X-67.7291 Y16.7045 
G01 X-67.7474 Y16.6728 
G01 X-67.7536 Y16.6499 
G01 X-67.7691 Y16.5921 
G01 X-67.7691 Y16.5086 
G01 X-67.7572 Y16.4645 
G01 X-67.7475 Y16.4280 
G01 X-67.7405 Y16.4159 
G01 X-67.7057 Y16.3557 
G01 X-67.7028 Y16.3527 
G01 X-67.6467 Y16.2966 
G01 X-67.6391 Y16.2891 
G01 X-67.6391 Y15.7415 
G01 X-67.6418 Y15.7207 
G01 X-67.6391 Y15.6999 
G01 X-67.6391 Y15.6790 
G01 X-67.6337 Y15.6587 
G01 X-67.6309 Y15.6379 
G01 X-67.6229 Y15.6186 
G01 X-67.6175 Y15.5983 
G01 X-67.6070 Y15.5801 
G01 X-67.5509 Y15.4447 
G01 X-67.5509 Y10.1944 
G01 X-67.5293 Y10.1138 
G01 X-67.4875 Y10.0415 
G01 X-67.4285 Y9.9825 
G01 X-67.3562 Y9.9407 
G01 X-67.2755 Y9.9191 
G01 X-52.8061 Y9.9191 
G01 X-52.7885 Y9.9164 
G01 X-52.7645 Y9.9191 
G01 X-52.7403 Y9.9191 
G01 X-52.7232 Y9.9237 
G01 X-52.7056 Y9.9256 
G01 X-52.6830 Y9.9344 
G01 X-52.6597 Y9.9407 
G01 X-52.6443 Y9.9496 
G01 X-52.6278 Y9.9560 
G01 X-52.6083 Y9.9704 
G01 X-52.5874 Y9.9825 
G01 X-52.5748 Y9.9950 
G01 X-52.5605 Y10.0055 
G01 X-52.5454 Y10.0244 
G01 X-52.5283 Y10.0415 
G01 X-52.5195 Y10.0569 
G01 X-49.2934 Y14.0895 
G01 X-49.2763 Y14.1066 
G01 X-49.2674 Y14.1219 
G01 X-49.2563 Y14.1358 
G01 X-49.2466 Y14.1579 
G01 X-49.2345 Y14.1789 
G01 X-49.2299 Y14.1960 
G01 X-49.2228 Y14.2123 
G01 X-49.2192 Y14.2362 
G01 X-49.2129 Y14.2595 
G01 X-49.2129 Y14.2773 
G01 X-49.2102 Y14.2948 
G01 X-49.2129 Y14.3188 
G01 X-49.2129 Y14.9229 
G01 X-48.8030 Y14.9229 
G01 X-48.7855 Y14.9202 
G01 X-48.7615 Y14.9229 
G01 X-48.7373 Y14.9229 
G01 X-48.7201 Y14.9275 
G01 X-48.7025 Y14.9294 
G01 X-48.6800 Y14.9383 
G01 X-48.6566 Y14.9445 
G01 X-48.6413 Y14.9534 
G01 X-48.6247 Y14.9598 
G01 X-48.6053 Y14.9742 
G01 X-48.5843 Y14.9863 
G01 X-48.5718 Y14.9988 
G01 X-48.5575 Y15.0093 
G01 X-48.5424 Y15.0282 
G01 X-48.5253 Y15.0453 
G01 X-48.5164 Y15.0607 
G01 X-47.9812 Y15.7297 
G01 X-47.9786 Y15.7317 
G01 X-47.9552 Y15.7622 
G01 X-47.9311 Y15.7923 
G01 X-47.9298 Y15.7953 
G01 X-47.9278 Y15.7979 
G01 X-47.9131 Y15.8335 
G01 X-47.9047 Y15.8525 
G01 X-47.8253 Y15.9319 
G01 X-47.8110 Y15.9424 
G01 X-47.7959 Y15.9613 
G01 X-47.7788 Y15.9784 
G01 X-47.7699 Y15.9938 
G01 X-47.6998 Y16.0815 
G01 X-47.6819 Y16.0918 
G01 X-47.6481 Y16.1104 
G01 X-47.6457 Y16.1127 
G01 X-47.6429 Y16.1143 
G01 X-47.6157 Y16.1415 
G01 X-47.6007 Y16.1559 
G01 X-47.4969 Y16.1989 
G01 X-47.4797 Y16.2031 
G01 X-47.4585 Y16.2148 
G01 X-47.4362 Y16.2241 
G01 X-47.4221 Y16.2349 
G01 X-47.3237 Y16.2890 
G01 X-47.3032 Y16.2917 
G01 X-47.2649 Y16.2960 
G01 X-47.2618 Y16.2972 
G01 X-47.2586 Y16.2976 
G01 X-47.2229 Y16.3124 
G01 X-47.2037 Y16.3199 
G01 X-47.0914 Y16.3199 
G01 X-47.0739 Y16.3172 
G01 X-47.0498 Y16.3199 
G01 X-47.0256 Y16.3199 
G01 X-47.0085 Y16.3245 
G01 X-46.8968 Y16.3369 
G01 X-46.8769 Y16.3315 
G01 X-46.8398 Y16.3208 
G01 X-46.8366 Y16.3207 
G01 X-46.8334 Y16.3199 
G01 X-46.7949 Y16.3199 
G01 X-46.7563 Y16.3191 
G01 X-46.7532 Y16.3199 
G01 X-39.9069 Y16.3199 
G01 X-39.8263 Y16.3415 
G01 X-39.7539 Y16.3833 
G01 X-29.8217 Y26.3155 
G01 X-29.4248 Y26.4799 
G01 X-24.0882 Y26.4799 
G01 X-24.0076 Y26.5015 
G01 X-23.9353 Y26.5433 
G01 X-23.8763 Y26.6023 
G01 X-23.8345 Y26.6746 
G01 X-23.8129 Y26.7552 
G01 X-23.8129 Y29.1247 
G01 X-23.8345 Y29.2054 
G01 X-23.8763 Y29.2777 
G01 X-23.9353 Y29.3367 
G00 Z2.0000  F3000
G00 X-25.9305 Y38.7631  F3000
G01 Z-0.2000 F200.00 
G01 X-25.8263 Y38.9190 F500.00 
G01 X-25.7545 Y39.0923 
G01 X-25.7179 Y39.2762 
G01 X-25.7179 Y39.4638 
G01 X-25.7545 Y39.6477 
G01 X-25.8263 Y39.8210 
G01 X-25.9305 Y39.9769 
G01 X-26.0631 Y40.1095 
G01 X-26.2190 Y40.2137 
G01 X-26.3923 Y40.2855 
G01 X-26.5762 Y40.3221 
G01 X-90.2638 Y40.3221 
G01 X-90.4477 Y40.2855 
G01 X-90.6210 Y40.2137 
G01 X-90.7769 Y40.1095 
G01 X-90.9095 Y39.9769 
G01 X-91.0137 Y39.8210 
G01 X-91.0855 Y39.6477 
G01 X-91.1221 Y39.4638 
G01 X-91.1221 Y31.3352 
G01 X-91.1875 Y31.3222 
G01 X-91.3469 Y31.2562 
G01 X-91.4904 Y31.1604 
G01 X-91.6124 Y31.0384 
G01 X-91.7082 Y30.8949 
G01 X-91.7742 Y30.7355 
G01 X-91.8079 Y30.5663 
G01 X-91.8079 Y30.3937 
G01 X-91.7742 Y30.2245 
G01 X-91.7082 Y30.0651 
G01 X-91.6124 Y29.9216 
G01 X-91.4904 Y29.7996 
G01 X-91.3469 Y29.7038 
G01 X-91.1875 Y29.6378 
G01 X-91.0183 Y29.6041 
G01 X-90.5434 Y29.6041 
G01 X-90.4477 Y29.5645 
G01 X-90.2638 Y29.5279 
G01 X-90.0762 Y29.5279 
G01 X-89.8923 Y29.5645 
G01 X-89.7966 Y29.6041 
G01 X-89.3217 Y29.6041 
G01 X-89.1525 Y29.6378 
G01 X-88.9931 Y29.7038 
G01 X-88.8496 Y29.7996 
G01 X-88.7276 Y29.9216 
G01 X-88.6318 Y30.0651 
G01 X-88.5658 Y30.2245 
G01 X-88.5321 Y30.3937 
G01 X-88.5321 Y30.5663 
G01 X-88.5658 Y30.7355 
G01 X-88.6318 Y30.8949 
G01 X-88.7276 Y31.0384 
G01 X-88.8496 Y31.1604 
G01 X-88.9931 Y31.2562 
G01 X-89.1525 Y31.3222 
G01 X-89.2179 Y31.3352 
G01 X-89.2179 Y38.4179 
G01 X-26.5762 Y38.4179 
G01 X-26.3923 Y38.4545 
G01 X-26.2190 Y38.5263 
G01 X-26.0631 Y38.6305 
G01 X-25.9305 Y38.7631 
G00 Z2.0000  F3000
G00 X-32.3319 Y35.6397  F3000
G01 Z-0.2000 F200.00 
G01 X-32.2484 Y35.5248 F500.00 
G01 X-32.1840 Y35.3983 
G01 X-32.1497 Y35.2929 
G01 X-32.1749 Y35.2929 
G01 X-32.1778 Y35.3075 
G01 X-32.2438 Y35.4669 
G01 X-32.3396 Y35.6104 
G01 X-32.4616 Y35.7324 
G01 X-32.6051 Y35.8282 
G01 X-32.6521 Y35.8477 
G01 X-32.6521 Y35.8770 
G01 X-32.5472 Y35.8235 
G01 X-32.4323 Y35.7401 
G01 X-32.3319 Y35.6397 
G00 Z2.0000  F3000
G00 X-33.3879 Y35.8477  F3000
G01 Z-0.2000 F200.00 
G01 X-33.4349 Y35.8282 F500.00 
G01 X-33.5784 Y35.7324 
G01 X-33.7004 Y35.6104 
G01 X-33.7962 Y35.4669 
G01 X-33.8622 Y35.3075 
G01 X-33.8959 Y35.1383 
G01 X-33.8959 Y34.7843 
G01 X-33.9088 Y34.7651 
G01 X-33.9221 Y34.7328 
G01 X-33.9221 Y35.1230 
G01 X-33.8999 Y35.2633 
G01 X-33.8560 Y35.3983 
G01 X-33.7915 Y35.5248 
G01 X-33.7081 Y35.6397 
G01 X-33.6077 Y35.7401 
G01 X-33.4928 Y35.8235 
G01 X-33.3879 Y35.8770 
G01 X-33.3879 Y35.8477 
G00 Z2.0000  F3000
G00 X-35.0016 Y35.7324  F3000
G01 Z-0.2000 F200.00 
G01 X-35.1451 Y35.8282 F500.00 
G01 X-35.3045 Y35.8942 
G01 X-35.4737 Y35.9279 
G01 X-35.6463 Y35.9279 
G01 X-35.8155 Y35.8942 
G01 X-35.9749 Y35.8282 
G01 X-36.1184 Y35.7324 
G01 X-36.2404 Y35.6104 
G01 X-36.3362 Y35.4669 
G01 X-36.4022 Y35.3075 
G01 X-36.4359 Y35.1383 
G01 X-36.4359 Y34.6633 
G01 X-36.4755 Y34.5677 
G01 X-36.5121 Y34.3838 
G01 X-36.5121 Y32.1444 
G01 X-38.4944 Y30.1621 
G01 X-39.6879 Y30.1621 
G01 X-39.6879 Y30.5738 
G01 X-39.7245 Y30.7577 
G01 X-39.7761 Y30.8823 
G01 X-39.7761 Y31.4727 
G01 X-39.7934 Y31.5145 
G01 X-39.8255 Y31.5466 
G01 X-39.8673 Y31.5639 
G01 X-41.4127 Y31.5639 
G01 X-41.4545 Y31.5466 
G01 X-41.4866 Y31.5145 
G01 X-41.5039 Y31.4727 
G01 X-41.5039 Y30.8823 
G01 X-41.5555 Y30.7577 
G01 X-41.5921 Y30.5738 
G01 X-41.5921 Y30.1621 
G01 X-43.4979 Y30.1621 
G01 X-43.4979 Y30.5738 
G01 X-43.5345 Y30.7577 
G01 X-43.5361 Y30.7616 
G01 X-43.5361 Y31.4727 
G01 X-43.5534 Y31.5145 
G01 X-43.5855 Y31.5466 
G01 X-43.6273 Y31.5639 
G01 X-45.2727 Y31.5639 
G01 X-45.3145 Y31.5466 
G01 X-45.3466 Y31.5145 
G01 X-45.3639 Y31.4727 
G01 X-45.3639 Y30.7616 
G01 X-45.3655 Y30.7577 
G01 X-45.4021 Y30.5738 
G01 X-45.4021 Y30.1621 
G01 X-50.4779 Y30.1621 
G01 X-50.5075 Y30.1744 
G01 X-50.7012 Y30.2129 
G01 X-53.4666 Y30.2129 
G01 X-53.5943 Y30.2383 
G01 X-55.6257 Y30.2383 
G01 X-55.8243 Y30.1988 
G01 X-56.0115 Y30.1213 
G01 X-56.1799 Y30.0087 
G01 X-56.3231 Y29.8655 
G01 X-56.4357 Y29.6971 
G01 X-56.5132 Y29.5099 
G01 X-56.5527 Y29.3113 
G01 X-56.5527 Y29.1087 
G01 X-56.5132 Y28.9101 
G01 X-56.4357 Y28.7229 
G01 X-56.3231 Y28.5545 
G01 X-56.1799 Y28.4113 
G01 X-56.0115 Y28.2987 
G01 X-55.8243 Y28.2212 
G01 X-55.6257 Y28.1817 
G01 X-53.5943 Y28.1817 
G01 X-53.4666 Y28.2071 
G01 X-50.7012 Y28.2071 
G01 X-50.5075 Y28.2456 
G01 X-50.4779 Y28.2579 
G01 X-38.0062 Y28.2579 
G01 X-37.8223 Y28.2945 
G01 X-37.6490 Y28.3663 
G01 X-37.4931 Y28.4705 
G01 X-37.3605 Y28.6031 
G01 X-34.8205 Y31.1431 
G01 X-34.7163 Y31.2990 
G01 X-34.6445 Y31.4723 
G01 X-34.6079 Y31.6562 
G01 X-34.6079 Y34.3838 
G01 X-34.6445 Y34.5677 
G01 X-34.6841 Y34.6633 
G01 X-34.6841 Y35.1383 
G01 X-34.7178 Y35.3075 
G01 X-34.7838 Y35.4669 
G01 X-34.8796 Y35.6104 
G01 X-35.0016 Y35.7324 
G00 Z2.0000  F3000
G00 X-32.1749 Y33.2871  F3000
G01 Z-0.2000 F200.00 
G01 X-32.1497 Y33.2871 F500.00 
G01 X-32.1840 Y33.1817 
G01 X-32.2484 Y33.0552 
G01 X-32.3319 Y32.9403 
G01 X-32.4323 Y32.8399 
G01 X-32.5472 Y32.7565 
G01 X-32.6521 Y32.7030 
G01 X-32.6521 Y32.7323 
G01 X-32.6051 Y32.7518 
G01 X-32.4616 Y32.8476 
G01 X-32.3396 Y32.9696 
G01 X-32.2438 Y33.1131 
G01 X-32.1778 Y33.2725 
G01 X-32.1749 Y33.2871 
G00 Z2.0000  F3000
G00 X-39.7499 Y33.3684  F3000
G01 Z-0.2000 F200.00 
G01 X-39.7499 Y33.1389 F500.00 
G01 X-39.7761 Y33.1389 
G01 X-39.7761 Y33.3727 
G01 X-39.7934 Y33.4145 
G01 X-39.8255 Y33.4466 
G01 X-39.8673 Y33.4639 
G01 X-40.2011 Y33.4639 
G01 X-40.2011 Y33.4901 
G01 X-39.8715 Y33.4901 
G01 X-39.8359 Y33.4806 
G01 X-39.8040 Y33.4621 
G01 X-39.7779 Y33.4360 
G01 X-39.7594 Y33.4041 
G01 X-39.7499 Y33.3684 
G00 Z2.0000  F3000
G00 X-41.0789 Y33.4639  F3000
G01 Z-0.2000 F200.00 
G01 X-41.4127 Y33.4639 F500.00 
G01 X-41.4545 Y33.4466 
G01 X-41.4866 Y33.4145 
G01 X-41.5039 Y33.3727 
G01 X-41.5039 Y33.1389 
G01 X-41.5301 Y33.1389 
G01 X-41.5301 Y33.3684 
G01 X-41.5206 Y33.4041 
G01 X-41.5021 Y33.4360 
G01 X-41.4760 Y33.4621 
G01 X-41.4441 Y33.4806 
G01 X-41.4084 Y33.4901 
G01 X-41.0789 Y33.4901 
G01 X-41.0789 Y33.4639 
G00 Z2.0000  F3000
G00 X-43.4979 Y32.9262  F3000
G01 Z-0.2000 F200.00 
G01 X-43.4979 Y34.3838 F500.00 
G01 X-43.5345 Y34.5677 
G01 X-43.6063 Y34.7410 
G01 X-43.7105 Y34.8969 
G01 X-43.8431 Y35.0295 
G01 X-43.9990 Y35.1337 
G01 X-44.1723 Y35.2055 
G01 X-44.3562 Y35.2421 
G01 X-45.7179 Y35.2421 
G01 X-45.7475 Y35.2544 
G01 X-45.9412 Y35.2929 
G01 X-58.5188 Y35.2929 
G01 X-58.7125 Y35.2544 
G01 X-58.8950 Y35.1788 
G01 X-59.0593 Y35.0690 
G01 X-59.1990 Y34.9293 
G01 X-59.3088 Y34.7651 
G01 X-59.3844 Y34.5825 
G01 X-59.4229 Y34.3888 
G01 X-59.4229 Y13.8712 
G01 X-59.3844 Y13.6775 
G01 X-59.3088 Y13.4949 
G01 X-59.1990 Y13.3307 
G01 X-59.0593 Y13.1910 
G01 X-58.8950 Y13.0812 
G01 X-58.7125 Y13.0056 
G01 X-58.5188 Y12.9671 
G01 X-55.7534 Y12.9671 
G01 X-55.6257 Y12.9417 
G01 X-53.5943 Y12.9417 
G01 X-53.3957 Y12.9812 
G01 X-53.2085 Y13.0587 
G01 X-53.0401 Y13.1713 
G01 X-52.8969 Y13.3145 
G01 X-52.7843 Y13.4829 
G01 X-52.7068 Y13.6701 
G01 X-52.6673 Y13.8687 
G01 X-52.6673 Y14.0713 
G01 X-52.7068 Y14.2699 
G01 X-52.7843 Y14.4571 
G01 X-52.8969 Y14.6255 
G01 X-53.0401 Y14.7687 
G01 X-53.2085 Y14.8813 
G01 X-53.3957 Y14.9588 
G01 X-53.5943 Y14.9983 
G01 X-55.6257 Y14.9983 
G01 X-55.7534 Y14.9729 
G01 X-57.4171 Y14.9729 
G01 X-57.4171 Y33.2871 
G01 X-45.9412 Y33.2871 
G01 X-45.7475 Y33.3256 
G01 X-45.7179 Y33.3379 
G01 X-45.4021 Y33.3379 
G01 X-45.4021 Y32.9262 
G01 X-45.3655 Y32.7423 
G01 X-45.3639 Y32.7384 
G01 X-45.3639 Y32.0273 
G01 X-45.3466 Y31.9855 
G01 X-45.3145 Y31.9534 
G01 X-45.2727 Y31.9361 
G01 X-43.6273 Y31.9361 
G01 X-43.5855 Y31.9534 
G01 X-43.5534 Y31.9855 
G01 X-43.5361 Y32.0273 
G01 X-43.5361 Y32.7384 
G01 X-43.5345 Y32.7423 
G01 X-43.4979 Y32.9262 
G00 Z2.0000  F3000
G00 X-43.4616 Y25.0439  F3000
G01 Z-0.2000 F200.00 
G01 X-44.1727 Y25.0439 F500.00 
G01 X-44.2145 Y25.0266 
G01 X-44.2466 Y24.9945 
G01 X-44.2639 Y24.9527 
G01 X-44.2639 Y23.3073 
G01 X-44.2466 Y23.2655 
G01 X-44.2145 Y23.2334 
G01 X-44.1727 Y23.2161 
G01 X-44.1704 Y23.2161 
G01 X-44.2395 Y23.1469 
G01 X-44.3437 Y22.9910 
G01 X-44.4155 Y22.8177 
G01 X-44.4521 Y22.6338 
G01 X-44.4521 Y22.0821 
G01 X-44.4644 Y22.0525 
G01 X-44.5029 Y21.8588 
G01 X-44.5029 Y21.6612 
G01 X-44.4644 Y21.4675 
G01 X-44.3888 Y21.2849 
G01 X-44.2790 Y21.1207 
G01 X-43.6493 Y20.4910 
G01 X-43.4851 Y20.3812 
G01 X-43.3025 Y20.3056 
G01 X-43.1088 Y20.2671 
G01 X-42.9112 Y20.2671 
G01 X-42.7175 Y20.3056 
G01 X-42.5349 Y20.3812 
G01 X-42.3707 Y20.4910 
G01 X-42.2310 Y20.6307 
G01 X-42.1212 Y20.7949 
G01 X-42.0456 Y20.9775 
G01 X-42.0071 Y21.1712 
G01 X-42.0071 Y21.3688 
G01 X-42.0456 Y21.5625 
G01 X-42.1212 Y21.7450 
G01 X-42.2310 Y21.9093 
G01 X-42.5076 Y22.1859 
G01 X-42.4405 Y22.2531 
G01 X-42.3363 Y22.4090 
G01 X-42.2645 Y22.5823 
G01 X-42.2279 Y22.7662 
G01 X-42.2279 Y24.2238 
G01 X-42.2645 Y24.4077 
G01 X-42.3363 Y24.5810 
G01 X-42.4405 Y24.7369 
G01 X-42.5731 Y24.8695 
G01 X-42.7290 Y24.9737 
G01 X-42.7481 Y24.9816 
G01 X-42.7534 Y24.9945 
G01 X-42.7855 Y25.0266 
G01 X-42.8273 Y25.0439 
G01 X-42.8984 Y25.0439 
G01 X-42.9023 Y25.0455 
G01 X-43.0862 Y25.0821 
G01 X-43.2738 Y25.0821 
G01 X-43.4577 Y25.0455 
G01 X-43.4616 Y25.0439 
G00 Z2.0000  F3000
G00 X-44.6855 Y25.0266  F3000
G01 Z-0.2000 F200.00 
G01 X-44.7273 Y25.0439 F500.00 
G01 X-45.4384 Y25.0439 
G01 X-45.4423 Y25.0455 
G01 X-45.6262 Y25.0821 
G01 X-47.7938 Y25.0821 
G01 X-50.1607 Y27.4490 
G01 X-50.3249 Y27.5588 
G01 X-50.5075 Y27.6344 
G01 X-50.7012 Y27.6729 
G01 X-53.4666 Y27.6729 
G01 X-53.5943 Y27.6983 
G01 X-55.6257 Y27.6983 
G01 X-55.8243 Y27.6588 
G01 X-56.0115 Y27.5813 
G01 X-56.1799 Y27.4687 
G01 X-56.3231 Y27.3255 
G01 X-56.4357 Y27.1571 
G01 X-56.5132 Y26.9699 
G01 X-56.5527 Y26.7713 
G01 X-56.5527 Y26.5687 
G01 X-56.5132 Y26.3701 
G01 X-56.4357 Y26.1829 
G01 X-56.3231 Y26.0145 
G01 X-56.1799 Y25.8713 
G01 X-56.0115 Y25.7587 
G01 X-55.8243 Y25.6812 
G01 X-55.6257 Y25.6417 
G01 X-53.5943 Y25.6417 
G01 X-53.4666 Y25.6671 
G01 X-51.2154 Y25.6671 
G01 X-48.8993 Y23.3510 
G01 X-48.7351 Y23.2412 
G01 X-48.5525 Y23.1656 
G01 X-48.3588 Y23.1271 
G01 X-48.1612 Y23.1271 
G01 X-47.9675 Y23.1656 
G01 X-47.9379 Y23.1779 
G01 X-45.6262 Y23.1779 
G01 X-45.4423 Y23.2145 
G01 X-45.4384 Y23.2161 
G01 X-44.7273 Y23.2161 
G01 X-44.6855 Y23.2334 
G01 X-44.6534 Y23.2655 
G01 X-44.6361 Y23.3073 
G01 X-44.6361 Y24.9527 
G01 X-44.6534 Y24.9945 
G01 X-44.6855 Y25.0266 
G00 Z2.0000  F3000
G00 X-43.8501 Y19.0061  F3000
G01 Z-0.2000 F200.00 
G01 X-43.8239 Y19.0061 F500.00 
G01 X-43.8239 Y18.8473 
G01 X-43.8066 Y18.8055 
G01 X-43.7745 Y18.7734 
G01 X-43.7327 Y18.7561 
G01 X-43.3739 Y18.7561 
G01 X-43.3739 Y18.7299 
G01 X-43.7284 Y18.7299 
G01 X-43.7641 Y18.7394 
G01 X-43.7960 Y18.7579 
G01 X-43.8221 Y18.7840 
G01 X-43.8406 Y18.8159 
G01 X-43.8501 Y18.8515 
G01 X-43.8501 Y19.0061 
G00 Z2.0000  F3000
G00 X-42.6461 Y18.7561  F3000
G01 Z-0.2000 F200.00 
G01 X-42.2873 Y18.7561 F500.00 
G01 X-42.2455 Y18.7734 
G01 X-42.2134 Y18.8055 
G01 X-42.1961 Y18.8473 
G01 X-42.1961 Y19.0061 
G01 X-42.1699 Y19.0061 
G01 X-42.1699 Y18.8515 
G01 X-42.1794 Y18.8159 
G01 X-42.1979 Y18.7840 
G01 X-42.2240 Y18.7579 
G01 X-42.2559 Y18.7394 
G01 X-42.2915 Y18.7299 
G01 X-42.6461 Y18.7299 
G01 X-42.6461 Y18.7561 
G00 Z2.0000  F3000
G00 X-52.7068 Y18.7501  F3000
G01 Z-0.2000 F200.00 
G01 X-52.6673 Y18.9487 F500.00 
G01 X-52.6673 Y19.1513 
G01 X-52.7068 Y19.3499 
G01 X-52.7843 Y19.5371 
G01 X-52.8969 Y19.7055 
G01 X-53.0401 Y19.8487 
G01 X-53.2085 Y19.9613 
G01 X-53.3957 Y20.0388 
G01 X-53.5943 Y20.0783 
G01 X-55.6257 Y20.0783 
G01 X-55.8243 Y20.0388 
G01 X-56.0115 Y19.9613 
G01 X-56.1799 Y19.8487 
G01 X-56.3231 Y19.7055 
G01 X-56.4357 Y19.5371 
G01 X-56.5132 Y19.3499 
G01 X-56.5527 Y19.1513 
G01 X-56.5527 Y18.9487 
G01 X-56.5132 Y18.7501 
G01 X-56.4357 Y18.5629 
G01 X-56.3231 Y18.3945 
G01 X-56.1799 Y18.2513 
G01 X-56.0115 Y18.1387 
G01 X-55.8243 Y18.0612 
G01 X-55.6257 Y18.0217 
G01 X-53.5943 Y18.0217 
G01 X-53.3957 Y18.0612 
G01 X-53.2085 Y18.1387 
G01 X-53.0401 Y18.2513 
G01 X-52.8969 Y18.3945 
G01 X-52.7843 Y18.5629 
G01 X-52.7068 Y18.7501 
G00 Z2.0000  F3000
G00 X-53.0401 Y17.3087  F3000
G01 Z-0.2000 F200.00 
G01 X-53.2085 Y17.4213 F500.00 
G01 X-53.3957 Y17.4988 
G01 X-53.5943 Y17.5383 
G01 X-55.6257 Y17.5383 
G01 X-55.8243 Y17.4988 
G01 X-56.0115 Y17.4213 
G01 X-56.1799 Y17.3087 
G01 X-56.3231 Y17.1655 
G01 X-56.4357 Y16.9971 
G01 X-56.5132 Y16.8099 
G01 X-56.5527 Y16.6113 
G01 X-56.5527 Y16.4087 
G01 X-56.5132 Y16.2101 
G01 X-56.4357 Y16.0229 
G01 X-56.3231 Y15.8545 
G01 X-56.1799 Y15.7113 
G01 X-56.0115 Y15.5987 
G01 X-55.8243 Y15.5212 
G01 X-55.6257 Y15.4817 
G01 X-53.5943 Y15.4817 
G01 X-53.3957 Y15.5212 
G01 X-53.2085 Y15.5987 
G01 X-53.0401 Y15.7113 
G01 X-52.8969 Y15.8545 
G01 X-52.7843 Y16.0229 
G01 X-52.7068 Y16.2101 
G01 X-52.6673 Y16.4087 
G01 X-52.6673 Y16.6113 
G01 X-52.7068 Y16.8099 
G01 X-52.7843 Y16.9971 
G01 X-52.8969 Y17.1655 
G01 X-53.0401 Y17.3087 
G00 Z2.0000  F3000
G00 X-53.0401 Y20.7913  F3000
G01 Z-0.2000 F200.00 
G01 X-52.8969 Y20.9345 F500.00 
G01 X-52.7843 Y21.1029 
G01 X-52.7068 Y21.2901 
G01 X-52.6673 Y21.4887 
G01 X-52.6673 Y21.6913 
G01 X-52.7068 Y21.8899 
G01 X-52.7843 Y22.0771 
G01 X-52.8969 Y22.2455 
G01 X-53.0401 Y22.3887 
G01 X-53.2085 Y22.5013 
G01 X-53.3957 Y22.5788 
G01 X-53.5943 Y22.6183 
G01 X-55.6257 Y22.6183 
G01 X-55.8243 Y22.5788 
G01 X-56.0115 Y22.5013 
G01 X-56.1799 Y22.3887 
G01 X-56.3231 Y22.2455 
G01 X-56.4357 Y22.0771 
G01 X-56.5132 Y21.8899 
G01 X-56.5527 Y21.6913 
G01 X-56.5527 Y21.4887 
G01 X-56.5132 Y21.2901 
G01 X-56.4357 Y21.1029 
G01 X-56.3231 Y20.9345 
G01 X-56.1799 Y20.7913 
G01 X-56.0115 Y20.6787 
G01 X-55.8243 Y20.6012 
G01 X-55.6257 Y20.5617 
G01 X-53.5943 Y20.5617 
G01 X-53.3957 Y20.6012 
G01 X-53.2085 Y20.6787 
G01 X-53.0401 Y20.7913 
G00 Z2.0000  F3000
G00 X-53.0401 Y23.3313  F3000
G01 Z-0.2000 F200.00 
G01 X-52.8969 Y23.4745 F500.00 
G01 X-52.7843 Y23.6429 
G01 X-52.7068 Y23.8301 
G01 X-52.6673 Y24.0287 
G01 X-52.6673 Y24.2313 
G01 X-52.7068 Y24.4299 
G01 X-52.7843 Y24.6171 
G01 X-52.8969 Y24.7855 
G01 X-53.0401 Y24.9287 
G01 X-53.2085 Y25.0413 
G01 X-53.3957 Y25.1188 
G01 X-53.5943 Y25.1583 
G01 X-55.6257 Y25.1583 
G01 X-55.8243 Y25.1188 
G01 X-56.0115 Y25.0413 
G01 X-56.1799 Y24.9287 
G01 X-56.3231 Y24.7855 
G01 X-56.4357 Y24.6171 
G01 X-56.5132 Y24.4299 
G01 X-56.5527 Y24.2313 
G01 X-56.5527 Y24.0287 
G01 X-56.5132 Y23.8301 
G01 X-56.4357 Y23.6429 
G01 X-56.3231 Y23.4745 
G01 X-56.1799 Y23.3313 
G01 X-56.0115 Y23.2187 
G01 X-55.8243 Y23.1412 
G01 X-55.6257 Y23.1017 
G01 X-53.5943 Y23.1017 
G01 X-53.3957 Y23.1412 
G01 X-53.2085 Y23.2187 
G01 X-53.0401 Y23.3313 
G00 Z2.0000  F3000
G00 X-53.0401 Y30.9513  F3000
G01 Z-0.2000 F200.00 
G01 X-52.8969 Y31.0945 F500.00 
G01 X-52.7843 Y31.2629 
G01 X-52.7068 Y31.4501 
G01 X-52.6673 Y31.6487 
G01 X-52.6673 Y31.8513 
G01 X-52.7068 Y32.0499 
G01 X-52.7843 Y32.2371 
G01 X-52.8969 Y32.4055 
G01 X-53.0401 Y32.5487 
G01 X-53.2085 Y32.6613 
G01 X-53.3957 Y32.7388 
G01 X-53.5943 Y32.7783 
G01 X-55.6257 Y32.7783 
G01 X-55.8243 Y32.7388 
G01 X-56.0115 Y32.6613 
G01 X-56.1799 Y32.5487 
G01 X-56.3231 Y32.4055 
G01 X-56.4357 Y32.2371 
G01 X-56.5132 Y32.0499 
G01 X-56.5527 Y31.8513 
G01 X-56.5527 Y31.6487 
G01 X-56.5132 Y31.4501 
G01 X-56.4357 Y31.2629 
G01 X-56.3231 Y31.0945 
G01 X-56.1799 Y30.9513 
G01 X-56.0115 Y30.8387 
G01 X-55.8243 Y30.7612 
G01 X-55.6257 Y30.7217 
G01 X-53.5943 Y30.7217 
G01 X-53.3957 Y30.7612 
G01 X-53.2085 Y30.8387 
G01 X-53.0401 Y30.9513 
G00 Z2.0000  F3000
G00 X-61.5979 Y26.9160  F3000
G01 Z-0.2000 F200.00 
G01 X-61.5794 Y26.8841 F500.00 
G01 X-61.5699 Y26.8484 
G01 X-61.5699 Y24.6503 
G01 X-61.5961 Y24.6503 
G01 X-61.5961 Y26.8527 
G01 X-61.6134 Y26.8945 
G01 X-61.6455 Y26.9266 
G01 X-61.6873 Y26.9439 
G01 X-64.2897 Y26.9439 
G01 X-64.2897 Y26.9701 
G01 X-61.6915 Y26.9701 
G01 X-61.6559 Y26.9606 
G01 X-61.6240 Y26.9421 
G01 X-61.5979 Y26.9160 
G00 Z2.0000  F3000
G00 X-61.5961 Y23.6097  F3000
G01 Z-0.2000 F200.00 
G01 X-61.5699 Y23.6097 F500.00 
G01 X-61.5699 Y21.4115 
G01 X-61.5794 Y21.3759 
G01 X-61.5979 Y21.3440 
G01 X-61.6240 Y21.3179 
G01 X-61.6559 Y21.2994 
G01 X-61.6915 Y21.2899 
G01 X-64.2897 Y21.2899 
G01 X-64.2897 Y21.3161 
G01 X-61.6873 Y21.3161 
G01 X-61.6455 Y21.3334 
G01 X-61.6134 Y21.3655 
G01 X-61.5961 Y21.4073 
G01 X-61.5961 Y23.6097 
G00 Z2.0000  F3000
G00 X-65.3303 Y21.3161  F3000
G01 Z-0.2000 F200.00 
G01 X-65.3303 Y21.2899 F500.00 
G01 X-67.9284 Y21.2899 
G01 X-67.9641 Y21.2994 
G01 X-67.9960 Y21.3179 
G01 X-68.0221 Y21.3440 
G01 X-68.0406 Y21.3759 
G01 X-68.0501 Y21.4115 
G01 X-68.0501 Y23.6097 
G01 X-68.0239 Y23.6097 
G01 X-68.0239 Y21.4073 
G01 X-68.0066 Y21.3655 
G01 X-67.9745 Y21.3334 
G01 X-67.9327 Y21.3161 
G01 X-65.3303 Y21.3161 
G00 Z2.0000  F3000
G00 X-67.7179 Y18.1960  F3000
G01 Z-0.2000 F200.00 
G01 X-67.6994 Y18.1641 F500.00 
G01 X-67.6899 Y18.1284 
G01 X-67.6899 Y17.8989 
G01 X-67.7161 Y17.8989 
G01 X-67.7161 Y18.1327 
G01 X-67.7334 Y18.1745 
G01 X-67.7655 Y18.2066 
G01 X-67.8073 Y18.2239 
G01 X-68.1411 Y18.2239 
G01 X-68.1411 Y18.2501 
G01 X-67.8115 Y18.2501 
G01 X-67.7759 Y18.2406 
G01 X-67.7440 Y18.2221 
G01 X-67.7179 Y18.1960 
G00 Z2.0000  F3000
G00 X-69.0189 Y18.2239  F3000
G01 Z-0.2000 F200.00 
G01 X-69.3527 Y18.2239 F500.00 
G01 X-69.3945 Y18.2066 
G01 X-69.4266 Y18.1745 
G01 X-69.4439 Y18.1327 
G01 X-69.4439 Y17.8989 
G01 X-69.4701 Y17.8989 
G01 X-69.4701 Y18.1284 
G01 X-69.4606 Y18.1641 
G01 X-69.4421 Y18.1960 
G01 X-69.4160 Y18.2221 
G01 X-69.3841 Y18.2406 
G01 X-69.3484 Y18.2501 
G01 X-69.0189 Y18.2501 
G01 X-69.0189 Y18.2239 
G00 Z2.0000  F3000
G00 X-75.6186 Y18.4239  F3000
G01 Z-0.2000 F200.00 
G01 X-75.9295 Y18.1130 F500.00 
G01 X-76.0820 Y18.0498 
G01 X-76.1098 Y18.0408 
G01 X-76.1204 Y18.0339 
G01 X-76.1320 Y18.0291 
G01 X-76.1553 Y18.0112 
G01 X-76.1798 Y17.9953 
G01 X-76.1883 Y17.9859 
G01 X-76.1983 Y17.9782 
G01 X-76.2161 Y17.9550 
G01 X-76.2357 Y17.9332 
G01 X-76.2414 Y17.9220 
G01 X-76.2491 Y17.9120 
G01 X-76.2603 Y17.8849 
G01 X-76.2736 Y17.8589 
G01 X-76.2762 Y17.8465 
G01 X-76.2811 Y17.8349 
G01 X-76.2849 Y17.8058 
G01 X-76.2910 Y17.7772 
G01 X-76.2903 Y17.7646 
G01 X-76.2920 Y17.7521 
G01 X-76.2881 Y17.7231 
G01 X-76.2866 Y17.6938 
G01 X-76.2827 Y17.6818 
G01 X-76.2811 Y17.6693 
G01 X-76.2699 Y17.6423 
G01 X-76.2608 Y17.6144 
G01 X-76.2539 Y17.6038 
G01 X-76.2491 Y17.5922 
G01 X-76.2313 Y17.5689 
G01 X-76.2153 Y17.5444 
G01 X-76.2060 Y17.5359 
G01 X-76.1983 Y17.5259 
G01 X-76.1751 Y17.5081 
G01 X-76.1533 Y17.4885 
G01 X-76.1420 Y17.4828 
G01 X-76.1321 Y17.4751 
G01 X-76.1050 Y17.4639 
G01 X-76.0029 Y17.4119 
G01 X-75.8686 Y17.3143 
G01 X-75.7513 Y17.1970 
G01 X-75.6537 Y17.0627 
G01 X-75.5784 Y16.9148 
G01 X-75.5664 Y16.8779 
G01 X-75.5950 Y16.8779 
G01 X-75.6443 Y16.9971 
G01 X-75.7569 Y17.1655 
G01 X-75.9001 Y17.3087 
G01 X-76.0685 Y17.4213 
G01 X-76.2557 Y17.4988 
G01 X-76.4543 Y17.5383 
G01 X-78.4857 Y17.5383 
G01 X-78.6134 Y17.5129 
G01 X-78.8594 Y17.5129 
G01 X-78.8492 Y17.5306 
G01 X-78.8449 Y17.5468 
G01 X-78.8380 Y17.5622 
G01 X-78.8341 Y17.5870 
G01 X-78.8276 Y17.6112 
G01 X-78.8276 Y17.6280 
G01 X-78.8250 Y17.6446 
G01 X-78.8276 Y17.6696 
G01 X-78.8276 Y17.6947 
G01 X-78.8319 Y17.7110 
G01 X-78.8337 Y17.7277 
G01 X-78.8427 Y17.7511 
G01 X-78.8492 Y17.7754 
G01 X-78.8576 Y17.7899 
G01 X-78.8636 Y17.8056 
G01 X-78.8784 Y17.8259 
G01 X-78.8909 Y17.8477 
G01 X-78.9028 Y17.8596 
G01 X-78.9127 Y17.8732 
G01 X-78.9322 Y17.8890 
G01 X-78.9500 Y17.9067 
G01 X-78.9645 Y17.9151 
G01 X-78.9776 Y17.9257 
G01 X-79.0005 Y17.9359 
G01 X-79.0223 Y17.9485 
G01 X-79.0385 Y17.9528 
G01 X-79.0538 Y17.9597 
G01 X-79.0787 Y17.9636 
G01 X-79.1029 Y17.9701 
G01 X-79.1197 Y17.9701 
G01 X-79.1363 Y17.9727 
G01 X-79.1613 Y17.9701 
G01 X-82.6221 Y17.9701 
G01 X-82.6555 Y17.9718 
G01 X-82.6637 Y17.9701 
G01 X-82.6721 Y17.9701 
G01 X-82.7045 Y17.9614 
G01 X-82.7372 Y17.9545 
G01 X-82.7447 Y17.9507 
G01 X-82.7528 Y17.9485 
G01 X-82.7818 Y17.9318 
G01 X-82.8116 Y17.9166 
G01 X-82.8178 Y17.9109 
G01 X-82.8251 Y17.9067 
G01 X-82.8488 Y17.8831 
G01 X-82.8736 Y17.8607 
G01 X-82.8782 Y17.8536 
G01 X-82.8841 Y17.8477 
G01 X-82.9009 Y17.8187 
G01 X-82.9191 Y17.7907 
G01 X-82.9217 Y17.7827 
G01 X-82.9259 Y17.7754 
G01 X-82.9345 Y17.7431 
G01 X-82.9449 Y17.7113 
G01 X-82.9453 Y17.7029 
G01 X-82.9475 Y17.6947 
G01 X-82.9475 Y17.6613 
G01 X-82.9492 Y17.6279 
G01 X-82.9475 Y17.6197 
G01 X-82.9475 Y17.6112 
G01 X-82.9388 Y17.5789 
G01 X-82.9319 Y17.5462 
G01 X-82.9281 Y17.5387 
G01 X-82.9259 Y17.5306 
G01 X-82.9157 Y17.5129 
G01 X-83.9188 Y17.5129 
G01 X-84.0822 Y17.4804 
G01 X-84.0723 Y17.4903 
G01 X-84.0557 Y17.5030 
G01 X-84.0429 Y17.5197 
G01 X-84.0281 Y17.5345 
G01 X-84.0176 Y17.5527 
G01 X-84.0048 Y17.5693 
G01 X-83.9968 Y17.5886 
G01 X-83.9863 Y17.6068 
G01 X-83.9809 Y17.6271 
G01 X-83.9729 Y17.6464 
G01 X-83.9702 Y17.6672 
G01 X-83.9647 Y17.6874 
G01 X-83.9647 Y17.7084 
G01 X-83.9620 Y17.7292 
G01 X-83.9647 Y17.7500 
G01 X-83.9647 Y17.7709 
G01 X-83.9702 Y17.7912 
G01 X-83.9729 Y17.8120 
G01 X-83.9809 Y17.8313 
G01 X-83.9863 Y17.8516 
G01 X-83.9968 Y17.8697 
G01 X-84.0048 Y17.8891 
G01 X-84.0176 Y17.9057 
G01 X-84.0281 Y17.9239 
G01 X-84.0429 Y17.9387 
G01 X-84.0557 Y17.9554 
G01 X-84.0723 Y17.9681 
G01 X-84.0871 Y17.9829 
G01 X-84.1053 Y17.9934 
G01 X-84.1219 Y18.0062 
G01 X-84.1413 Y18.0142 
G01 X-84.1594 Y18.0247 
G01 X-84.1797 Y18.0301 
G01 X-84.2639 Y18.0650 
G01 X-84.2821 Y18.0755 
G01 X-84.3023 Y18.0809 
G01 X-84.3217 Y18.0889 
G01 X-84.3425 Y18.0917 
G01 X-84.3627 Y18.0971 
G01 X-84.3837 Y18.0971 
G01 X-84.4045 Y18.0998 
G01 X-84.4253 Y18.0971 
G01 X-84.7715 Y18.0971 
G01 X-85.1218 Y18.2422 
G01 X-85.3898 Y18.5102 
G01 X-85.5349 Y18.8605 
G01 X-85.5349 Y19.2395 
G01 X-85.3898 Y19.5898 
G01 X-85.1218 Y19.8578 
G01 X-84.7715 Y20.0029 
G01 X-84.3627 Y20.0029 
G01 X-84.2821 Y20.0245 
G01 X-84.2098 Y20.0663 
G01 X-84.1507 Y20.1253 
G01 X-84.1090 Y20.1976 
G01 X-84.0874 Y20.2782 
G01 X-84.0874 Y20.3617 
G01 X-84.1090 Y20.4424 
G01 X-84.1507 Y20.5147 
G01 X-84.2098 Y20.5737 
G01 X-84.2821 Y20.6155 
G01 X-84.3627 Y20.6371 
G01 X-84.7715 Y20.6371 
G01 X-85.1218 Y20.7822 
G01 X-85.3898 Y21.0502 
G01 X-85.5349 Y21.4005 
G01 X-85.5349 Y21.7795 
G01 X-85.3898 Y22.1298 
G01 X-85.1218 Y22.3978 
G01 X-84.7715 Y22.5429 
G01 X-84.3627 Y22.5429 
G01 X-84.2821 Y22.5645 
G01 X-84.2098 Y22.6063 
G01 X-84.1507 Y22.6653 
G01 X-84.1090 Y22.7376 
G01 X-84.0874 Y22.8182 
G01 X-84.0874 Y22.9017 
G01 X-84.1090 Y22.9824 
G01 X-84.1507 Y23.0547 
G01 X-84.2098 Y23.1137 
G01 X-84.2821 Y23.1555 
G01 X-84.3627 Y23.1771 
G01 X-84.7715 Y23.1771 
G01 X-85.1218 Y23.3222 
G01 X-85.3898 Y23.5902 
G01 X-85.5349 Y23.9405 
G01 X-85.5349 Y24.3195 
G01 X-85.3898 Y24.6698 
G01 X-85.1218 Y24.9378 
G01 X-84.7715 Y25.0829 
G01 X-84.4366 Y25.0829 
G01 X-84.4271 Y25.0810 
G01 X-84.3950 Y25.0829 
G01 X-84.3627 Y25.0829 
G01 X-84.3534 Y25.0854 
G01 X-84.3438 Y25.0860 
G01 X-84.3132 Y25.0962 
G01 X-84.2821 Y25.1045 
G01 X-84.2737 Y25.1093 
G01 X-84.2646 Y25.1124 
G01 X-84.2377 Y25.1301 
G01 X-84.2098 Y25.1463 
G01 X-84.2030 Y25.1531 
G01 X-84.1949 Y25.1584 
G01 X-84.1735 Y25.1825 
G01 X-84.1507 Y25.2053 
G01 X-84.1459 Y25.2136 
G01 X-84.1395 Y25.2208 
G01 X-84.1251 Y25.2497 
G01 X-84.1090 Y25.2776 
G01 X-84.1065 Y25.2869 
G01 X-84.1022 Y25.2955 
G01 X-84.0957 Y25.3271 
G01 X-84.0874 Y25.3582 
G01 X-84.0874 Y25.3679 
G01 X-84.0854 Y25.3773 
G01 X-84.0874 Y25.4095 
G01 X-84.0874 Y25.4417 
G01 X-84.0899 Y25.4511 
G01 X-84.0904 Y25.4607 
G01 X-84.1006 Y25.4912 
G01 X-84.1090 Y25.5224 
G01 X-84.1138 Y25.5307 
G01 X-84.1168 Y25.5399 
G01 X-84.1346 Y25.5668 
G01 X-84.1507 Y25.5947 
G01 X-84.1575 Y25.6015 
G01 X-84.1629 Y25.6096 
G01 X-84.1870 Y25.6309 
G01 X-84.2098 Y25.6537 
G01 X-84.2181 Y25.6586 
G01 X-84.2253 Y25.6649 
G01 X-84.2542 Y25.6794 
G01 X-84.2821 Y25.6955 
G01 X-84.2914 Y25.6980 
G01 X-84.3000 Y25.7023 
G01 X-84.3316 Y25.7088 
G01 X-84.3627 Y25.7171 
G01 X-84.3724 Y25.7171 
G01 X-84.3818 Y25.7190 
G01 X-84.4140 Y25.7171 
G01 X-84.7715 Y25.7171 
G01 X-85.1218 Y25.8622 
G01 X-85.3898 Y26.1302 
G01 X-85.5349 Y26.4805 
G01 X-85.5349 Y26.8595 
G01 X-85.3898 Y27.2098 
G01 X-85.1218 Y27.4778 
G01 X-84.7715 Y27.6229 
G01 X-84.4253 Y27.6229 
G01 X-84.4045 Y27.6202 
G01 X-84.3837 Y27.6229 
G01 X-84.3627 Y27.6229 
G01 X-84.3425 Y27.6283 
G01 X-84.3217 Y27.6311 
G01 X-84.3023 Y27.6391 
G01 X-84.2821 Y27.6445 
G01 X-84.2639 Y27.6550 
G01 X-84.0348 Y27.7499 
G01 X-79.2112 Y27.7499 
G01 X-79.1306 Y27.7715 
G01 X-79.0583 Y27.8133 
G01 X-78.9992 Y27.8723 
G01 X-78.9584 Y27.9430 
G01 X-78.9566 Y27.9480 
G01 X-78.9359 Y28.0252 
G01 X-78.9359 Y28.1087 
G01 X-78.9575 Y28.1894 
G01 X-78.9992 Y28.2617 
G01 X-79.0023 Y28.2648 
G01 X-79.0583 Y28.3207 
G01 X-79.3214 Y28.5839 
G01 X-79.4897 Y28.9901 
G01 X-79.4897 Y29.4299 
G01 X-79.3214 Y29.8361 
G01 X-79.0105 Y30.1470 
G01 X-78.8753 Y30.2030 
G01 X-78.8091 Y30.2538 
G01 X-78.7928 Y30.2751 
G01 X-78.7583 Y30.3201 
G01 X-78.7524 Y30.3342 
G01 X-78.7263 Y30.3972 
G01 X-78.7154 Y30.4800 
G01 X-78.7181 Y30.5001 
G01 X-78.7263 Y30.5628 
G01 X-78.7583 Y30.6399 
G01 X-78.8091 Y30.7062 
G01 X-78.8304 Y30.7225 
G01 X-78.8753 Y30.7570 
G01 X-78.8954 Y30.7653 
G01 X-78.9525 Y30.7889 
G01 X-79.0105 Y30.8130 
G01 X-79.3214 Y31.1239 
G01 X-79.4897 Y31.5301 
G01 X-79.4897 Y31.9699 
G01 X-79.3214 Y32.3761 
G01 X-79.0105 Y32.6870 
G01 X-78.6043 Y32.8553 
G01 X-76.3357 Y32.8553 
G01 X-75.9295 Y32.6870 
G01 X-75.6186 Y32.3761 
G01 X-75.4503 Y31.9699 
G01 X-75.4503 Y31.5301 
G01 X-75.6186 Y31.1239 
G01 X-75.9295 Y30.8130 
G01 X-75.9875 Y30.7889 
G01 X-76.0472 Y30.7642 
G01 X-76.0647 Y30.7570 
G01 X-76.1120 Y30.7206 
G01 X-76.1309 Y30.7062 
G01 X-76.1817 Y30.6399 
G01 X-76.2137 Y30.5628 
G01 X-76.2221 Y30.4984 
G01 X-76.2246 Y30.4800 
G01 X-76.2137 Y30.3972 
G01 X-76.1868 Y30.3324 
G01 X-76.1817 Y30.3201 
G01 X-76.1454 Y30.2727 
G01 X-76.1309 Y30.2538 
G01 X-76.0647 Y30.2030 
G01 X-75.9295 Y30.1470 
G01 X-75.6186 Y29.8361 
G01 X-75.4503 Y29.4299 
G01 X-75.4503 Y28.9901 
G01 X-75.6186 Y28.5839 
G01 X-75.9295 Y28.2730 
G01 X-75.9875 Y28.2489 
G01 X-76.0472 Y28.2242 
G01 X-76.0647 Y28.2170 
G01 X-76.1120 Y28.1806 
G01 X-76.1309 Y28.1662 
G01 X-76.1817 Y28.0999 
G01 X-76.2137 Y28.0228 
G01 X-76.2221 Y27.9584 
G01 X-76.2246 Y27.9400 
G01 X-76.2137 Y27.8572 
G01 X-76.1868 Y27.7924 
G01 X-76.1817 Y27.7801 
G01 X-76.1454 Y27.7327 
G01 X-76.1309 Y27.7138 
G01 X-76.0647 Y27.6630 
G01 X-75.9295 Y27.6070 
G01 X-75.6186 Y27.2961 
G01 X-75.4503 Y26.8899 
G01 X-75.4503 Y26.4501 
G01 X-75.6186 Y26.0439 
G01 X-75.9295 Y25.7330 
G01 X-75.9875 Y25.7089 
G01 X-76.0472 Y25.6842 
G01 X-76.0647 Y25.6770 
G01 X-76.1120 Y25.6406 
G01 X-76.1309 Y25.6262 
G01 X-76.1817 Y25.5599 
G01 X-76.2137 Y25.4828 
G01 X-76.2221 Y25.4184 
G01 X-76.2246 Y25.4000 
G01 X-76.2137 Y25.3172 
G01 X-76.1868 Y25.2524 
G01 X-76.1817 Y25.2401 
G01 X-76.1454 Y25.1927 
G01 X-76.1309 Y25.1738 
G01 X-76.0647 Y25.1230 
G01 X-75.9295 Y25.0670 
G01 X-75.6186 Y24.7561 
G01 X-75.4503 Y24.3499 
G01 X-75.4503 Y23.9101 
G01 X-75.6186 Y23.5039 
G01 X-75.9295 Y23.1930 
G01 X-75.9875 Y23.1689 
G01 X-76.0472 Y23.1442 
G01 X-76.0647 Y23.1370 
G01 X-76.1120 Y23.1006 
G01 X-76.1309 Y23.0862 
G01 X-76.1817 Y23.0199 
G01 X-76.2137 Y22.9428 
G01 X-76.2222 Y22.8784 
G01 X-76.2246 Y22.8600 
G01 X-76.2137 Y22.7772 
G01 X-76.1868 Y22.7124 
G01 X-76.1817 Y22.7001 
G01 X-76.1454 Y22.6527 
G01 X-76.1309 Y22.6338 
G01 X-76.0647 Y22.5830 
G01 X-75.9295 Y22.5270 
G01 X-75.6186 Y22.2161 
G01 X-75.4503 Y21.8099 
G01 X-75.4503 Y21.3701 
G01 X-75.6186 Y20.9639 
G01 X-75.9295 Y20.6530 
G01 X-75.9875 Y20.6289 
G01 X-76.0472 Y20.6042 
G01 X-76.0647 Y20.5970 
G01 X-76.1120 Y20.5606 
G01 X-76.1309 Y20.5462 
G01 X-76.1817 Y20.4799 
G01 X-76.2137 Y20.4028 
G01 X-76.2222 Y20.3384 
G01 X-76.2246 Y20.3200 
G01 X-76.2137 Y20.2372 
G01 X-76.1868 Y20.1724 
G01 X-76.1817 Y20.1601 
G01 X-76.1454 Y20.1127 
G01 X-76.1309 Y20.0938 
G01 X-76.0647 Y20.0430 
G01 X-75.9295 Y19.9870 
G01 X-75.6186 Y19.6761 
G01 X-75.4503 Y19.2699 
G01 X-75.4503 Y18.8301 
G01 X-75.6186 Y18.4239 
G00 Z2.0000  F3000
G00 X-75.6443 Y18.5629  F3000
G01 Z-0.2000 F200.00 
G01 X-75.5668 Y18.7501 F500.00 
G01 X-75.5273 Y18.9487 
G01 X-75.5273 Y19.1513 
G01 X-75.5668 Y19.3499 
G01 X-75.6443 Y19.5371 
G01 X-75.7569 Y19.7055 
G01 X-75.9001 Y19.8487 
G01 X-76.0685 Y19.9613 
G01 X-76.2557 Y20.0388 
G01 X-76.4543 Y20.0783 
G01 X-78.4857 Y20.0783 
G01 X-78.6134 Y20.0529 
G01 X-83.9188 Y20.0529 
G01 X-84.1125 Y20.0144 
G01 X-84.2951 Y19.9388 
G01 X-84.3143 Y19.9259 
G01 X-84.6683 Y19.9259 
G01 X-84.8375 Y19.8922 
G01 X-84.9969 Y19.8262 
G01 X-85.1404 Y19.7304 
G01 X-85.2624 Y19.6084 
G01 X-85.3582 Y19.4649 
G01 X-85.4242 Y19.3055 
G01 X-85.4579 Y19.1363 
G01 X-85.4579 Y18.9637 
G01 X-85.4242 Y18.7945 
G01 X-85.3582 Y18.6351 
G01 X-85.2624 Y18.4916 
G01 X-85.1404 Y18.3696 
G01 X-84.9969 Y18.2738 
G01 X-84.8375 Y18.2078 
G01 X-84.6683 Y18.1741 
G01 X-84.3143 Y18.1741 
G01 X-84.2951 Y18.1612 
G01 X-84.1125 Y18.0856 
G01 X-83.9188 Y18.0471 
G01 X-78.6134 Y18.0471 
G01 X-78.4857 Y18.0217 
G01 X-76.4543 Y18.0217 
G01 X-76.2557 Y18.0612 
G01 X-76.0685 Y18.1387 
G01 X-75.9001 Y18.2513 
G01 X-75.7569 Y18.3945 
G01 X-75.6443 Y18.5629 
G00 Z2.0000  F3000
G00 X-75.7569 Y20.9345  F3000
G01 Z-0.2000 F200.00 
G01 X-75.6443 Y21.1029 F500.00 
G01 X-75.5668 Y21.2901 
G01 X-75.5273 Y21.4887 
G01 X-75.5273 Y21.6913 
G01 X-75.5668 Y21.8899 
G01 X-75.6443 Y22.0771 
G01 X-75.7569 Y22.2455 
G01 X-75.9001 Y22.3887 
G01 X-76.0685 Y22.5013 
G01 X-76.2557 Y22.5788 
G01 X-76.4543 Y22.6183 
G01 X-78.4857 Y22.6183 
G01 X-78.6134 Y22.5929 
G01 X-83.9188 Y22.5929 
G01 X-84.1125 Y22.5544 
G01 X-84.2951 Y22.4788 
G01 X-84.3143 Y22.4659 
G01 X-84.6683 Y22.4659 
G01 X-84.8375 Y22.4322 
G01 X-84.9969 Y22.3662 
G01 X-85.1404 Y22.2704 
G01 X-85.2624 Y22.1484 
G01 X-85.3582 Y22.0049 
G01 X-85.4242 Y21.8455 
G01 X-85.4579 Y21.6763 
G01 X-85.4579 Y21.5037 
G01 X-85.4242 Y21.3345 
G01 X-85.3582 Y21.1751 
G01 X-85.2624 Y21.0316 
G01 X-85.1404 Y20.9096 
G01 X-84.9969 Y20.8138 
G01 X-84.8375 Y20.7478 
G01 X-84.6683 Y20.7141 
G01 X-84.3143 Y20.7141 
G01 X-84.2951 Y20.7012 
G01 X-84.1125 Y20.6256 
G01 X-83.9188 Y20.5871 
G01 X-78.6134 Y20.5871 
G01 X-78.4857 Y20.5617 
G01 X-76.4543 Y20.5617 
G01 X-76.2557 Y20.6012 
G01 X-76.0685 Y20.6787 
G01 X-75.9001 Y20.7913 
G01 X-75.7569 Y20.9345 
G00 Z2.0000  F3000
G00 X-75.7569 Y23.4745  F3000
G01 Z-0.2000 F200.00 
G01 X-75.6443 Y23.6429 F500.00 
G01 X-75.5668 Y23.8301 
G01 X-75.5273 Y24.0287 
G01 X-75.5273 Y24.2313 
G01 X-75.5668 Y24.4299 
G01 X-75.6443 Y24.6171 
G01 X-75.7569 Y24.7855 
G01 X-75.9001 Y24.9287 
G01 X-76.0685 Y25.0413 
G01 X-76.2557 Y25.1188 
G01 X-76.4543 Y25.1583 
G01 X-78.4857 Y25.1583 
G01 X-78.6134 Y25.1329 
G01 X-83.9188 Y25.1329 
G01 X-84.1125 Y25.0944 
G01 X-84.2951 Y25.0188 
G01 X-84.3143 Y25.0059 
G01 X-84.6683 Y25.0059 
G01 X-84.8375 Y24.9722 
G01 X-84.9969 Y24.9062 
G01 X-85.1404 Y24.8104 
G01 X-85.2624 Y24.6884 
G01 X-85.3582 Y24.5449 
G01 X-85.4242 Y24.3855 
G01 X-85.4579 Y24.2163 
G01 X-85.4579 Y24.0437 
G01 X-85.4242 Y23.8745 
G01 X-85.3582 Y23.7151 
G01 X-85.2624 Y23.5716 
G01 X-85.1404 Y23.4496 
G01 X-84.9969 Y23.3538 
G01 X-84.8375 Y23.2878 
G01 X-84.6683 Y23.2541 
G01 X-84.3143 Y23.2541 
G01 X-84.2951 Y23.2412 
G01 X-84.1125 Y23.1656 
G01 X-83.9188 Y23.1271 
G01 X-78.6134 Y23.1271 
G01 X-78.4857 Y23.1017 
G01 X-76.4543 Y23.1017 
G01 X-76.2557 Y23.1412 
G01 X-76.0685 Y23.2187 
G01 X-75.9001 Y23.3313 
G01 X-75.7569 Y23.4745 
G00 Z2.0000  F3000
G00 X-75.7569 Y26.0145  F3000
G01 Z-0.2000 F200.00 
G01 X-75.6443 Y26.1829 F500.00 
G01 X-75.5668 Y26.3701 
G01 X-75.5273 Y26.5687 
G01 X-75.5273 Y26.7713 
G01 X-75.5668 Y26.9699 
G01 X-75.6443 Y27.1571 
G01 X-75.7569 Y27.3255 
G01 X-75.9001 Y27.4687 
G01 X-76.0685 Y27.5813 
G01 X-76.2557 Y27.6588 
G01 X-76.4543 Y27.6983 
G01 X-78.4857 Y27.6983 
G01 X-78.6134 Y27.6729 
G01 X-83.9188 Y27.6729 
G01 X-84.1125 Y27.6344 
G01 X-84.2951 Y27.5588 
G01 X-84.3143 Y27.5459 
G01 X-84.6683 Y27.5459 
G01 X-84.8375 Y27.5122 
G01 X-84.9969 Y27.4462 
G01 X-85.1404 Y27.3504 
G01 X-85.2624 Y27.2284 
G01 X-85.3582 Y27.0849 
G01 X-85.4242 Y26.9255 
G01 X-85.4579 Y26.7563 
G01 X-85.4579 Y26.5837 
G01 X-85.4242 Y26.4145 
G01 X-85.3582 Y26.2551 
G01 X-85.2624 Y26.1116 
G01 X-85.1404 Y25.9896 
G01 X-84.9969 Y25.8938 
G01 X-84.8375 Y25.8278 
G01 X-84.6683 Y25.7941 
G01 X-84.3143 Y25.7941 
G01 X-84.2951 Y25.7812 
G01 X-84.1125 Y25.7056 
G01 X-83.9188 Y25.6671 
G01 X-78.6134 Y25.6671 
G01 X-78.4857 Y25.6417 
G01 X-76.4543 Y25.6417 
G01 X-76.2557 Y25.6812 
G01 X-76.0685 Y25.7587 
G01 X-75.9001 Y25.8713 
G01 X-75.7569 Y26.0145 
G00 Z2.0000  F3000
G00 X-73.4191 Y26.2053  F3000
G01 Z-0.2000 F200.00 
G01 X-73.4191 Y34.2555 F500.00 
G01 X-73.4407 Y34.3362 
G01 X-73.4825 Y34.4085 
G01 X-73.5415 Y34.4675 
G01 X-73.6138 Y34.5093 
G01 X-73.6944 Y34.5309 
G01 X-80.2147 Y34.5309 
G01 X-80.5929 Y34.6876 
G01 X-80.8824 Y34.9771 
G01 X-81.0391 Y35.3553 
G01 X-81.0391 Y35.7647 
G01 X-80.8824 Y36.1429 
G01 X-80.5929 Y36.4324 
G01 X-80.2147 Y36.5891 
G01 X-68.3753 Y36.5891 
G01 X-67.9971 Y36.4324 
G01 X-67.7076 Y36.1429 
G01 X-67.5509 Y35.7647 
G01 X-67.5509 Y32.8153 
G01 X-67.6070 Y32.6798 
G01 X-67.6175 Y32.6617 
G01 X-67.6229 Y32.6414 
G01 X-67.6309 Y32.6221 
G01 X-67.6337 Y32.6013 
G01 X-67.6391 Y32.5810 
G01 X-67.6391 Y32.5601 
G01 X-67.6418 Y32.5393 
G01 X-67.6391 Y32.5185 
G01 X-67.6391 Y31.9709 
G01 X-67.6467 Y31.9634 
G01 X-67.7057 Y31.9043 
G01 X-67.7415 Y31.8423 
G01 X-67.7474 Y31.8320 
G01 X-67.7577 Y31.7937 
G01 X-67.7691 Y31.7514 
G01 X-67.7691 Y31.6679 
G01 X-67.7529 Y31.6076 
G01 X-67.7475 Y31.5872 
G01 X-67.7285 Y31.5544 
G01 X-67.7057 Y31.5149 
G01 X-67.6994 Y31.5041 
G01 X-67.6899 Y31.4684 
G01 X-67.6899 Y31.2389 
G01 X-67.7161 Y31.2389 
G01 X-67.7161 Y31.4727 
G01 X-67.7334 Y31.5145 
G01 X-67.7655 Y31.5466 
G01 X-67.8073 Y31.5639 
G01 X-69.3527 Y31.5639 
G01 X-69.3945 Y31.5466 
G01 X-69.4266 Y31.5145 
G01 X-69.4439 Y31.4727 
G01 X-69.4439 Y31.2389 
G01 X-69.4701 Y31.2389 
G01 X-69.4701 Y31.4684 
G01 X-69.4606 Y31.5041 
G01 X-69.4543 Y31.5149 
G01 X-69.4309 Y31.5555 
G01 X-69.4125 Y31.5872 
G01 X-69.4064 Y31.6101 
G01 X-69.3909 Y31.6679 
G01 X-69.3909 Y31.7514 
G01 X-69.4028 Y31.7955 
G01 X-69.4125 Y31.8320 
G01 X-69.4195 Y31.8441 
G01 X-69.4543 Y31.9043 
G01 X-69.4572 Y31.9073 
G01 X-69.5133 Y31.9634 
G01 X-69.5209 Y31.9709 
G01 X-69.5209 Y32.5185 
G01 X-69.5182 Y32.5393 
G01 X-69.5209 Y32.5601 
G01 X-69.5209 Y32.5810 
G01 X-69.5263 Y32.6013 
G01 X-69.5291 Y32.6221 
G01 X-69.5371 Y32.6414 
G01 X-69.5425 Y32.6617 
G01 X-69.5530 Y32.6798 
G01 X-69.6091 Y32.8153 
G01 X-69.6091 Y34.2555 
G01 X-69.6307 Y34.3362 
G01 X-69.6725 Y34.4085 
G01 X-69.7315 Y34.4675 
G01 X-69.8038 Y34.5093 
G01 X-69.8844 Y34.5309 
G01 X-71.0855 Y34.5309 
G01 X-71.1662 Y34.5093 
G01 X-71.2385 Y34.4675 
G01 X-71.2975 Y34.4085 
G01 X-71.3393 Y34.3362 
G01 X-71.3609 Y34.2555 
G01 X-71.3609 Y27.3205 
G01 X-71.3393 Y27.2398 
G01 X-71.2975 Y27.1675 
G01 X-71.1191 Y26.9891 
G01 X-71.1191 Y26.7908 
G01 X-71.1218 Y26.7700 
G01 X-71.1191 Y26.7492 
G01 X-71.1191 Y26.7282 
G01 X-71.1137 Y26.7080 
G01 X-71.1109 Y26.6872 
G01 X-71.1029 Y26.6678 
G01 X-71.0975 Y26.6476 
G01 X-71.0870 Y26.6294 
G01 X-71.0809 Y26.6147 
G01 X-71.0809 Y26.2053 
G01 X-71.0870 Y26.1905 
G01 X-71.0975 Y26.1724 
G01 X-71.1029 Y26.1521 
G01 X-71.1109 Y26.1328 
G01 X-71.1137 Y26.1120 
G01 X-71.1191 Y26.0917 
G01 X-71.1191 Y26.0708 
G01 X-71.1218 Y26.0500 
G01 X-71.1191 Y26.0292 
G01 X-71.1191 Y25.8309 
G01 X-71.2309 Y25.7191 
G01 X-71.2559 Y25.7191 
G01 X-71.3366 Y25.6975 
G01 X-71.4089 Y25.6557 
G01 X-71.5271 Y25.5376 
G01 X-71.9053 Y25.3809 
G01 X-72.5947 Y25.3809 
G01 X-72.9729 Y25.5376 
G01 X-73.2624 Y25.8271 
G01 X-73.4191 Y26.2053 
G00 Z2.0000  F3000
G00 X-73.3055 Y26.1323  F3000
G01 Z-0.2000 F200.00 
G01 X-73.2337 Y25.9590 F500.00 
G01 X-73.1295 Y25.8031 
G01 X-72.9969 Y25.6705 
G01 X-72.8410 Y25.5663 
G01 X-72.6677 Y25.4945 
G01 X-72.4838 Y25.4579 
G01 X-72.0162 Y25.4579 
G01 X-71.8323 Y25.4945 
G01 X-71.6590 Y25.5663 
G01 X-71.5031 Y25.6705 
G01 X-71.3774 Y25.7961 
G01 X-71.2873 Y25.7961 
G01 X-71.2455 Y25.8134 
G01 X-71.2134 Y25.8455 
G01 X-71.1961 Y25.8873 
G01 X-71.1961 Y26.1284 
G01 X-71.1945 Y26.1323 
G01 X-71.1579 Y26.3162 
G01 X-71.1579 Y26.5038 
G01 X-71.1945 Y26.6877 
G01 X-71.1961 Y26.6916 
G01 X-71.1961 Y26.9327 
G01 X-71.2134 Y26.9745 
G01 X-71.2455 Y27.0066 
G01 X-71.2873 Y27.0239 
G01 X-71.3774 Y27.0239 
G01 X-71.4379 Y27.0844 
G01 X-71.4379 Y34.6079 
G01 X-69.5321 Y34.6079 
G01 X-69.5321 Y32.9262 
G01 X-69.4955 Y32.7423 
G01 X-69.4439 Y32.6177 
G01 X-69.4439 Y32.0273 
G01 X-69.4266 Y31.9855 
G01 X-69.3945 Y31.9534 
G01 X-69.3527 Y31.9361 
G01 X-67.8073 Y31.9361 
G01 X-67.7655 Y31.9534 
G01 X-67.7334 Y31.9855 
G01 X-67.7161 Y32.0273 
G01 X-67.7161 Y32.6177 
G01 X-67.6645 Y32.7423 
G01 X-67.6279 Y32.9262 
G01 X-67.6279 Y35.6538 
G01 X-67.6645 Y35.8377 
G01 X-67.7363 Y36.0110 
G01 X-67.8405 Y36.1669 
G01 X-67.9731 Y36.2995 
G01 X-68.1290 Y36.4037 
G01 X-68.3023 Y36.4755 
G01 X-68.4862 Y36.5121 
G01 X-80.1038 Y36.5121 
G01 X-80.2877 Y36.4755 
G01 X-80.4610 Y36.4037 
G01 X-80.6169 Y36.2995 
G01 X-80.7495 Y36.1669 
G01 X-80.8537 Y36.0110 
G01 X-80.9255 Y35.8377 
G01 X-80.9621 Y35.6538 
G01 X-80.9621 Y35.4662 
G01 X-80.9255 Y35.2823 
G01 X-80.8537 Y35.1090 
G01 X-80.7495 Y34.9531 
G01 X-80.6169 Y34.8205 
G01 X-80.4610 Y34.7163 
G01 X-80.2877 Y34.6445 
G01 X-80.1038 Y34.6079 
G01 X-73.3421 Y34.6079 
G01 X-73.3421 Y26.3162 
G01 X-73.3055 Y26.1323 
G00 Z2.0000  F3000
G00 X-75.7569 Y28.5545  F3000
G01 Z-0.2000 F200.00 
G01 X-75.6443 Y28.7229 F500.00 
G01 X-75.5668 Y28.9101 
G01 X-75.5273 Y29.1087 
G01 X-75.5273 Y29.3113 
G01 X-75.5668 Y29.5099 
G01 X-75.6443 Y29.6971 
G01 X-75.7569 Y29.8655 
G01 X-75.9001 Y30.0087 
G01 X-76.0685 Y30.1213 
G01 X-76.2557 Y30.1988 
G01 X-76.4543 Y30.2383 
G01 X-78.4857 Y30.2383 
G01 X-78.6843 Y30.1988 
G01 X-78.8715 Y30.1213 
G01 X-79.0399 Y30.0087 
G01 X-79.1831 Y29.8655 
G01 X-79.2957 Y29.6971 
G01 X-79.3732 Y29.5099 
G01 X-79.4127 Y29.3113 
G01 X-79.4127 Y29.1087 
G01 X-79.3732 Y28.9101 
G01 X-79.2957 Y28.7229 
G01 X-79.1831 Y28.5545 
G01 X-79.0399 Y28.4113 
G01 X-78.8715 Y28.2987 
G01 X-78.6843 Y28.2212 
G01 X-78.4857 Y28.1817 
G01 X-76.4543 Y28.1817 
G01 X-76.2557 Y28.2212 
G01 X-76.0685 Y28.2987 
G01 X-75.9001 Y28.4113 
G01 X-75.7569 Y28.5545 
G00 Z2.0000  F3000
G00 X-75.7569 Y31.0945  F3000
G01 Z-0.2000 F200.00 
G01 X-75.6443 Y31.2629 F500.00 
G01 X-75.5668 Y31.4501 
G01 X-75.5273 Y31.6487 
G01 X-75.5273 Y31.8513 
G01 X-75.5668 Y32.0499 
G01 X-75.6443 Y32.2371 
G01 X-75.7569 Y32.4055 
G01 X-75.9001 Y32.5487 
G01 X-76.0685 Y32.6613 
G01 X-76.2557 Y32.7388 
G01 X-76.4543 Y32.7783 
G01 X-78.4857 Y32.7783 
G01 X-78.6843 Y32.7388 
G01 X-78.8715 Y32.6613 
G01 X-79.0399 Y32.5487 
G01 X-79.1831 Y32.4055 
G01 X-79.2957 Y32.2371 
G01 X-79.3732 Y32.0499 
G01 X-79.4127 Y31.8513 
G01 X-79.4127 Y31.6487 
G01 X-79.3732 Y31.4501 
G01 X-79.2957 Y31.2629 
G01 X-79.1831 Y31.0945 
G01 X-79.0399 Y30.9513 
G01 X-78.8715 Y30.8387 
G01 X-78.6843 Y30.7612 
G01 X-78.4857 Y30.7217 
G01 X-76.4543 Y30.7217 
G01 X-76.2557 Y30.7612 
G01 X-76.0685 Y30.8387 
G01 X-75.9001 Y30.9513 
G01 X-75.7569 Y31.0945 
G00 Z2.0000  F3000
G00 X-69.4701 Y30.3611  F3000
G01 Z-0.2000 F200.00 
G01 X-69.4439 Y30.3611 F500.00 
G01 X-69.4439 Y30.1273 
G01 X-69.4266 Y30.0855 
G01 X-69.3945 Y30.0534 
G01 X-69.3527 Y30.0361 
G01 X-69.0189 Y30.0361 
G01 X-69.0189 Y30.0099 
G01 X-69.3484 Y30.0099 
G01 X-69.3841 Y30.0194 
G01 X-69.4160 Y30.0379 
G01 X-69.4421 Y30.0640 
G01 X-69.4606 Y30.0959 
G01 X-69.4701 Y30.1315 
G01 X-69.4701 Y30.3611 
G00 Z2.0000  F3000
G00 X-68.1411 Y30.0361  F3000
G01 Z-0.2000 F200.00 
G01 X-67.8073 Y30.0361 F500.00 
G01 X-67.7655 Y30.0534 
G01 X-67.7334 Y30.0855 
G01 X-67.7161 Y30.1273 
G01 X-67.7161 Y30.3611 
G01 X-67.6899 Y30.3611 
G01 X-67.6899 Y30.1315 
G01 X-67.6994 Y30.0959 
G01 X-67.7179 Y30.0640 
G01 X-67.7440 Y30.0379 
G01 X-67.7759 Y30.0194 
G01 X-67.8115 Y30.0099 
G01 X-68.1411 Y30.0099 
G01 X-68.1411 Y30.0361 
G00 Z2.0000  F3000
G00 X-67.9960 Y26.9421  F3000
G01 Z-0.2000 F200.00 
G01 X-67.9641 Y26.9606 F500.00 
G01 X-67.9284 Y26.9701 
G01 X-65.3303 Y26.9701 
G01 X-65.3303 Y26.9439 
G01 X-67.9327 Y26.9439 
G01 X-67.9745 Y26.9266 
G01 X-68.0066 Y26.8945 
G01 X-68.0239 Y26.8527 
G01 X-68.0239 Y24.6503 
G01 X-68.0501 Y24.6503 
G01 X-68.0501 Y26.8484 
G01 X-68.0406 Y26.8841 
G01 X-68.0221 Y26.9160 
G01 X-67.9960 Y26.9421 
G00 Z2.0000  F3000
G00 X-88.8203 Y27.2519  F3000
G01 Z-0.2000 F200.00 
G01 X-88.9352 Y27.1684 F500.00 
G01 X-89.0617 Y27.1040 
G01 X-89.1967 Y27.0601 
G01 X-89.3370 Y27.0379 
G01 X-89.8021 Y27.0379 
G01 X-89.8021 Y27.0641 
G01 X-89.3217 Y27.0641 
G01 X-89.1525 Y27.0978 
G01 X-88.9931 Y27.1638 
G01 X-88.8496 Y27.2596 
G01 X-88.7276 Y27.3816 
G01 X-88.6318 Y27.5251 
G01 X-88.6123 Y27.5721 
G01 X-88.5830 Y27.5721 
G01 X-88.6364 Y27.4672 
G01 X-88.7199 Y27.3523 
G01 X-88.8203 Y27.2519 
G00 Z2.0000  F3000
G00 X-90.5379 Y27.0641  F3000
G01 Z-0.2000 F200.00 
G01 X-90.5379 Y27.0379 F500.00 
G01 X-91.0030 Y27.0379 
G01 X-91.1433 Y27.0601 
G01 X-91.2783 Y27.1040 
G01 X-91.4048 Y27.1684 
G01 X-91.5197 Y27.2519 
G01 X-91.6201 Y27.3523 
G01 X-91.7035 Y27.4672 
G01 X-91.7570 Y27.5721 
G01 X-91.7277 Y27.5721 
G01 X-91.7082 Y27.5251 
G01 X-91.6124 Y27.3816 
G01 X-91.4904 Y27.2596 
G01 X-91.3469 Y27.1638 
G01 X-91.1875 Y27.0978 
G01 X-91.0183 Y27.0641 
G01 X-90.5379 Y27.0641 
G00 Z2.0000  F3000
G00 X-85.1697 Y17.1981  F3000
G01 Z-0.2000 F200.00 
G01 X-85.0548 Y17.2815 F500.00 
G01 X-84.9283 Y17.3460 
G01 X-84.7933 Y17.3899 
G01 X-84.6530 Y17.4121 
G01 X-84.3026 Y17.4121 
G01 X-84.2818 Y17.4094 
G01 X-84.2637 Y17.4118 
G01 X-84.2951 Y17.3988 
G01 X-84.3143 Y17.3859 
G01 X-84.6683 Y17.3859 
G01 X-84.8375 Y17.3522 
G01 X-84.9969 Y17.2862 
G01 X-85.1404 Y17.1904 
G01 X-85.2624 Y17.0684 
G01 X-85.3582 Y16.9249 
G01 X-85.3777 Y16.8779 
G01 X-85.4070 Y16.8779 
G01 X-85.3535 Y16.9828 
G01 X-85.2701 Y17.0977 
G01 X-85.1697 Y17.1981 
G00 Z2.0000  F3000
G00 X-85.3777 Y16.1421  F3000
G01 Z-0.2000 F200.00 
G01 X-85.3582 Y16.0951 F500.00 
G01 X-85.2624 Y15.9516 
G01 X-85.1404 Y15.8296 
G01 X-84.9969 Y15.7338 
G01 X-84.8375 Y15.6678 
G01 X-84.6683 Y15.6341 
G01 X-84.3143 Y15.6341 
G01 X-84.2951 Y15.6212 
G01 X-84.2628 Y15.6079 
G01 X-84.6530 Y15.6079 
G01 X-84.7933 Y15.6301 
G01 X-84.9283 Y15.6740 
G01 X-85.0548 Y15.7385 
G01 X-85.1697 Y15.8219 
G01 X-85.2701 Y15.9223 
G01 X-85.3535 Y16.0372 
G01 X-85.4070 Y16.1421 
G01 X-85.3777 Y16.1421 
G00 Z2.0000  F3000
G00 X-4.7436 Y3.7181  F3000
G01 Z-0.2000 F200.00 
G01 X-4.5761 Y3.9364 F500.00 
G01 X-4.4385 Y4.1747 
G01 X-4.3332 Y4.4289 
G01 X-4.2620 Y4.6946 
G01 X-4.2261 Y4.9674 
G01 X-4.2261 Y9.0065 
G01 X-4.2620 Y9.2793 
G01 X-4.3332 Y9.5450 
G01 X-4.4385 Y9.7992 
G01 X-4.5761 Y10.0375 
G01 X-4.7436 Y10.2558 
G01 X-4.9381 Y10.4503 
G01 X-5.1564 Y10.6178 
G01 X-5.3947 Y10.7554 
G01 X-5.6489 Y10.8607 
G01 X-5.9146 Y10.9319 
G01 X-6.1874 Y10.9678 
G01 X-6.4626 Y10.9678 
G01 X-6.7354 Y10.9319 
G01 X-7.0011 Y10.8607 
G01 X-7.2553 Y10.7554 
G01 X-7.4936 Y10.6178 
G01 X-7.7119 Y10.4503 
G01 X-7.9064 Y10.2558 
G01 X-8.0739 Y10.0375 
G01 X-8.2115 Y9.7992 
G01 X-8.3168 Y9.5450 
G01 X-8.3880 Y9.2793 
G01 X-8.4239 Y9.0065 
G01 X-8.4239 Y5.9744 
G01 X-8.4894 Y5.9089 
G01 X-20.7611 Y5.9089 
G01 X-20.7611 Y8.9476 
G01 X-20.7970 Y9.2204 
G01 X-20.8682 Y9.4861 
G01 X-20.9735 Y9.7403 
G01 X-21.1111 Y9.9786 
G01 X-21.2786 Y10.1969 
G01 X-21.5531 Y10.4714 
G01 X-21.7714 Y10.6389 
G01 X-22.0097 Y10.7765 
G01 X-22.2639 Y10.8818 
G01 X-22.5296 Y10.9530 
G01 X-22.8024 Y10.9889 
G01 X-23.0776 Y10.9889 
G01 X-23.3504 Y10.9530 
G01 X-23.6161 Y10.8818 
G01 X-23.8703 Y10.7765 
G01 X-24.1086 Y10.6389 
G01 X-24.3269 Y10.4714 
G01 X-24.5214 Y10.2769 
G01 X-24.6889 Y10.0586 
G01 X-24.8265 Y9.8203 
G01 X-24.9318 Y9.5661 
G01 X-25.0030 Y9.3004 
G01 X-25.0389 Y9.0276 
G01 X-25.0389 Y8.7524 
G01 X-25.0030 Y8.4796 
G01 X-24.9589 Y8.3151 
G01 X-24.9589 Y3.6724 
G01 X-24.9230 Y3.3996 
G01 X-24.8518 Y3.1339 
G01 X-24.7465 Y2.8797 
G01 X-24.6089 Y2.6414 
G01 X-24.4414 Y2.4231 
G01 X-24.2469 Y2.2286 
G01 X-24.0286 Y2.0611 
G01 X-23.7903 Y1.9235 
G01 X-23.5361 Y1.8182 
G01 X-23.2704 Y1.7470 
G01 X-22.9976 Y1.7111 
G01 X-7.4824 Y1.7111 
G01 X-7.2096 Y1.7470 
G01 X-6.9439 Y1.8182 
G01 X-6.6897 Y1.9235 
G01 X-6.4514 Y2.0611 
G01 X-6.2331 Y2.2286 
G01 X-4.7436 Y3.7181 
G00 Z2.0000  F3000
G00 X-5.3713 Y12.8323  F3000
G01 Z-0.2000 F200.00 
G01 X-1.4234 Y16.7802 F500.00 
G01 X-1.2880 Y16.9666 
G01 X-1.1833 Y17.1720 
G01 X-1.1121 Y17.3911 
G01 X-1.0761 Y17.6187 
G01 X-1.0761 Y30.5952 
G01 X-1.1121 Y30.8228 
G01 X-1.1833 Y31.0419 
G01 X-1.2880 Y31.2473 
G01 X-1.4234 Y31.4337 
G01 X-1.5863 Y31.5966 
G01 X-1.7727 Y31.7320 
G01 X-1.9781 Y31.8366 
G01 X-2.1972 Y31.9078 
G01 X-2.4248 Y31.9439 
G01 X-2.6552 Y31.9439 
G01 X-2.7884 Y31.9228 
G01 X-6.4402 Y31.9228 
G01 X-6.6678 Y31.8867 
G01 X-6.8869 Y31.8155 
G01 X-7.0922 Y31.7109 
G01 X-7.2787 Y31.5755 
G01 X-7.4416 Y31.4126 
G01 X-7.5770 Y31.2262 
G01 X-7.6816 Y31.0208 
G01 X-7.7528 Y30.8017 
G01 X-7.7889 Y30.5741 
G01 X-7.7889 Y30.3437 
G01 X-7.7528 Y30.1161 
G01 X-7.6816 Y29.8970 
G01 X-7.5770 Y29.6916 
G01 X-7.4416 Y29.5052 
G01 X-7.2787 Y29.3423 
G01 X-7.0922 Y29.2069 
G01 X-6.8869 Y29.1023 
G01 X-6.6678 Y29.0310 
G01 X-6.4402 Y28.9950 
G01 X-4.0039 Y28.9950 
G01 X-4.0039 Y18.3403 
G01 X-7.3124 Y15.0318 
G01 X-7.7263 Y15.0318 
G01 X-7.8947 Y15.0051 
G01 X-8.0568 Y14.9525 
G01 X-8.2087 Y14.8751 
G01 X-8.3466 Y14.7749 
G01 X-13.5260 Y9.5955 
G01 X-13.6262 Y9.4576 
G01 X-13.7036 Y9.3057 
G01 X-13.7562 Y9.1436 
G01 X-13.7829 Y8.9752 
G01 X-13.7829 Y8.8048 
G01 X-13.7562 Y8.6364 
G01 X-13.7036 Y8.4743 
G01 X-13.6262 Y8.3224 
G01 X-13.5260 Y8.1845 
G01 X-13.4055 Y8.0640 
G01 X-13.2676 Y7.9638 
G01 X-13.1157 Y7.8864 
G01 X-12.9536 Y7.8338 
G01 X-12.7852 Y7.8071 
G01 X-12.6148 Y7.8071 
G01 X-12.4464 Y7.8338 
G01 X-12.2843 Y7.8864 
G01 X-12.1324 Y7.9638 
G01 X-11.9945 Y8.0640 
G01 X-7.2483 Y12.8102 
G01 X-7.0922 Y12.6969 
G01 X-6.8869 Y12.5922 
G01 X-6.6678 Y12.5210 
G01 X-6.4402 Y12.4850 
G01 X-6.2098 Y12.4850 
G01 X-5.9822 Y12.5210 
G01 X-5.7631 Y12.5922 
G01 X-5.5577 Y12.6969 
G01 X-5.3713 Y12.8323 
G00 Z2.0000  F3000
G00 X-6.0386 Y18.9331  F3000
G01 Z-0.2000 F200.00 
G01 X-5.8711 Y19.1514 F500.00 
G01 X-5.7335 Y19.3897 
G01 X-5.6282 Y19.6439 
G01 X-5.5570 Y19.9096 
G01 X-5.5211 Y20.1824 
G01 X-5.5211 Y23.2145 
G01 X-4.7436 Y23.9920 
G01 X-4.5761 Y24.2103 
G01 X-4.4385 Y24.4486 
G01 X-4.3332 Y24.7028 
G01 X-4.2620 Y24.9685 
G01 X-4.2261 Y25.2413 
G01 X-4.2261 Y25.5165 
G01 X-4.2620 Y25.7893 
G01 X-4.3332 Y26.0550 
G01 X-4.4385 Y26.3092 
G01 X-4.5761 Y26.5475 
G01 X-4.7436 Y26.7658 
G01 X-4.9381 Y26.9603 
G01 X-5.1564 Y27.1278 
G01 X-5.3947 Y27.2654 
G01 X-5.6489 Y27.3707 
G01 X-5.9146 Y27.4419 
G01 X-6.1874 Y27.4778 
G01 X-6.4626 Y27.4778 
G01 X-6.7354 Y27.4419 
G01 X-7.0011 Y27.3707 
G01 X-7.2553 Y27.2654 
G01 X-7.4936 Y27.1278 
G01 X-7.7119 Y26.9603 
G01 X-9.2014 Y25.4708 
G01 X-9.3689 Y25.2525 
G01 X-9.5065 Y25.0142 
G01 X-9.6118 Y24.7600 
G01 X-9.6830 Y24.4943 
G01 X-9.7189 Y24.2215 
G01 X-9.7189 Y21.1894 
G01 X-14.2814 Y16.6269 
G01 X-14.4489 Y16.4086 
G01 X-14.5865 Y16.1703 
G01 X-14.6918 Y15.9161 
G01 X-14.7630 Y15.6504 
G01 X-14.7989 Y15.3776 
G01 X-14.7989 Y15.2114 
G01 X-15.8464 Y14.1639 
G01 X-16.6252 Y14.1639 
G01 X-16.8528 Y14.1279 
G01 X-17.0719 Y14.0566 
G01 X-17.2772 Y13.9520 
G01 X-17.4637 Y13.8166 
G01 X-17.4998 Y13.7804 
G01 X-17.6526 Y13.7562 
G01 X-17.8147 Y13.7036 
G01 X-17.9666 Y13.6262 
G01 X-18.1045 Y13.5260 
G01 X-18.2250 Y13.4055 
G01 X-18.3252 Y13.2676 
G01 X-18.4026 Y13.1157 
G01 X-18.4552 Y12.9536 
G01 X-18.4819 Y12.7852 
G01 X-18.4819 Y12.6148 
G01 X-18.4552 Y12.4464 
G01 X-18.4026 Y12.2843 
G01 X-18.3252 Y12.1324 
G01 X-18.2250 Y11.9945 
G01 X-18.1045 Y11.8740 
G01 X-17.9666 Y11.7738 
G01 X-17.8147 Y11.6964 
G01 X-17.6526 Y11.6438 
G01 X-17.4998 Y11.6196 
G01 X-17.4637 Y11.5834 
G01 X-17.2772 Y11.4480 
G01 X-17.0719 Y11.3433 
G01 X-16.8528 Y11.2721 
G01 X-16.6252 Y11.2361 
G01 X-15.1248 Y11.2361 
G01 X-14.8972 Y11.2721 
G01 X-14.6781 Y11.3433 
G01 X-14.4727 Y11.4480 
G01 X-14.2863 Y11.5834 
G01 X-12.7286 Y13.1411 
G01 X-12.5624 Y13.1411 
G01 X-12.2896 Y13.1770 
G01 X-12.0239 Y13.2482 
G01 X-11.7697 Y13.3535 
G01 X-11.5314 Y13.4911 
G01 X-11.3131 Y13.6586 
G01 X-6.2331 Y18.7386 
G01 X-6.0386 Y18.9331 
G00 Z2.0000  F3000
G00 X-14.7611 Y18.9486  F3000
G01 Z-0.2000 F200.00 
G01 X-14.9286 Y19.1669 F500.00 
G01 X-15.1231 Y19.3614 
G01 X-15.3414 Y19.5289 
G01 X-15.5797 Y19.6665 
G01 X-15.8339 Y19.7718 
G01 X-16.0996 Y19.8430 
G01 X-16.3724 Y19.8789 
G01 X-25.5871 Y19.8789 
G01 X-25.5871 Y21.6752 
G01 X-25.6138 Y21.8436 
G01 X-25.6664 Y22.0057 
G01 X-25.7438 Y22.1576 
G01 X-25.8440 Y22.2955 
G01 X-25.9645 Y22.4160 
G01 X-26.1024 Y22.5162 
G01 X-26.2543 Y22.5936 
G01 X-26.4164 Y22.6462 
G01 X-26.5848 Y22.6729 
G01 X-26.7552 Y22.6729 
G01 X-26.9236 Y22.6462 
G01 X-27.0857 Y22.5936 
G01 X-27.2376 Y22.5162 
G01 X-27.3755 Y22.4160 
G01 X-27.4960 Y22.2955 
G01 X-27.5962 Y22.1576 
G01 X-27.6736 Y22.0057 
G01 X-27.7262 Y21.8436 
G01 X-27.7529 Y21.6752 
G01 X-27.7529 Y19.8789 
G01 X-29.3476 Y19.8789 
G01 X-29.6204 Y19.8430 
G01 X-29.8861 Y19.7718 
G01 X-30.1403 Y19.6665 
G01 X-30.3786 Y19.5289 
G01 X-30.5969 Y19.3614 
G01 X-38.9694 Y10.9889 
G01 X-45.7776 Y10.9889 
G01 X-46.0504 Y10.9530 
G01 X-46.3161 Y10.8818 
G01 X-46.5703 Y10.7765 
G01 X-46.8086 Y10.6389 
G01 X-47.0269 Y10.4714 
G01 X-47.2214 Y10.2769 
G01 X-47.3889 Y10.0586 
G01 X-47.5265 Y9.8203 
G01 X-47.6318 Y9.5661 
G01 X-47.7030 Y9.3004 
G01 X-47.7389 Y9.0276 
G01 X-47.7389 Y8.7524 
G01 X-47.7030 Y8.4796 
G01 X-47.6318 Y8.2139 
G01 X-47.5265 Y7.9597 
G01 X-47.3889 Y7.7214 
G01 X-47.2214 Y7.5031 
G01 X-47.0269 Y7.3086 
G01 X-46.8086 Y7.1411 
G01 X-46.5703 Y7.0035 
G01 X-46.3161 Y6.8982 
G01 X-46.0504 Y6.8270 
G01 X-45.7776 Y6.7911 
G01 X-37.9624 Y6.7911 
G01 X-37.6896 Y6.8270 
G01 X-37.4239 Y6.8982 
G01 X-37.1697 Y7.0035 
G01 X-36.9314 Y7.1411 
G01 X-36.7131 Y7.3086 
G01 X-28.3406 Y15.6811 
G01 X-26.8076 Y15.6811 
G01 X-16.3724 Y15.6811 
G01 X-16.0996 Y15.7170 
G01 X-15.8339 Y15.7882 
G01 X-15.5797 Y15.8935 
G01 X-15.3414 Y16.0311 
G01 X-15.1231 Y16.1986 
G01 X-14.9286 Y16.3931 
G01 X-14.7611 Y16.6114 
G01 X-14.6235 Y16.8497 
G01 X-14.5182 Y17.1039 
G01 X-14.4470 Y17.3696 
G01 X-14.4111 Y17.6424 
G01 X-14.4111 Y17.9176 
G01 X-14.4470 Y18.1904 
G01 X-14.5182 Y18.4561 
G01 X-14.6235 Y18.7103 
G01 X-14.7611 Y18.9486 
G00 Z2.0000  F3000
G00 X-18.2240 Y25.9645  F3000
G01 Z-0.2000 F200.00 
G01 X-18.1238 Y26.1024 F500.00 
G01 X-18.0464 Y26.2543 
G01 X-17.9938 Y26.4164 
G01 X-17.9671 Y26.5848 
G01 X-17.9671 Y26.8743 
G01 X-17.9074 Y26.8838 
G01 X-17.7453 Y26.9364 
G01 X-17.5934 Y27.0138 
G01 X-17.4555 Y27.1140 
G01 X-17.3350 Y27.2345 
G01 X-17.2348 Y27.3724 
G01 X-17.1574 Y27.5243 
G01 X-17.1048 Y27.6864 
G01 X-17.0781 Y27.8548 
G01 X-17.0781 Y28.0252 
G01 X-17.1048 Y28.1936 
G01 X-17.1574 Y28.3557 
G01 X-17.2348 Y28.5076 
G01 X-17.3350 Y28.6455 
G01 X-17.4555 Y28.7660 
G01 X-17.5934 Y28.8662 
G01 X-17.7453 Y28.9436 
G01 X-17.9074 Y28.9962 
G01 X-18.0758 Y29.0229 
G01 X-20.0242 Y29.0229 
G01 X-20.1926 Y28.9962 
G01 X-20.3547 Y28.9436 
G01 X-20.5066 Y28.8662 
G01 X-20.6445 Y28.7660 
G01 X-20.7650 Y28.6455 
G01 X-20.8652 Y28.5076 
G01 X-20.9426 Y28.3557 
G01 X-20.9952 Y28.1936 
G01 X-21.0219 Y28.0252 
G01 X-21.0219 Y27.8548 
G01 X-20.9952 Y27.6864 
G01 X-20.9426 Y27.5243 
G01 X-20.8652 Y27.3724 
G01 X-20.7650 Y27.2345 
G01 X-20.6445 Y27.1140 
G01 X-20.5066 Y27.0138 
G01 X-20.3547 Y26.9364 
G01 X-20.3247 Y26.9267 
G01 X-20.7686 Y26.4829 
G01 X-23.8825 Y26.4829 
G01 X-23.8122 Y26.5532 
G01 X-23.7600 Y26.6437 
G01 X-23.7329 Y26.7447 
G01 X-23.7329 Y29.1353 
G01 X-23.7600 Y29.2363 
G01 X-23.8122 Y29.3268 
G01 X-23.8825 Y29.3971 
G01 X-18.0758 Y29.3971 
G01 X-17.9074 Y29.4238 
G01 X-17.7453 Y29.4764 
G01 X-17.5934 Y29.5538 
G01 X-17.4555 Y29.6540 
G01 X-17.3350 Y29.7745 
G01 X-17.2348 Y29.9124 
G01 X-17.1574 Y30.0643 
G01 X-17.1048 Y30.2264 
G01 X-17.0781 Y30.3948 
G01 X-17.0781 Y30.5652 
G01 X-17.1048 Y30.7336 
G01 X-17.1574 Y30.8957 
G01 X-17.2348 Y31.0476 
G01 X-17.3350 Y31.1855 
G01 X-17.4555 Y31.3060 
G01 X-17.5934 Y31.4062 
G01 X-17.7453 Y31.4836 
G01 X-17.9074 Y31.5362 
G01 X-18.0758 Y31.5629 
G01 X-23.8825 Y31.5629 
G01 X-23.8122 Y31.6332 
G01 X-23.7600 Y31.7237 
G01 X-23.7329 Y31.8247 
G01 X-23.7329 Y33.2804 
G01 X-23.7143 Y33.2864 
G01 X-23.5624 Y33.3638 
G01 X-23.4245 Y33.4640 
G01 X-23.3040 Y33.5845 
G01 X-21.1414 Y35.7471 
G01 X-12.6148 Y35.7471 
G01 X-12.4464 Y35.7738 
G01 X-12.2843 Y35.8264 
G01 X-12.1324 Y35.9038 
G01 X-11.9945 Y36.0040 
G01 X-11.8740 Y36.1245 
G01 X-11.7738 Y36.2624 
G01 X-11.6964 Y36.4143 
G01 X-11.6438 Y36.5764 
G01 X-11.6171 Y36.7448 
G01 X-11.6171 Y36.9152 
G01 X-11.6438 Y37.0836 
G01 X-11.6964 Y37.2457 
G01 X-11.7738 Y37.3976 
G01 X-11.8740 Y37.5355 
G01 X-11.9945 Y37.6560 
G01 X-12.1324 Y37.7562 
G01 X-12.2843 Y37.8336 
G01 X-12.4464 Y37.8862 
G01 X-12.6148 Y37.9129 
G01 X-21.6752 Y37.9129 
G01 X-21.8436 Y37.8862 
G01 X-22.0057 Y37.8336 
G01 X-22.1576 Y37.7562 
G01 X-22.2955 Y37.6560 
G01 X-23.7329 Y36.2185 
G01 X-23.7329 Y40.7331 
G01 X-23.7600 Y40.8341 
G01 X-23.8122 Y40.9246 
G01 X-23.8862 Y40.9986 
G01 X-23.9767 Y41.0508 
G01 X-24.0777 Y41.0779 
G01 X-26.2908 Y41.0779 
G01 X-26.3168 Y41.0813 
G01 X-26.3428 Y41.0779 
G01 X-26.3691 Y41.0779 
G01 X-26.3944 Y41.0711 
G01 X-26.4204 Y41.0677 
