;(.../Electronics/Eagle/pcb-gcode/pcb-gcode.ulp)
;(Copyright 2005 - 2012 by John Johnson)
;(See readme.txt for licensing terms.)
;(This file generated from the board:)
;(.../WiFi/Electronics/wifiboard.brd)
;(Current profile is .../pcb-gcode/profiles/generic.pp  )
;(This file generated 03/06/2017 11:39)
;(Settings from pcb-machine.h)
;(spindle on time = 1000.0000)
;(  Tool Size)
;(0.1778 )
;(spindle speed = 30000.0000)
;(tool change at 0.0000 0.0000 5.0000 )
;(feed rate xy = F500.00 )
;(feed rate z  = F200.00 )
;(Z Axis Settings)
;(  High     Up        Down     Drill)
;(5.0000 	2.0000 	-0.2000 	-2.0000 )
;(Settings from pcb-defaults.h)
;(isolate min = 0.0250)
;(isolate max = 0.5000)
;(isolate step = 0.0800)
;(Generated bottom outlines, bottom drill, )
;(Unit of measure: mm)
;(Metric Mode)
G21
;(Absolute Coordinates)
G90
;S30000
G00 Z5.0000  F3000
G00 X0.0000 Y0.0000  F3000
;M03 S1
G04 P1000.000000
G00 Z2.0000  F3000
G00 X-4.8039 Y3.7710  F3000
G01 Z-0.2000 F200.00 
G01 X-4.6427 Y3.9809 F500.00 
G01 X-4.5104 Y4.2101 
G01 X-4.4091 Y4.4546 
G01 X-4.3406 Y4.7103 
G01 X-4.3061 Y4.9727 
G01 X-4.3061 Y9.0012 
G01 X-4.3406 Y9.2636 
G01 X-4.4091 Y9.5192 
G01 X-4.5104 Y9.7637 
G01 X-4.6427 Y9.9929 
G01 X-4.8039 Y10.2029 
G01 X-4.9910 Y10.3900 
G01 X-5.2009 Y10.5512 
G01 X-5.4301 Y10.6835 
G01 X-5.6746 Y10.7848 
G01 X-5.9303 Y10.8533 
G01 X-6.1927 Y10.8878 
G01 X-6.4573 Y10.8878 
G01 X-6.7197 Y10.8533 
G01 X-6.9753 Y10.7848 
G01 X-7.2199 Y10.6835 
G01 X-7.4490 Y10.5512 
G01 X-7.6590 Y10.3900 
G01 X-7.8461 Y10.2029 
G01 X-8.0073 Y9.9929 
G01 X-8.1396 Y9.7637 
G01 X-8.2409 Y9.5192 
G01 X-8.3094 Y9.2636 
G01 X-8.3439 Y9.0012 
G01 X-8.3439 Y5.9413 
G01 X-8.4563 Y5.8289 
G01 X-20.8411 Y5.8289 
G01 X-20.8411 Y8.9423 
G01 X-20.8756 Y9.2047 
G01 X-20.9441 Y9.4603 
G01 X-21.0454 Y9.7049 
G01 X-21.1777 Y9.9340 
G01 X-21.3389 Y10.1440 
G01 X-21.6060 Y10.4111 
G01 X-21.8160 Y10.5723 
G01 X-22.0451 Y10.7046 
G01 X-22.2897 Y10.8059 
G01 X-22.5453 Y10.8744 
G01 X-22.8077 Y10.9089 
G01 X-23.0723 Y10.9089 
G01 X-23.3347 Y10.8744 
G01 X-23.5903 Y10.8059 
G01 X-23.8348 Y10.7046 
G01 X-24.0640 Y10.5723 
G01 X-24.2740 Y10.4111 
G01 X-24.4611 Y10.2240 
G01 X-24.6223 Y10.0140 
G01 X-24.7546 Y9.7849 
G01 X-24.8559 Y9.5403 
G01 X-24.9244 Y9.2847 
G01 X-24.9589 Y9.0223 
G01 X-24.9589 Y8.7577 
G01 X-24.9244 Y8.4953 
G01 X-24.8789 Y8.3256 
G01 X-24.8789 Y3.6777 
G01 X-24.8444 Y3.4153 
G01 X-24.7759 Y3.1597 
G01 X-24.6746 Y2.9151 
G01 X-24.5423 Y2.6860 
G01 X-24.3811 Y2.4760 
G01 X-24.1940 Y2.2889 
G01 X-23.9840 Y2.1277 
G01 X-23.7549 Y1.9954 
G01 X-23.5103 Y1.8941 
G01 X-23.2547 Y1.8256 
G01 X-22.9923 Y1.7911 
G01 X-7.4877 Y1.7911 
G01 X-7.2253 Y1.8256 
G01 X-6.9696 Y1.8941 
G01 X-6.7251 Y1.9954 
G01 X-6.4959 Y2.1277 
G01 X-6.2860 Y2.2889 
G01 X-6.0989 Y2.4760 
G01 X-4.8039 Y3.7710 
G00 Z2.0000  F3000
G00 X-5.4234 Y12.8933  F3000
G01 Z-0.2000 F200.00 
G01 X-1.4844 Y16.8324 F500.00 
G01 X-1.3564 Y17.0086 
G01 X-1.2575 Y17.2027 
G01 X-1.1902 Y17.4098 
G01 X-1.1561 Y17.6250 
G01 X-1.1561 Y30.5889 
G01 X-1.1902 Y30.8041 
G01 X-1.2575 Y31.0112 
G01 X-1.3564 Y31.2053 
G01 X-1.4844 Y31.3815 
G01 X-1.6384 Y31.5356 
G01 X-1.8147 Y31.6636 
G01 X-2.0088 Y31.7625 
G01 X-2.2159 Y31.8298 
G01 X-2.4311 Y31.8639 
G01 X-2.6489 Y31.8639 
G01 X-2.7821 Y31.8428 
G01 X-6.4339 Y31.8428 
G01 X-6.6491 Y31.8087 
G01 X-6.8562 Y31.7414 
G01 X-7.0503 Y31.6425 
G01 X-7.2265 Y31.5145 
G01 X-7.3806 Y31.3604 
G01 X-7.5086 Y31.1842 
G01 X-7.6075 Y30.9901 
G01 X-7.6748 Y30.7830 
G01 X-7.7089 Y30.5678 
G01 X-7.7089 Y30.3500 
G01 X-7.6748 Y30.1348 
G01 X-7.6075 Y29.9277 
G01 X-7.5086 Y29.7336 
G01 X-7.3806 Y29.5573 
G01 X-7.2265 Y29.4033 
G01 X-7.0503 Y29.2753 
G01 X-6.8562 Y29.1764 
G01 X-6.6491 Y29.1091 
G01 X-6.4339 Y29.0750 
G01 X-3.9239 Y29.0750 
G01 X-3.9239 Y18.3071 
G01 X-7.2792 Y14.9518 
G01 X-7.7399 Y14.9518 
G01 X-7.9336 Y14.9133 
G01 X-8.1161 Y14.8377 
G01 X-8.2804 Y14.7279 
G01 X-13.4790 Y9.5293 
G01 X-13.5888 Y9.3651 
G01 X-13.6644 Y9.1825 
G01 X-13.7029 Y8.9888 
G01 X-13.7029 Y8.7912 
G01 X-13.6644 Y8.5975 
G01 X-13.5888 Y8.4149 
G01 X-13.4790 Y8.2507 
G01 X-13.3393 Y8.1110 
G01 X-13.1751 Y8.0012 
G01 X-12.9925 Y7.9256 
G01 X-12.7988 Y7.8871 
G01 X-12.6012 Y7.8871 
G01 X-12.4075 Y7.9256 
G01 X-12.2249 Y8.0012 
G01 X-12.0607 Y8.1110 
G01 X-7.2525 Y12.9192 
G01 X-7.2265 Y12.8933 
G01 X-7.0503 Y12.7653 
G01 X-6.8562 Y12.6664 
G01 X-6.6491 Y12.5991 
G01 X-6.4339 Y12.5650 
G01 X-6.2161 Y12.5650 
G01 X-6.0009 Y12.5991 
G01 X-5.7938 Y12.6664 
G01 X-5.5997 Y12.7653 
G01 X-5.4234 Y12.8933 
G00 Z2.0000  F3000
G00 X-6.0989 Y18.9860  F3000
G01 Z-0.2000 F200.00 
G01 X-5.9377 Y19.1959 F500.00 
G01 X-5.8054 Y19.4251 
G01 X-5.7041 Y19.6697 
G01 X-5.6356 Y19.9253 
G01 X-5.6011 Y20.1877 
G01 X-5.6011 Y20.4523 
G01 X-5.6011 Y23.2476 
G01 X-4.8039 Y24.0449 
G01 X-4.6427 Y24.2549 
G01 X-4.5104 Y24.4840 
G01 X-4.4091 Y24.7285 
G01 X-4.3406 Y24.9842 
G01 X-4.3061 Y25.2466 
G01 X-4.3061 Y25.5112 
G01 X-4.3406 Y25.7736 
G01 X-4.4091 Y26.0292 
G01 X-4.5104 Y26.2737 
G01 X-4.6427 Y26.5029 
G01 X-4.8039 Y26.7129 
G01 X-4.9910 Y26.9000 
G01 X-5.2009 Y27.0612 
G01 X-5.4301 Y27.1935 
G01 X-5.6746 Y27.2948 
G01 X-5.9303 Y27.3633 
G01 X-6.1927 Y27.3978 
G01 X-6.4573 Y27.3978 
G01 X-6.7197 Y27.3633 
G01 X-6.9753 Y27.2948 
G01 X-7.2199 Y27.1935 
G01 X-7.4490 Y27.0612 
G01 X-7.6590 Y26.9000 
G01 X-9.1411 Y25.4179 
G01 X-9.3023 Y25.2079 
G01 X-9.4346 Y24.9788 
G01 X-9.5359 Y24.7342 
G01 X-9.6044 Y24.4786 
G01 X-9.6389 Y24.2162 
G01 X-9.6389 Y21.1563 
G01 X-14.2211 Y16.5740 
G01 X-14.3823 Y16.3640 
G01 X-14.5146 Y16.1349 
G01 X-14.6159 Y15.8903 
G01 X-14.6844 Y15.6347 
G01 X-14.7189 Y15.3723 
G01 X-14.7189 Y15.1782 
G01 X-15.8132 Y14.0839 
G01 X-16.6189 Y14.0839 
G01 X-16.8341 Y14.0498 
G01 X-17.0412 Y13.9825 
G01 X-17.2353 Y13.8836 
G01 X-17.4115 Y13.7556 
G01 X-17.4642 Y13.7029 
G01 X-17.4978 Y13.7029 
G01 X-17.6915 Y13.6644 
G01 X-17.8741 Y13.5888 
G01 X-18.0383 Y13.4790 
G01 X-18.1780 Y13.3393 
G01 X-18.2878 Y13.1751 
G01 X-18.3634 Y12.9925 
G01 X-18.4019 Y12.7988 
G01 X-18.4019 Y12.6012 
G01 X-18.3634 Y12.4075 
G01 X-18.2878 Y12.2249 
G01 X-18.1780 Y12.0607 
G01 X-18.0383 Y11.9210 
G01 X-17.8741 Y11.8112 
G01 X-17.6915 Y11.7356 
G01 X-17.4978 Y11.6971 
G01 X-17.4642 Y11.6971 
G01 X-17.4115 Y11.6444 
G01 X-17.2353 Y11.5164 
G01 X-17.0412 Y11.4175 
G01 X-16.8341 Y11.3502 
G01 X-16.6189 Y11.3161 
G01 X-15.1311 Y11.3161 
G01 X-14.9159 Y11.3502 
G01 X-14.7088 Y11.4175 
G01 X-14.5147 Y11.5164 
G01 X-14.3384 Y11.6444 
G01 X-12.7618 Y13.2211 
G01 X-12.5677 Y13.2211 
G01 X-12.3053 Y13.2556 
G01 X-12.0496 Y13.3241 
G01 X-11.8051 Y13.4254 
G01 X-11.5760 Y13.5577 
G01 X-11.3660 Y13.7189 
G01 X-6.0989 Y18.9860 
G00 Z2.0000  F3000
G00 X-14.8277 Y18.9040  F3000
G01 Z-0.2000 F200.00 
G01 X-14.9889 Y19.1140 F500.00 
G01 X-15.1760 Y19.3011 
G01 X-15.3859 Y19.4623 
G01 X-15.6151 Y19.5946 
G01 X-15.8597 Y19.6959 
G01 X-16.1153 Y19.7644 
G01 X-16.3777 Y19.7989 
G01 X-25.6671 Y19.7989 
G01 X-25.6671 Y21.6888 
G01 X-25.7056 Y21.8825 
G01 X-25.7812 Y22.0650 
G01 X-25.8910 Y22.2293 
G01 X-26.0307 Y22.3690 
G01 X-26.1949 Y22.4788 
G01 X-26.3775 Y22.5544 
G01 X-26.5712 Y22.5929 
G01 X-26.7688 Y22.5929 
G01 X-26.9625 Y22.5544 
G01 X-27.1451 Y22.4788 
G01 X-27.3093 Y22.3690 
G01 X-27.4490 Y22.2293 
G01 X-27.5588 Y22.0650 
G01 X-27.6344 Y21.8825 
G01 X-27.6729 Y21.6888 
G01 X-27.6729 Y19.7989 
G01 X-29.3423 Y19.7989 
G01 X-29.6047 Y19.7644 
G01 X-29.8603 Y19.6959 
G01 X-30.1048 Y19.5946 
G01 X-30.3340 Y19.4623 
G01 X-30.5440 Y19.3011 
G01 X-38.9363 Y10.9089 
G01 X-45.7723 Y10.9089 
G01 X-46.0347 Y10.8744 
G01 X-46.2903 Y10.8059 
G01 X-46.5348 Y10.7046 
G01 X-46.7640 Y10.5723 
G01 X-46.9740 Y10.4111 
G01 X-47.1611 Y10.2240 
G01 X-47.3223 Y10.0140 
G01 X-47.4546 Y9.7849 
G01 X-47.5559 Y9.5403 
G01 X-47.6244 Y9.2847 
G01 X-47.6589 Y9.0223 
G01 X-47.6589 Y8.7577 
G01 X-47.6244 Y8.4953 
G01 X-47.5559 Y8.2396 
G01 X-47.4546 Y7.9951 
G01 X-47.3223 Y7.7660 
G01 X-47.1611 Y7.5560 
G01 X-46.9740 Y7.3689 
G01 X-46.7640 Y7.2077 
G01 X-46.5348 Y7.0754 
G01 X-46.2903 Y6.9741 
G01 X-46.0347 Y6.9056 
G01 X-45.7723 Y6.8711 
G01 X-37.9677 Y6.8711 
G01 X-37.7053 Y6.9056 
G01 X-37.4496 Y6.9741 
G01 X-37.2051 Y7.0754 
G01 X-36.9759 Y7.2077 
G01 X-36.7660 Y7.3689 
G01 X-28.3737 Y15.7611 
G01 X-26.8023 Y15.7611 
G01 X-16.3777 Y15.7611 
G01 X-16.1153 Y15.7956 
G01 X-15.8597 Y15.8641 
G01 X-15.6151 Y15.9654 
G01 X-15.3859 Y16.0977 
G01 X-15.1760 Y16.2589 
G01 X-14.9889 Y16.4460 
G01 X-14.8277 Y16.6560 
G01 X-14.6954 Y16.8851 
G01 X-14.5941 Y17.1297 
G01 X-14.5256 Y17.3853 
G01 X-14.4911 Y17.6477 
G01 X-14.4911 Y17.9123 
G01 X-14.5256 Y18.1747 
G01 X-14.5941 Y18.4303 
G01 X-14.6954 Y18.6748 
G01 X-14.8277 Y18.9040 
G00 Z2.0000  F3000
G00 X-18.2710 Y26.0307  F3000
G01 Z-0.2000 F200.00 
G01 X-18.1612 Y26.1949 F500.00 
G01 X-18.0856 Y26.3775 
G01 X-18.0471 Y26.5712 
G01 X-18.0471 Y26.9401 
G01 X-17.8685 Y26.9756 
G01 X-17.6859 Y27.0512 
G01 X-17.5217 Y27.1610 
G01 X-17.3820 Y27.3007 
G01 X-17.2722 Y27.4649 
G01 X-17.1966 Y27.6475 
G01 X-17.1581 Y27.8412 
G01 X-17.1581 Y28.0388 
G01 X-17.1966 Y28.2325 
G01 X-17.2722 Y28.4151 
G01 X-17.3820 Y28.5793 
G01 X-17.5217 Y28.7190 
G01 X-17.6859 Y28.8288 
G01 X-17.8685 Y28.9044 
G01 X-18.0622 Y28.9429 
G01 X-20.0378 Y28.9429 
G01 X-20.2315 Y28.9044 
G01 X-20.4140 Y28.8288 
G01 X-20.5783 Y28.7190 
G01 X-20.7180 Y28.5793 
G01 X-20.8278 Y28.4151 
G01 X-20.9034 Y28.2325 
G01 X-20.9419 Y28.0388 
G01 X-20.9419 Y27.8412 
G01 X-20.9034 Y27.6475 
G01 X-20.8278 Y27.4649 
G01 X-20.7180 Y27.3007 
G01 X-20.5783 Y27.1610 
G01 X-20.4140 Y27.0512 
G01 X-20.2315 Y26.9756 
G01 X-20.1741 Y26.9642 
G01 X-20.7354 Y26.4029 
G01 X-29.3088 Y26.4029 
G01 X-29.5025 Y26.3644 
G01 X-29.6851 Y26.2888 
G01 X-29.8493 Y26.1790 
G01 X-39.7854 Y16.2429 
G01 X-46.9470 Y16.2429 
G01 X-47.0026 Y16.2477 
G01 X-47.0456 Y16.2429 
G01 X-47.0888 Y16.2429 
G01 X-47.1435 Y16.2320 
G01 X-47.1989 Y16.2259 
G01 X-47.2401 Y16.2128 
G01 X-47.2825 Y16.2044 
G01 X-47.3341 Y16.1830 
G01 X-47.3872 Y16.1662 
G01 X-47.4251 Y16.1453 
G01 X-47.4650 Y16.1288 
G01 X-47.5114 Y16.0978 
G01 X-47.5603 Y16.0709 
G01 X-47.5934 Y16.0430 
G01 X-47.6293 Y16.0190 
G01 X-47.6687 Y15.9796 
G01 X-47.7114 Y15.9436 
G01 X-47.7384 Y15.9099 
G01 X-47.7690 Y15.8793 
G01 X-47.8000 Y15.8329 
G01 X-52.5520 Y9.8929 
G01 X-70.7682 Y9.8929 
G01 X-75.5562 Y13.7233 
G01 X-75.5273 Y13.8687 
G01 X-75.5273 Y14.0713 
G01 X-75.5668 Y14.2699 
G01 X-75.6443 Y14.4571 
G01 X-75.7569 Y14.6255 
G01 X-75.9001 Y14.7687 
G01 X-76.0685 Y14.8813 
G01 X-76.2557 Y14.9588 
G01 X-76.4543 Y14.9983 
G01 X-78.4857 Y14.9983 
G01 X-78.6843 Y14.9588 
G01 X-78.8715 Y14.8813 
G01 X-79.0399 Y14.7687 
G01 X-79.1831 Y14.6255 
G01 X-79.2957 Y14.4571 
G01 X-79.3732 Y14.2699 
G01 X-79.4127 Y14.0713 
G01 X-79.4127 Y13.8687 
G01 X-79.3732 Y13.6701 
G01 X-79.2957 Y13.4829 
G01 X-79.2574 Y13.4257 
G01 X-85.5513 Y6.0829 
G01 X-96.7871 Y6.0829 
G01 X-96.7871 Y7.8871 
G01 X-96.1012 Y7.8871 
G01 X-95.9075 Y7.9256 
G01 X-95.7249 Y8.0012 
G01 X-95.6877 Y8.0261 
G01 X-95.5273 Y8.0261 
G01 X-95.4855 Y8.0434 
G01 X-95.4534 Y8.0755 
G01 X-95.4361 Y8.1173 
G01 X-95.4361 Y8.2356 
G01 X-95.4210 Y8.2507 
G01 X-95.3112 Y8.4149 
G01 X-95.2356 Y8.5975 
G01 X-95.1971 Y8.7912 
G01 X-95.1971 Y8.9888 
G01 X-95.2356 Y9.1825 
G01 X-95.3112 Y9.3651 
G01 X-95.4210 Y9.5293 
G01 X-95.4361 Y9.5444 
G01 X-95.4361 Y9.6627 
G01 X-95.4534 Y9.7045 
G01 X-95.4855 Y9.7366 
G01 X-95.5273 Y9.7539 
G01 X-95.6877 Y9.7539 
G01 X-95.7249 Y9.7788 
G01 X-95.9075 Y9.8544 
G01 X-96.1012 Y9.8929 
G01 X-96.7871 Y9.8929 
G01 X-96.7871 Y12.2846 
G01 X-95.7410 Y13.3307 
G01 X-95.6312 Y13.4949 
G01 X-95.5556 Y13.6775 
G01 X-95.5171 Y13.8712 
G01 X-95.5171 Y14.0688 
G01 X-95.5556 Y14.2625 
G01 X-95.6312 Y14.4451 
G01 X-95.7410 Y14.6093 
G01 X-95.8807 Y14.7490 
G01 X-96.0449 Y14.8588 
G01 X-96.2275 Y14.9344 
G01 X-96.4212 Y14.9729 
G01 X-96.6188 Y14.9729 
G01 X-96.8125 Y14.9344 
G01 X-96.9951 Y14.8588 
G01 X-97.1593 Y14.7490 
G01 X-98.4293 Y13.4790 
G01 X-98.5690 Y13.3393 
G01 X-98.6788 Y13.1751 
G01 X-98.7544 Y12.9925 
G01 X-98.7929 Y12.7988 
G01 X-98.7929 Y4.9812 
G01 X-98.7544 Y4.7875 
G01 X-98.6788 Y4.6049 
G01 X-98.5690 Y4.4407 
G01 X-98.4293 Y4.3010 
G01 X-98.2651 Y4.1912 
G01 X-98.0825 Y4.1156 
G01 X-97.8888 Y4.0771 
G01 X-85.1500 Y4.0771 
G01 X-85.1116 Y4.0725 
G01 X-85.0515 Y4.0771 
G01 X-84.9912 Y4.0771 
G01 X-84.9532 Y4.0847 
G01 X-84.9146 Y4.0876 
G01 X-84.8566 Y4.1039 
G01 X-84.7975 Y4.1156 
G01 X-84.7617 Y4.1305 
G01 X-84.7244 Y4.1409 
G01 X-84.6706 Y4.1682 
G01 X-84.6149 Y4.1912 
G01 X-84.5827 Y4.2128 
G01 X-84.5482 Y4.2303 
G01 X-84.5008 Y4.2675 
G01 X-84.4507 Y4.3010 
G01 X-84.4233 Y4.3284 
G01 X-84.3928 Y4.3523 
G01 X-84.3536 Y4.3981 
G01 X-84.3110 Y4.4407 
G01 X-84.2895 Y4.4729 
G01 X-77.3395 Y12.5812 
G01 X-71.7899 Y8.1416 
G01 X-71.7593 Y8.1110 
G01 X-71.7129 Y8.0800 
G01 X-71.6694 Y8.0452 
G01 X-71.6310 Y8.0253 
G01 X-71.5951 Y8.0012 
G01 X-71.5435 Y7.9799 
G01 X-71.4940 Y7.9542 
G01 X-71.4525 Y7.9422 
G01 X-71.4125 Y7.9256 
G01 X-71.3578 Y7.9148 
G01 X-71.3042 Y7.8992 
G01 X-71.2612 Y7.8955 
G01 X-71.2188 Y7.8871 
G01 X-71.1630 Y7.8871 
G01 X-71.1074 Y7.8823 
G01 X-71.0644 Y7.8871 
G01 X-52.1130 Y7.8871 
G01 X-52.0574 Y7.8823 
G01 X-52.0144 Y7.8871 
G01 X-51.9712 Y7.8871 
G01 X-51.9165 Y7.8980 
G01 X-51.8611 Y7.9041 
G01 X-51.8199 Y7.9172 
G01 X-51.7775 Y7.9256 
G01 X-51.7259 Y7.9470 
G01 X-51.6728 Y7.9638 
G01 X-51.6349 Y7.9847 
G01 X-51.5949 Y8.0012 
G01 X-51.5486 Y8.0322 
G01 X-51.4997 Y8.0591 
G01 X-51.4666 Y8.0870 
G01 X-51.4307 Y8.1110 
G01 X-51.3913 Y8.1504 
G01 X-51.3486 Y8.1864 
G01 X-51.3216 Y8.2201 
G01 X-51.2910 Y8.2507 
G01 X-51.2600 Y8.2971 
G01 X-46.5080 Y14.2371 
G01 X-39.2712 Y14.2371 
G01 X-39.0775 Y14.2756 
G01 X-38.8949 Y14.3512 
G01 X-38.7307 Y14.4610 
G01 X-28.7946 Y24.3971 
G01 X-20.2212 Y24.3971 
G01 X-20.0275 Y24.4356 
G01 X-19.8449 Y24.5112 
G01 X-19.6807 Y24.6210 
G01 X-19.5410 Y24.7607 
G01 X-18.2710 Y26.0307 
G00 Z2.0000  F3000
G00 X-18.0622 Y29.4771  F3000
G01 Z-0.2000 F200.00 
G01 X-17.8685 Y29.5156 F500.00 
G01 X-17.6859 Y29.5912 
G01 X-17.5217 Y29.7010 
G01 X-17.3820 Y29.8407 
G01 X-17.2722 Y30.0049 
G01 X-17.1966 Y30.1875 
G01 X-17.1581 Y30.3812 
G01 X-17.1581 Y30.5788 
G01 X-17.1966 Y30.7725 
G01 X-17.2722 Y30.9550 
G01 X-17.3820 Y31.1193 
G01 X-17.5217 Y31.2590 
G01 X-17.6859 Y31.3688 
G01 X-17.8685 Y31.4444 
G01 X-18.0622 Y31.4829 
G01 X-18.9512 Y31.4829 
G01 X-30.7488 Y31.4829 
G01 X-30.9425 Y31.4444 
G01 X-31.1251 Y31.3688 
G01 X-31.2893 Y31.2590 
G01 X-41.5890 Y20.9593 
G01 X-41.6988 Y20.7950 
G01 X-41.7744 Y20.6125 
G01 X-41.8129 Y20.4188 
G01 X-41.8129 Y20.2212 
G01 X-41.7744 Y20.0275 
G01 X-41.6988 Y19.8449 
G01 X-41.5890 Y19.6807 
G01 X-41.4493 Y19.5410 
G01 X-41.2850 Y19.4312 
G01 X-41.1025 Y19.3556 
G01 X-40.9088 Y19.3171 
G01 X-40.7112 Y19.3171 
G01 X-40.5175 Y19.3556 
G01 X-40.3349 Y19.4312 
G01 X-40.1707 Y19.5410 
G01 X-30.2346 Y29.4771 
G01 X-18.0622 Y29.4771 
G00 Z2.0000  F3000
G00 X-21.3647 Y29.1762  F3000
G01 Z-0.2000 F200.00 
G01 X-21.3647 Y29.1762 F500.00 
G01 X-21.4528 Y29.2351 
G01 X-21.5289 Y29.2859 
G01 X-21.6251 Y29.3258 
G01 X-21.7114 Y29.3615 
G01 X-21.8295 Y29.3850 
G01 X-21.9052 Y29.4001 
G01 X-22.0045 Y29.4001 
G01 X-22.1027 Y29.4001 
G01 X-29.8861 Y29.4001 
G01 X-30.0798 Y29.3616 
G01 X-30.2623 Y29.2860 
G01 X-30.4266 Y29.1762 
G01 X-40.1983 Y19.4045 
G01 X-40.5952 Y19.2401 
G01 X-41.0248 Y19.2401 
G01 X-41.0352 Y19.2444 
G01 X-41.0936 Y19.2560 
G01 X-41.1508 Y19.2722 
G01 X-41.1902 Y19.2752 
G01 X-41.2290 Y19.2830 
G01 X-41.2885 Y19.2830 
G01 X-41.3478 Y19.2876 
G01 X-41.3870 Y19.2830 
G01 X-41.4265 Y19.2830 
G01 X-41.4849 Y19.2714 
G01 X-41.5440 Y19.2644 
G01 X-41.5816 Y19.2521 
G01 X-41.6203 Y19.2444 
G01 X-41.6752 Y19.2217 
G01 X-41.7318 Y19.2033 
G01 X-41.7663 Y19.1839 
G01 X-41.8028 Y19.1688 
G01 X-41.8523 Y19.1358 
G01 X-41.9042 Y19.1067 
G01 X-41.9342 Y19.0810 
G01 X-41.9671 Y19.0591 
G01 X-42.0071 Y19.0191 
G01 X-42.0071 Y19.2860 
G01 X-42.0456 Y19.4797 
G01 X-42.1212 Y19.6623 
G01 X-42.1961 Y19.7743 
G01 X-42.1961 Y19.8927 
G01 X-42.2134 Y19.9345 
G01 X-42.2455 Y19.9666 
G01 X-42.2873 Y19.9839 
G01 X-42.3972 Y19.9839 
G01 X-42.5349 Y20.0760 
G01 X-42.7174 Y20.1516 
G01 X-42.9112 Y20.1901 
G01 X-43.1088 Y20.1901 
G01 X-43.2443 Y20.1631 
G01 X-43.2463 Y20.1650 
G01 X-43.3190 Y20.2110 
G01 X-43.3905 Y20.2587 
G01 X-43.4024 Y20.2637 
G01 X-43.4133 Y20.2706 
G01 X-43.4936 Y20.3014 
G01 X-43.5730 Y20.3343 
G01 X-43.5858 Y20.3369 
G01 X-43.5978 Y20.3415 
G01 X-43.6825 Y20.3561 
G01 X-43.7669 Y20.3729 
G01 X-43.7798 Y20.3729 
G01 X-43.7925 Y20.3751 
G01 X-43.8486 Y20.3737 
G01 X-43.8601 Y20.4315 
G01 X-43.8694 Y20.4539 
G01 X-43.8727 Y20.4678 
G01 X-43.8789 Y20.4812 
G01 X-43.8857 Y20.5054 
G01 X-43.9128 Y20.5587 
G01 X-43.9357 Y20.6140 
G01 X-43.9499 Y20.6353 
G01 X-43.9554 Y20.6472 
G01 X-43.9633 Y20.6581 
G01 X-43.9752 Y20.6815 
G01 X-44.0122 Y20.7285 
G01 X-44.0454 Y20.7782 
G01 X-44.0643 Y20.7971 
G01 X-44.0716 Y20.8071 
G01 X-44.0806 Y20.8154 
G01 X-44.0974 Y20.8367 
G01 X-44.1428 Y20.8756 
G01 X-44.4155 Y21.1483 
G01 X-44.5799 Y21.5452 
G01 X-44.5799 Y22.1460 
G01 X-44.6184 Y22.3397 
G01 X-44.6940 Y22.5222 
G01 X-44.8038 Y22.6865 
G01 X-44.9435 Y22.8262 
G01 X-45.1077 Y22.9360 
G01 X-45.2903 Y23.0116 
G01 X-45.4840 Y23.0501 
G01 X-48.4748 Y23.0501 
G01 X-48.8717 Y23.2145 
G01 X-49.2467 Y23.5895 
G01 X-50.8084 Y25.1512 
G01 X-50.9481 Y25.2909 
G01 X-51.1123 Y25.4006 
G01 X-51.2949 Y25.4762 
G01 X-51.4886 Y25.5148 
G01 X-51.6862 Y25.5148 
G01 X-51.8799 Y25.4762 
G01 X-52.0624 Y25.4006 
G01 X-52.2267 Y25.2909 
G01 X-52.3664 Y25.1512 
G01 X-52.4762 Y24.9869 
G01 X-52.5518 Y24.8044 
G01 X-52.5903 Y24.6107 
G01 X-52.5903 Y23.9101 
G01 X-52.7586 Y23.5039 
G01 X-52.7632 Y23.4993 
G01 X-52.8074 Y23.4331 
G01 X-52.8729 Y23.3350 
G01 X-52.9127 Y23.2389 
G01 X-52.9485 Y23.1525 
G01 X-52.9748 Y23.0203 
G01 X-52.9871 Y22.9588 
G01 X-52.9871 Y22.8589 
G01 X-52.9871 Y22.7612 
G01 X-52.9792 Y22.7215 
G01 X-52.9485 Y22.5675 
G01 X-52.9109 Y22.4767 
G01 X-52.8729 Y22.3849 
G01 X-52.8056 Y22.2843 
G01 X-52.7632 Y22.2207 
G01 X-52.7586 Y22.2161 
G01 X-52.5903 Y21.8099 
G01 X-52.5903 Y21.3701 
G01 X-52.7586 Y20.9639 
G01 X-52.7632 Y20.9593 
G01 X-52.8074 Y20.8931 
G01 X-52.8729 Y20.7950 
G01 X-52.9127 Y20.6989 
G01 X-52.9485 Y20.6125 
G01 X-52.9748 Y20.4803 
G01 X-52.9871 Y20.4188 
G01 X-52.9871 Y20.3189 
G01 X-52.9871 Y20.2212 
G01 X-52.9792 Y20.1815 
G01 X-52.9485 Y20.0275 
G01 X-52.9109 Y19.9367 
G01 X-52.8729 Y19.8449 
G01 X-52.8056 Y19.7443 
G01 X-52.7632 Y19.6807 
G01 X-52.7586 Y19.6761 
G01 X-52.5903 Y19.2699 
G01 X-52.5903 Y18.8301 
G01 X-52.7586 Y18.4239 
G01 X-52.7632 Y18.4193 
G01 X-52.8074 Y18.3531 
G01 X-52.8729 Y18.2550 
G01 X-52.9127 Y18.1589 
G01 X-52.9485 Y18.0725 
G01 X-52.9748 Y17.9403 
G01 X-52.9871 Y17.8788 
G01 X-52.9871 Y17.7789 
G01 X-52.9871 Y17.6812 
G01 X-52.9792 Y17.6415 
G01 X-52.9485 Y17.4875 
G01 X-52.9109 Y17.3967 
G01 X-52.8729 Y17.3049 
G01 X-52.8056 Y17.2043 
G01 X-52.7632 Y17.1407 
G01 X-52.7586 Y17.1361 
G01 X-52.5903 Y16.7299 
G01 X-52.5903 Y16.2901 
G01 X-52.7586 Y15.8839 
G01 X-52.7632 Y15.8793 
G01 X-52.8074 Y15.8131 
G01 X-52.8729 Y15.7150 
G01 X-52.9127 Y15.6189 
G01 X-52.9485 Y15.5325 
G01 X-52.9748 Y15.4003 
G01 X-52.9871 Y15.3388 
G01 X-52.9871 Y15.2389 
G01 X-52.9871 Y15.1412 
G01 X-52.9792 Y15.1015 
G01 X-52.9485 Y14.9475 
G01 X-52.9109 Y14.8567 
G01 X-52.8729 Y14.7649 
G01 X-52.8056 Y14.6643 
G01 X-52.7632 Y14.6007 
G01 X-52.7586 Y14.5961 
G01 X-52.5903 Y14.1899 
G01 X-52.5903 Y13.7501 
G01 X-52.7586 Y13.3439 
G01 X-53.0695 Y13.0330 
G01 X-53.4757 Y12.8647 
G01 X-55.7786 Y12.8647 
G01 X-55.9063 Y12.8901 
G01 X-58.6348 Y12.8901 
G01 X-59.0317 Y13.0545 
G01 X-59.3355 Y13.3583 
G01 X-59.4999 Y13.7552 
G01 X-59.4999 Y34.5048 
G01 X-59.3355 Y34.9017 
G01 X-59.0317 Y35.2055 
G01 X-58.6348 Y35.3699 
G01 X-45.8252 Y35.3699 
G01 X-45.4283 Y35.2055 
G01 X-44.0818 Y33.8590 
G01 X-43.9421 Y33.7194 
G01 X-43.7779 Y33.6096 
G01 X-43.5419 Y33.5118 
G01 X-43.4882 Y33.4581 
G01 X-43.4382 Y33.3374 
G01 X-43.4274 Y33.2992 
G01 X-43.4004 Y33.2464 
G01 X-43.3777 Y33.1915 
G01 X-43.3557 Y33.1585 
G01 X-43.3377 Y33.1232 
G01 X-43.3009 Y33.0766 
G01 X-43.2680 Y33.0272 
G01 X-43.2399 Y32.9992 
G01 X-43.2154 Y32.9681 
G01 X-43.1703 Y32.9295 
G01 X-43.1283 Y32.8876 
G01 X-43.0953 Y32.8655 
G01 X-43.0652 Y32.8398 
G01 X-43.0134 Y32.8108 
G01 X-42.9640 Y32.7778 
G01 X-42.9274 Y32.7626 
G01 X-42.8928 Y32.7433 
G01 X-42.8363 Y32.7249 
G01 X-42.7815 Y32.7022 
G01 X-42.7426 Y32.6945 
G01 X-42.7049 Y32.6822 
G01 X-42.6460 Y32.6752 
G01 X-42.5877 Y32.6637 
G01 X-42.5481 Y32.6637 
G01 X-42.5087 Y32.6590 
G01 X-42.4495 Y32.6637 
G01 X-42.3902 Y32.6637 
G01 X-42.3513 Y32.6714 
G01 X-42.3118 Y32.6745 
G01 X-42.2546 Y32.6906 
G01 X-42.1964 Y32.7022 
G01 X-42.1598 Y32.7174 
G01 X-42.1217 Y32.7281 
G01 X-42.0688 Y32.7551 
G01 X-42.0139 Y32.7778 
G01 X-41.9810 Y32.7998 
G01 X-41.9456 Y32.8178 
G01 X-41.8990 Y32.8546 
G01 X-41.8497 Y32.8875 
G01 X-41.8216 Y32.9156 
G01 X-41.7905 Y32.9401 
G01 X-41.7519 Y32.9853 
G01 X-41.7100 Y33.0272 
G01 X-41.6879 Y33.0602 
G01 X-41.6622 Y33.0903 
G01 X-41.6429 Y33.1248 
G01 X-41.6429 Y32.7840 
G01 X-41.6044 Y32.5903 
G01 X-41.5288 Y32.4077 
G01 X-41.5039 Y32.3705 
G01 X-41.5039 Y32.0273 
G01 X-41.4866 Y31.9855 
G01 X-41.4545 Y31.9534 
G01 X-41.4127 Y31.9361 
G01 X-40.9752 Y31.9361 
G01 X-40.9325 Y31.9184 
G01 X-40.7388 Y31.8799 
G01 X-40.5412 Y31.8799 
G01 X-40.3474 Y31.9184 
G01 X-40.3048 Y31.9361 
G01 X-39.8673 Y31.9361 
G01 X-39.8255 Y31.9534 
G01 X-39.7934 Y31.9855 
G01 X-39.7761 Y32.0273 
G01 X-39.7761 Y32.3705 
G01 X-39.7512 Y32.4077 
G01 X-39.6756 Y32.5903 
G01 X-39.6371 Y32.7840 
G01 X-39.6371 Y32.7925 
G01 X-39.6358 Y32.7893 
G01 X-39.5804 Y32.7064 
G01 X-39.5260 Y32.6250 
G01 X-39.4554 Y32.5544 
G01 X-39.3863 Y32.4853 
G01 X-39.3038 Y32.4302 
G01 X-39.2221 Y32.3755 
G01 X-39.1301 Y32.3375 
G01 X-39.0395 Y32.3000 
G01 X-38.9417 Y32.2805 
G01 X-38.8458 Y32.2614 
G01 X-38.7459 Y32.2614 
G01 X-38.6482 Y32.2614 
G01 X-38.5504 Y32.2809 
G01 X-38.4545 Y32.3000 
G01 X-38.3624 Y32.3381 
G01 X-38.2719 Y32.3755 
G01 X-38.1891 Y32.4309 
G01 X-38.1077 Y32.4853 
G01 X-38.0371 Y32.5559 
G01 X-37.9680 Y32.6250 
G01 X-37.9131 Y32.7072 
G01 X-37.8582 Y32.7893 
G01 X-36.6815 Y34.5546 
G01 X-36.6270 Y34.6361 
G01 X-36.5890 Y34.7280 
G01 X-36.5514 Y34.8186 
G01 X-36.5320 Y34.9163 
G01 X-36.5129 Y35.0123 
G01 X-36.5129 Y35.1121 
G01 X-36.5129 Y35.2415 
G01 X-36.3678 Y35.5918 
G01 X-36.0998 Y35.8598 
G01 X-35.7495 Y36.0049 
G01 X-35.3705 Y36.0049 
G01 X-35.0202 Y35.8598 
G01 X-35.0065 Y35.8461 
G01 X-34.9863 Y35.8198 
G01 X-34.9368 Y35.7764 
G01 X-34.8901 Y35.7297 
G01 X-34.8626 Y35.7114 
G01 X-34.8378 Y35.6896 
G01 X-34.7807 Y35.6566 
G01 X-34.7259 Y35.6200 
G01 X-34.6953 Y35.6073 
G01 X-34.6667 Y35.5908 
G01 X-34.6043 Y35.5696 
G01 X-34.5434 Y35.5444 
G01 X-34.5110 Y35.5379 
G01 X-34.4797 Y35.5273 
G01 X-34.4143 Y35.5187 
G01 X-34.3496 Y35.5058 
G01 X-34.3165 Y35.5058 
G01 X-34.2838 Y35.5015 
G01 X-34.2180 Y35.5058 
G01 X-34.1521 Y35.5058 
G01 X-34.1196 Y35.5123 
G01 X-34.0867 Y35.5145 
G01 X-34.0230 Y35.5315 
G01 X-34.0229 Y33.0485 
G01 X-34.0867 Y33.0655 
G01 X-34.1196 Y33.0677 
G01 X-34.1521 Y33.0742 
G01 X-34.2180 Y33.0742 
G01 X-34.2838 Y33.0785 
G01 X-34.3165 Y33.0742 
G01 X-34.3496 Y33.0742 
G01 X-34.4143 Y33.0613 
G01 X-34.4797 Y33.0527 
G01 X-34.5110 Y33.0421 
G01 X-34.5434 Y33.0356 
G01 X-34.6043 Y33.0104 
G01 X-34.6667 Y32.9892 
G01 X-34.6953 Y32.9727 
G01 X-34.7259 Y32.9600 
G01 X-34.7807 Y32.9234 
G01 X-34.8378 Y32.8904 
G01 X-34.8626 Y32.8686 
G01 X-34.8901 Y32.8503 
G01 X-34.9368 Y32.8036 
G01 X-34.9863 Y32.7602 
G01 X-35.0065 Y32.7339 
G01 X-35.0202 Y32.7202 
G01 X-35.0463 Y32.7094 
G01 X-35.1377 Y32.6715 
G01 X-35.2284 Y32.6340 
G01 X-35.3109 Y32.5788 
G01 X-35.3926 Y32.5242 
G01 X-35.4625 Y32.4543 
G01 X-35.5323 Y32.3845 
G01 X-35.5868 Y32.3030 
G01 X-35.6421 Y32.2203 
G01 X-37.0877 Y30.0517 
G01 X-37.1426 Y29.9695 
G01 X-37.1804 Y29.8781 
G01 X-37.1845 Y29.8683 
G01 X-37.1913 Y29.8615 
G01 X-37.2604 Y29.7924 
G01 X-37.3154 Y29.7100 
G01 X-37.3206 Y29.7022 
G01 X-37.3284 Y29.6970 
G01 X-37.4108 Y29.6420 
G01 X-37.4810 Y29.5718 
G01 X-37.4883 Y29.5645 
G01 X-37.4978 Y29.5606 
G01 X-37.5874 Y29.5234 
G01 X-37.6713 Y29.4674 
G01 X-37.6776 Y29.4632 
G01 X-37.6875 Y29.4612 
G01 X-37.7840 Y29.4420 
G01 X-37.8762 Y29.4038 
G01 X-37.8852 Y29.4001 
G01 X-37.8948 Y29.4001 
G01 X-37.9925 Y29.4001 
G01 X-38.0907 Y29.3806 
G01 X-38.0989 Y29.3789 
G01 X-38.1092 Y29.3810 
G01 X-38.2053 Y29.4001 
G01 X-38.3050 Y29.4001 
G01 X-40.1961 Y29.4001 
G01 X-40.3898 Y29.3616 
G01 X-40.5723 Y29.2860 
G01 X-40.7366 Y29.1762 
G01 X-41.6183 Y28.2945 
G01 X-42.0152 Y28.1301 
G01 X-43.3948 Y28.1301 
G01 X-43.7917 Y28.2945 
G01 X-44.1667 Y28.6695 
G01 X-44.7627 Y29.2655 
G01 X-44.7989 Y29.3085 
G01 X-44.8324 Y29.3352 
G01 X-44.8627 Y29.3655 
G01 X-44.9094 Y29.3967 
G01 X-44.9533 Y29.4318 
G01 X-44.9913 Y29.4514 
G01 X-45.0270 Y29.4752 
G01 X-45.0789 Y29.4967 
G01 X-45.1287 Y29.5226 
G01 X-45.1699 Y29.5345 
G01 X-45.2095 Y29.5509 
G01 X-45.2646 Y29.5618 
G01 X-45.3185 Y29.5774 
G01 X-45.3612 Y29.5810 
G01 X-45.4032 Y29.5894 
G01 X-45.4594 Y29.5894 
G01 X-45.5154 Y29.5942 
G01 X-45.5580 Y29.5894 
G01 X-45.6008 Y29.5894 
G01 X-45.6559 Y29.5784 
G01 X-46.8413 Y29.4458 
G01 X-46.8842 Y29.4458 
G01 X-46.9393 Y29.4348 
G01 X-46.9950 Y29.4286 
G01 X-47.0359 Y29.4156 
G01 X-47.0779 Y29.4073 
G01 X-47.0952 Y29.4001 
G01 X-47.1512 Y29.4001 
G01 X-47.2072 Y29.4049 
G01 X-47.2498 Y29.4001 
G01 X-47.2926 Y29.4001 
G01 X-47.3477 Y29.3891 
G01 X-47.4034 Y29.3829 
G01 X-47.4214 Y29.3881 
G01 X-47.4641 Y29.3917 
G01 X-47.5061 Y29.4001 
G01 X-47.5622 Y29.4001 
G01 X-47.6182 Y29.4049 
G01 X-47.6608 Y29.4001 
G01 X-48.7661 Y29.4001 
G01 X-48.9598 Y29.3616 
G01 X-49.1423 Y29.2860 
G01 X-49.2499 Y29.2141 
G01 X-49.3066 Y29.1762 
G01 X-49.9035 Y28.5793 
G01 X-49.9754 Y28.4717 
G01 X-50.0132 Y28.4151 
G01 X-50.0584 Y28.3060 
G01 X-50.0888 Y28.2325 
G01 X-50.1274 Y28.0388 
G01 X-50.1274 Y27.8412 
G01 X-50.0888 Y27.6475 
G01 X-50.0132 Y27.4649 
G01 X-49.9384 Y27.3530 
G01 X-49.9035 Y27.3007 
G01 X-49.9013 Y27.2985 
G01 X-49.7638 Y27.1610 
G01 X-48.1763 Y25.5735 
G01 X-48.0366 Y25.4338 
G01 X-47.8723 Y25.3240 
G01 X-47.6898 Y25.2484 
G01 X-47.4961 Y25.2099 
G01 X-45.1852 Y25.2099 
G01 X-45.1699 Y25.2036 
G01 X-45.0634 Y25.1594 
G01 X-44.8696 Y25.1209 
G01 X-44.6790 Y25.1209 
G01 X-44.5488 Y25.0950 
G01 X-44.3512 Y25.0950 
G01 X-44.2210 Y25.1209 
G01 X-44.0304 Y25.1209 
G01 X-43.8366 Y25.1594 
G01 X-43.7238 Y25.2062 
G01 X-43.7148 Y25.2099 
G01 X-43.2852 Y25.2099 
G01 X-43.2699 Y25.2036 
G01 X-43.1634 Y25.1594 
G01 X-42.9696 Y25.1209 
G01 X-42.8120 Y25.1209 
G01 X-42.7419 Y25.0918 
G01 X-42.6882 Y25.0381 
G01 X-42.6382 Y24.9176 
G01 X-42.6206 Y24.8287 
G01 X-42.4201 Y24.3448 
G01 X-42.4201 Y22.5595 
G01 X-42.3816 Y22.3658 
G01 X-42.3060 Y22.1833 
G01 X-42.1962 Y22.0190 
G01 X-42.0565 Y21.8793 
G01 X-41.8922 Y21.7696 
G01 X-41.7097 Y21.6940 
G01 X-41.5160 Y21.6554 
G01 X-41.3184 Y21.6554 
G01 X-41.1247 Y21.6940 
G01 X-40.9421 Y21.7696 
G01 X-40.7779 Y21.8793 
G01 X-31.6799 Y30.9773 
G01 X-31.5402 Y31.1170 
G01 X-31.4304 Y31.2813 
G01 X-31.3884 Y31.3826 
G01 X-31.3335 Y31.3936 
G01 X-31.2681 Y31.4022 
G01 X-31.2368 Y31.4128 
G01 X-31.2044 Y31.4192 
G01 X-31.1435 Y31.4445 
G01 X-31.0811 Y31.4657 
G01 X-31.0524 Y31.4822 
G01 X-30.8648 Y31.5599 
G01 X-21.4912 Y31.5599 
G01 X-21.2975 Y31.5984 
G01 X-21.1149 Y31.6740 
G01 X-20.9507 Y31.7838 
G01 X-20.8110 Y31.9235 
G01 X-20.7012 Y32.0877 
G01 X-20.6256 Y32.2703 
G01 X-20.5871 Y32.4640 
G01 X-20.5871 Y35.8271 
G01 X-12.6012 Y35.8271 
G01 X-12.4075 Y35.8656 
G01 X-12.2249 Y35.9412 
G01 X-12.0607 Y36.0510 
G01 X-11.9210 Y36.1907 
G01 X-11.8112 Y36.3549 
G01 X-11.7356 Y36.5375 
G01 X-11.6971 Y36.7312 
G01 X-11.6971 Y36.9288 
G01 X-11.7356 Y37.1225 
G01 X-11.8112 Y37.3051 
G01 X-11.9210 Y37.4693 
G01 X-12.0607 Y37.6090 
G01 X-12.2249 Y37.7188 
G01 X-12.4075 Y37.7944 
G01 X-12.6012 Y37.8329 
G01 X-20.5871 Y37.8329 
G01 X-20.5871 Y40.0938 
G01 X-20.6256 Y40.2875 
G01 X-20.7012 Y40.4701 
G01 X-20.8110 Y40.6343 
G01 X-20.9507 Y40.7740 
G01 X-21.1149 Y40.8838 
G01 X-21.2975 Y40.9594 
G01 X-21.4912 Y40.9979 
G01 X-24.7733 Y40.9979 
G01 X-24.8707 Y40.9785 
G01 X-24.9670 Y40.9594 
G01 X-24.9777 Y40.9549 
G01 X-25.1495 Y40.8838 
G01 X-25.3138 Y40.7740 
G01 X-25.3847 Y40.7030 
G01 X-25.4535 Y40.6343 
G01 X-25.4759 Y40.6008 
G01 X-25.5632 Y40.4701 
G01 X-25.6388 Y40.2875 
G01 X-25.6395 Y40.2843 
G01 X-25.6774 Y40.0938 
G01 X-25.6774 Y39.8962 
G01 X-25.6580 Y39.7988 
G01 X-25.6388 Y39.7025 
G01 X-25.6340 Y39.6909 
G01 X-25.5901 Y39.5848 
G01 X-25.5901 Y39.1552 
G01 X-25.7545 Y38.7583 
G01 X-26.0583 Y38.4545 
G01 X-26.4552 Y38.2901 
G01 X-88.1860 Y38.2901 
G01 X-88.3797 Y38.2516 
G01 X-88.5623 Y38.1760 
G01 X-88.7265 Y38.0662 
G01 X-88.8662 Y37.9265 
G01 X-88.9760 Y37.7623 
G01 X-89.0516 Y37.5797 
G01 X-89.0901 Y37.3860 
G01 X-89.0901 Y26.4552 
G01 X-89.2545 Y26.0583 
G01 X-89.5583 Y25.7545 
G01 X-89.9552 Y25.5901 
G01 X-94.1948 Y25.5901 
G01 X-94.2258 Y25.6030 
G01 X-94.2776 Y25.6244 
G01 X-94.4084 Y25.6786 
G01 X-94.5911 Y25.7149 
G01 X-94.6021 Y25.7171 
G01 X-94.9315 Y25.7171 
G01 X-95.2818 Y25.8622 
G01 X-95.5498 Y26.1302 
G01 X-95.6949 Y26.4805 
G01 X-95.6949 Y26.8595 
G01 X-95.5498 Y27.2098 
G01 X-95.5361 Y27.2235 
G01 X-95.5098 Y27.2437 
G01 X-95.4664 Y27.2932 
G01 X-95.4197 Y27.3398 
G01 X-95.4014 Y27.3673 
G01 X-95.3796 Y27.3922 
G01 X-95.3466 Y27.4493 
G01 X-95.3100 Y27.5041 
G01 X-95.2973 Y27.5347 
G01 X-95.2808 Y27.5633 
G01 X-95.2596 Y27.6257 
G01 X-95.2344 Y27.6866 
G01 X-95.2279 Y27.7190 
G01 X-95.2173 Y27.7503 
G01 X-95.2087 Y27.8157 
G01 X-95.1958 Y27.8804 
G01 X-95.1958 Y27.9134 
G01 X-95.1915 Y27.9462 
G01 X-95.1958 Y28.0120 
G01 X-95.1958 Y28.0779 
G01 X-95.2023 Y28.1103 
G01 X-95.2045 Y28.1433 
G01 X-95.2215 Y28.2070 
G01 X-93.8812 Y28.2071 
G01 X-93.6875 Y28.2456 
G01 X-93.5050 Y28.3212 
G01 X-93.4857 Y28.3341 
G01 X-93.1317 Y28.3341 
G01 X-92.9625 Y28.3678 
G01 X-92.8031 Y28.4338 
G01 X-92.6596 Y28.5296 
G01 X-92.5376 Y28.6516 
G01 X-92.4418 Y28.7951 
G01 X-92.3758 Y28.9545 
G01 X-92.3421 Y29.1237 
G01 X-92.3421 Y29.2963 
G01 X-92.3758 Y29.4655 
G01 X-92.4418 Y29.6249 
G01 X-92.5376 Y29.7684 
G01 X-92.6596 Y29.8904 
G01 X-92.8031 Y29.9862 
G01 X-92.9625 Y30.0522 
G01 X-92.9771 Y30.0551 
G01 X-92.9771 Y30.0794 
G01 X-92.9274 Y30.0661 
G01 X-92.8182 Y30.0208 
G01 X-92.7827 Y30.0003 
G01 X-92.7278 Y29.9637 
G01 X-92.6973 Y29.9510 
G01 X-92.6687 Y29.9345 
G01 X-92.6063 Y29.9133 
G01 X-92.5453 Y29.8881 
G01 X-92.5129 Y29.8816 
G01 X-92.4816 Y29.8710 
G01 X-92.4163 Y29.8624 
G01 X-92.3516 Y29.8495 
G01 X-92.3185 Y29.8495 
G01 X-92.2858 Y29.8452 
G01 X-92.2200 Y29.8495 
G01 X-92.1540 Y29.8495 
G01 X-92.1216 Y29.8560 
G01 X-92.0886 Y29.8581 
G01 X-92.0250 Y29.8752 
G01 X-91.9603 Y29.8881 
G01 X-91.9297 Y29.9007 
G01 X-91.8978 Y29.9093 
G01 X-91.8387 Y29.9384 
G01 X-91.7777 Y29.9637 
G01 X-91.7503 Y29.9820 
G01 X-91.7206 Y29.9966 
G01 X-91.6683 Y30.0368 
G01 X-91.6135 Y30.0734 
G01 X-91.5901 Y30.0968 
G01 X-91.5639 Y30.1169 
G01 X-91.5204 Y30.1665 
G01 X-91.4738 Y30.2131 
G01 X-91.4554 Y30.2406 
G01 X-91.4337 Y30.2654 
G01 X-91.4007 Y30.3225 
G01 X-91.3640 Y30.3774 
G01 X-91.3514 Y30.4079 
G01 X-91.3349 Y30.4365 
G01 X-91.3137 Y30.4990 
G01 X-91.2884 Y30.5599 
G01 X-91.2820 Y30.5923 
G01 X-91.2714 Y30.6236 
G01 X-91.2628 Y30.6890 
G01 X-91.2499 Y30.7537 
G01 X-91.2499 Y30.7867 
G01 X-91.2456 Y30.8195 
G01 X-91.2499 Y30.8853 
G01 X-91.2499 Y39.5848 
G01 X-91.2046 Y39.6942 
G01 X-91.2012 Y39.7024 
G01 X-91.1816 Y39.8009 
G01 X-91.1626 Y39.8962 
G01 X-91.1626 Y40.0938 
G01 X-91.2012 Y40.2875 
G01 X-91.2768 Y40.4701 
G01 X-91.3658 Y40.6034 
G01 X-91.3865 Y40.6343 
G01 X-91.4574 Y40.7052 
G01 X-91.5262 Y40.7740 
G01 X-91.6905 Y40.8838 
G01 X-91.8653 Y40.9562 
G01 X-91.8730 Y40.9594 
G01 X-91.9715 Y40.9789 
G01 X-92.0667 Y40.9979 
G01 X-98.1938 Y40.9979 
G01 X-98.3875 Y40.9594 
G01 X-98.5700 Y40.8838 
G01 X-98.7343 Y40.7740 
G01 X-98.8740 Y40.6343 
G01 X-98.9838 Y40.4701 
G01 X-99.0594 Y40.2875 
G01 X-99.0979 Y40.0938 
G01 X-99.0979 Y15.2417 
G01 X-99.0594 Y15.0480 
G01 X-99.0271 Y14.9702 
G01 X-98.9838 Y14.8655 
G01 X-98.8740 Y14.7012 
G01 X-98.7343 Y14.5615 
G01 X-98.6776 Y14.5236 
G01 X-98.5700 Y14.4518 
G01 X-98.3875 Y14.3762 
G01 X-98.1938 Y14.3376 
G01 X-97.9962 Y14.3376 
G01 X-97.8025 Y14.3762 
G01 X-97.7247 Y14.4084 
G01 X-97.6199 Y14.4518 
G01 X-97.4557 Y14.5615 
G01 X-97.4473 Y14.5699 
G01 X-97.3160 Y14.7012 
G01 X-97.1317 Y14.8855 
G01 X-96.8720 Y14.9931 
G01 X-96.8338 Y15.0038 
G01 X-96.7809 Y15.0308 
G01 X-96.7261 Y15.0535 
G01 X-96.6931 Y15.0755 
G01 X-96.6578 Y15.0935 
G01 X-96.6112 Y15.1303 
G01 X-96.5618 Y15.1633 
G01 X-96.5338 Y15.1913 
G01 X-96.5027 Y15.2158 
G01 X-96.4641 Y15.2610 
G01 X-96.4221 Y15.3030 
G01 X-96.4001 Y15.3359 
G01 X-96.3744 Y15.3661 
G01 X-96.3454 Y15.4178 
G01 X-96.3124 Y15.4672 
G01 X-96.2972 Y15.5038 
G01 X-96.2778 Y15.5384 
G01 X-96.2595 Y15.5949 
G01 X-96.2368 Y15.6497 
G01 X-96.2290 Y15.6886 
G01 X-96.2168 Y15.7263 
G01 X-96.2098 Y15.7853 
G01 X-96.1982 Y15.8435 
G01 X-96.1982 Y15.8831 
G01 X-96.1936 Y15.9225 
G01 X-96.1982 Y15.9817 
G01 X-96.1982 Y16.0410 
G01 X-96.2060 Y16.0799 
G01 X-96.2091 Y16.1194 
G01 X-96.2252 Y16.1766 
G01 X-96.2368 Y16.2348 
G01 X-96.2519 Y16.2714 
G01 X-96.2627 Y16.3096 
G01 X-96.2897 Y16.3625 
G01 X-96.3124 Y16.4173 
G01 X-96.3344 Y16.4503 
G01 X-96.3524 Y16.4856 
G01 X-96.3891 Y16.5322 
G01 X-96.4221 Y16.5816 
G01 X-96.4502 Y16.6096 
G01 X-96.4747 Y16.6407 
G01 X-96.5198 Y16.6793 
G01 X-96.5618 Y16.7213 
G01 X-96.5948 Y16.7433 
G01 X-96.6249 Y16.7690 
G01 X-96.6393 Y16.7771 
G01 X-96.2840 Y16.7771 
G01 X-96.0903 Y16.8156 
G01 X-95.9077 Y16.8912 
G01 X-95.8705 Y16.9161 
G01 X-95.5273 Y16.9161 
G01 X-95.4855 Y16.9334 
G01 X-95.4534 Y16.9655 
G01 X-95.4361 Y17.0073 
G01 X-95.4361 Y17.4448 
G01 X-95.4184 Y17.4874 
G01 X-95.3799 Y17.6812 
G01 X-95.3799 Y17.8788 
G01 X-95.4069 Y18.0143 
G01 X-95.4049 Y18.0163 
G01 X-95.3590 Y18.0890 
G01 X-95.3113 Y18.1605 
G01 X-95.3063 Y18.1724 
G01 X-95.2994 Y18.1834 
G01 X-95.2686 Y18.2636 
G01 X-95.2357 Y18.3430 
G01 X-95.2331 Y18.3558 
G01 X-95.2285 Y18.3678 
G01 X-95.2139 Y18.4525 
G01 X-95.1971 Y18.5369 
G01 X-95.1971 Y18.5498 
G01 X-95.1949 Y18.5625 
G01 X-95.1971 Y18.6485 
G01 X-95.1971 Y18.6615 
G01 X-95.1366 Y18.6760 
G01 X-95.0590 Y18.6915 
G01 X-95.0407 Y18.6990 
G01 X-95.0214 Y18.7037 
G01 X-94.9841 Y18.7209 
G01 X-94.9511 Y18.7209 
G01 X-94.7573 Y18.7594 
G01 X-94.7398 Y18.7667 
G01 X-94.5748 Y18.8350 
G01 X-94.5148 Y18.8599 
G01 X-94.0852 Y18.8599 
G01 X-94.0252 Y18.8350 
G01 X-93.8427 Y18.7594 
G01 X-93.6489 Y18.7209 
G01 X-93.6120 Y18.7209 
G01 X-93.5419 Y18.6918 
G01 X-93.4882 Y18.6381 
G01 X-93.4762 Y18.6092 
G01 X-93.4258 Y18.4875 
G01 X-93.3160 Y18.3232 
G01 X-93.1763 Y18.1835 
G01 X-92.8145 Y17.8218 
G01 X-92.8066 Y17.8138 
G01 X-92.7543 Y17.7788 
G01 X-92.6423 Y17.7040 
G01 X-92.4598 Y17.6284 
G01 X-92.2661 Y17.5899 
G01 X-89.9552 Y17.5899 
G01 X-89.5583 Y17.4255 
G01 X-89.2545 Y17.1217 
G01 X-89.0901 Y16.7248 
G01 X-89.0901 Y16.2952 
G01 X-89.2545 Y15.8983 
G01 X-89.5583 Y15.5945 
G01 X-89.9552 Y15.4301 
G01 X-91.9461 Y15.4301 
G01 X-92.1398 Y15.3916 
G01 X-92.3223 Y15.3160 
G01 X-92.4866 Y15.2062 
G01 X-92.5365 Y15.1563 
G01 X-92.6762 Y15.0166 
G01 X-92.7860 Y14.8523 
G01 X-92.8616 Y14.6698 
G01 X-92.9001 Y14.4761 
G01 X-92.9001 Y13.7552 
G01 X-93.0645 Y13.3583 
G01 X-93.3683 Y13.0545 
G01 X-93.9052 Y12.8321 
G01 X-93.9216 Y12.8253 
G01 X-94.0859 Y12.7155 
G01 X-94.1601 Y12.6413 
G01 X-94.8898 Y13.0062 
G01 X-95.0804 Y13.0584 
G01 X-95.2774 Y13.0724 
G01 X-95.4734 Y13.0477 
G01 X-95.6609 Y12.9852 
G01 X-95.8325 Y12.8874 
G01 X-95.9817 Y12.7579 
G01 X-96.1028 Y12.6019 
G01 X-96.1912 Y12.4252 
G01 X-96.2434 Y12.2346 
G01 X-96.2574 Y12.0376 
G01 X-96.2327 Y11.8416 
G01 X-96.1702 Y11.6541 
G01 X-96.0724 Y11.4825 
G01 X-95.9429 Y11.3333 
G01 X-95.7869 Y11.2122 
G01 X-94.9845 Y10.8110 
G01 X-94.9845 Y10.6842 
G01 X-94.9460 Y10.4905 
G01 X-94.8704 Y10.3079 
G01 X-94.7956 Y10.1960 
G01 X-94.7606 Y10.1437 
G01 X-94.7584 Y10.1415 
G01 X-94.6209 Y10.0040 
G01 X-94.6019 Y9.9913 
G01 X-94.6019 Y9.7723 
G01 X-94.6295 Y9.7539 
G01 X-94.9727 Y9.7539 
G01 X-95.0145 Y9.7366 
G01 X-95.0466 Y9.7045 
G01 X-95.0639 Y9.6627 
G01 X-95.0639 Y9.2252 
G01 X-95.0816 Y9.1825 
G01 X-95.1201 Y8.9888 
G01 X-95.1201 Y8.7912 
G01 X-95.0816 Y8.5974 
G01 X-95.0639 Y8.5548 
G01 X-95.0639 Y8.1173 
G01 X-95.0466 Y8.0755 
G01 X-95.0145 Y8.0434 
G01 X-94.9727 Y8.0261 
G01 X-94.6295 Y8.0261 
G01 X-94.5923 Y8.0012 
G01 X-94.4097 Y7.9256 
G01 X-94.2160 Y7.8871 
G01 X-93.7466 Y7.8871 
G01 X-93.7735 Y7.8580 
G01 X-93.8294 Y7.8021 
G01 X-93.8404 Y7.7856 
G01 X-93.8539 Y7.7710 
G01 X-93.8952 Y7.7036 
G01 X-93.9392 Y7.6378 
G01 X-93.9468 Y7.6195 
G01 X-93.9571 Y7.6026 
G01 X-93.9845 Y7.5284 
G01 X-94.0148 Y7.4553 
G01 X-94.0186 Y7.4359 
G01 X-94.0255 Y7.4173 
G01 X-94.0379 Y7.3391 
G01 X-94.0533 Y7.2616 
G01 X-94.0533 Y7.2417 
G01 X-94.0564 Y7.2221 
G01 X-94.0533 Y7.1431 
G01 X-94.0533 Y7.0640 
G01 X-94.0494 Y7.0446 
G01 X-94.0487 Y7.0247 
G01 X-94.0302 Y6.9478 
G01 X-94.0148 Y6.8703 
G01 X-94.0072 Y6.8519 
G01 X-94.0026 Y6.8326 
G01 X-93.9694 Y6.7608 
G01 X-93.9392 Y6.6877 
G01 X-93.9282 Y6.6712 
G01 X-93.9198 Y6.6532 
G01 X-93.8734 Y6.5893 
G01 X-93.8294 Y6.5235 
G01 X-93.8154 Y6.5095 
G01 X-93.8037 Y6.4934 
G01 X-93.7456 Y6.4397 
G01 X-93.6897 Y6.3838 
G01 X-93.6732 Y6.3728 
G01 X-93.6587 Y6.3593 
G01 X-93.5913 Y6.3180 
G01 X-93.5255 Y6.2740 
G01 X-93.5071 Y6.2664 
G01 X-93.4902 Y6.2561 
G01 X-93.4160 Y6.2287 
G01 X-93.3430 Y6.1984 
G01 X-93.3235 Y6.1946 
G01 X-93.3049 Y6.1877 
G01 X-93.2268 Y6.1753 
G01 X-93.1492 Y6.1599 
G01 X-93.1294 Y6.1599 
G01 X-93.1098 Y6.1568 
G01 X-93.0308 Y6.1599 
G01 X-86.1080 Y6.1599 
G01 X-86.0695 Y6.1553 
G01 X-86.0094 Y6.1599 
G01 X-85.9492 Y6.1599 
G01 X-85.9112 Y6.1675 
G01 X-85.8725 Y6.1704 
G01 X-85.8145 Y6.1867 
G01 X-85.7554 Y6.1984 
G01 X-85.7196 Y6.2133 
G01 X-85.6823 Y6.2237 
G01 X-85.6286 Y6.2510 
G01 X-85.5729 Y6.2740 
G01 X-85.5407 Y6.2956 
G01 X-85.5061 Y6.3131 
G01 X-85.4587 Y6.3503 
G01 X-85.4086 Y6.3838 
G01 X-85.3812 Y6.4112 
G01 X-85.3508 Y6.4351 
G01 X-85.3116 Y6.4809 
G01 X-85.2689 Y6.5235 
G01 X-85.2474 Y6.5557 
G01 X-79.7562 Y12.9621 
G01 X-79.7136 Y13.0047 
G01 X-79.6921 Y13.0369 
G01 X-79.6669 Y13.0664 
G01 X-79.6373 Y13.1189 
G01 X-79.6038 Y13.1690 
G01 X-79.5890 Y13.2048 
G01 X-79.5700 Y13.2386 
G01 X-79.5513 Y13.2958 
G01 X-79.5282 Y13.3515 
G01 X-79.5207 Y13.3895 
G01 X-79.5086 Y13.4263 
G01 X-79.5015 Y13.4862 
G01 X-79.4897 Y13.5453 
G01 X-79.4897 Y13.5840 
G01 X-79.4851 Y13.6225 
G01 X-79.4897 Y13.6826 
G01 X-79.4897 Y14.1899 
G01 X-79.3226 Y14.5933 
G01 X-79.3110 Y14.6065 
G01 X-79.2644 Y14.6531 
G01 X-79.2460 Y14.6806 
G01 X-79.2243 Y14.7054 
G01 X-79.1913 Y14.7625 
G01 X-79.1547 Y14.8174 
G01 X-79.1420 Y14.8479 
G01 X-79.1255 Y14.8765 
G01 X-79.1043 Y14.9390 
G01 X-79.0791 Y14.9999 
G01 X-79.0726 Y15.0323 
G01 X-79.0620 Y15.0636 
G01 X-79.0534 Y15.1290 
G01 X-79.0405 Y15.1936 
G01 X-79.0405 Y15.2267 
G01 X-79.0362 Y15.2595 
G01 X-79.0405 Y15.3253 
G01 X-79.0405 Y15.3912 
G01 X-79.0470 Y15.4236 
G01 X-79.0491 Y15.4566 
G01 X-79.0627 Y15.5071 
G01 X-78.6133 Y15.5071 
G01 X-78.4857 Y15.4817 
G01 X-76.4543 Y15.4817 
G01 X-76.3267 Y15.5071 
G01 X-75.8773 Y15.5071 
G01 X-75.8909 Y15.4566 
G01 X-75.8930 Y15.4236 
G01 X-75.8995 Y15.3912 
G01 X-75.8995 Y15.3253 
G01 X-75.9038 Y15.2595 
G01 X-75.8995 Y15.2267 
G01 X-75.8995 Y15.1936 
G01 X-75.8866 Y15.1290 
G01 X-75.8780 Y15.0636 
G01 X-75.8674 Y15.0323 
G01 X-75.8609 Y14.9999 
G01 X-75.8357 Y14.9390 
G01 X-75.8145 Y14.8765 
G01 X-75.7980 Y14.8479 
G01 X-75.7853 Y14.8174 
G01 X-75.7487 Y14.7625 
G01 X-75.7157 Y14.7054 
G01 X-75.6939 Y14.6806 
G01 X-75.6756 Y14.6531 
G01 X-75.6290 Y14.6065 
G01 X-75.6174 Y14.5933 
G01 X-75.4543 Y14.1995 
G01 X-75.4503 Y14.1636 
G01 X-75.4503 Y14.1204 
G01 X-75.4394 Y14.0657 
G01 X-75.4333 Y14.0103 
G01 X-75.4202 Y13.9691 
G01 X-75.4118 Y13.9267 
G01 X-75.3904 Y13.8751 
G01 X-75.3736 Y13.8220 
G01 X-75.3527 Y13.7841 
G01 X-75.3362 Y13.7441 
G01 X-75.3052 Y13.6978 
G01 X-75.2783 Y13.6489 
G01 X-75.2504 Y13.6158 
G01 X-75.2264 Y13.5799 
G01 X-75.1870 Y13.5405 
G01 X-75.1510 Y13.4978 
G01 X-75.1173 Y13.4708 
G01 X-75.0867 Y13.4402 
G01 X-75.0403 Y13.4092 
G01 X-71.0593 Y10.2244 
G01 X-71.0287 Y10.1938 
G01 X-70.9823 Y10.1628 
G01 X-70.9388 Y10.1280 
G01 X-70.9004 Y10.1081 
G01 X-70.8644 Y10.0840 
G01 X-70.8129 Y10.0627 
G01 X-70.7634 Y10.0370 
G01 X-70.7219 Y10.0250 
G01 X-70.6819 Y10.0084 
G01 X-70.6272 Y9.9976 
G01 X-70.5736 Y9.9820 
G01 X-70.5306 Y9.9783 
G01 X-70.4882 Y9.9699 
G01 X-70.4324 Y9.9699 
G01 X-70.3768 Y9.9651 
G01 X-70.3338 Y9.9699 
G01 X-53.1140 Y9.9699 
G01 X-53.0585 Y9.9651 
G01 X-53.0155 Y9.9699 
G01 X-52.9723 Y9.9699 
G01 X-52.9176 Y9.9808 
G01 X-52.8621 Y9.9869 
G01 X-52.8209 Y10.0000 
G01 X-52.7785 Y10.0084 
G01 X-52.7270 Y10.0298 
G01 X-52.6738 Y10.0466 
G01 X-52.6359 Y10.0675 
G01 X-52.5960 Y10.0840 
G01 X-52.5496 Y10.1150 
G01 X-52.5007 Y10.1419 
G01 X-52.4677 Y10.1698 
G01 X-52.4317 Y10.1938 
G01 X-52.3923 Y10.2332 
G01 X-52.3496 Y10.2692 
G01 X-52.3226 Y10.3029 
G01 X-52.2920 Y10.3335 
G01 X-52.2611 Y10.3799 
G01 X-48.0526 Y15.6404 
G01 X-48.0221 Y15.6709 
G01 X-47.9911 Y15.7173 
G01 X-47.9563 Y15.7609 
G01 X-47.9363 Y15.7992 
G01 X-47.9123 Y15.8352 
G01 X-47.9055 Y15.8517 
G01 X-47.8656 Y15.8916 
G01 X-47.8229 Y15.9275 
G01 X-47.7959 Y15.9613 
G01 X-47.7653 Y15.9919 
G01 X-47.7343 Y16.0382 
G01 X-47.6991 Y16.0823 
G01 X-47.6834 Y16.0910 
G01 X-47.6503 Y16.1188 
G01 X-47.6144 Y16.1428 
G01 X-47.6017 Y16.1555 
G01 X-47.5495 Y16.1771 
G01 X-47.4964 Y16.1940 
G01 X-47.4585 Y16.2148 
G01 X-47.4186 Y16.2313 
G01 X-47.3722 Y16.2623 
G01 X-47.3227 Y16.2896 
G01 X-47.3050 Y16.2915 
G01 X-47.2637 Y16.3046 
G01 X-47.2213 Y16.3131 
G01 X-47.2048 Y16.3199 
G01 X-47.1484 Y16.3199 
G01 X-47.0928 Y16.3151 
G01 X-47.0498 Y16.3199 
G01 X-47.0066 Y16.3199 
G01 X-46.9519 Y16.3308 
G01 X-46.8958 Y16.3370 
G01 X-46.8786 Y16.3320 
G01 X-46.8355 Y16.3283 
G01 X-46.7931 Y16.3199 
G01 X-46.7373 Y16.3199 
G01 X-46.6817 Y16.3151 
G01 X-46.6388 Y16.3199 
G01 X-40.1339 Y16.3199 
G01 X-39.9402 Y16.3584 
G01 X-39.7577 Y16.4340 
G01 X-39.5934 Y16.5438 
G01 X-29.8217 Y26.3155 
G01 X-29.4248 Y26.4799 
G01 X-22.1028 Y26.4799 
G01 X-22.0034 Y26.4799 
G01 X-21.9052 Y26.4799 
G01 X-21.8281 Y26.4952 
G01 X-21.7115 Y26.5184 
G01 X-21.6238 Y26.5548 
G01 X-21.5290 Y26.5940 
G01 X-21.4518 Y26.6456 
G01 X-21.3647 Y26.7038 
G01 X-21.2943 Y26.7742 
G01 X-21.2250 Y26.8435 
G01 X-21.1661 Y26.9317 
G01 X-21.1153 Y27.0077 
G01 X-21.0754 Y27.1040 
G01 X-21.0397 Y27.1903 
G01 X-21.0176 Y27.3011 
G01 X-21.0011 Y27.3840 
G01 X-21.0011 Y27.4834 
G01 X-21.0011 Y27.5816 
G01 X-21.0165 Y27.6587 
G01 X-21.0189 Y27.6709 
G01 X-21.0189 Y28.2091 
G01 X-21.0162 Y28.2227 
G01 X-21.0011 Y28.2984 
G01 X-21.0011 Y28.3977 
G01 X-21.0011 Y28.4959 
G01 X-21.0179 Y28.5803 
G01 X-21.0396 Y28.6897 
G01 X-21.0759 Y28.7773 
G01 X-21.1152 Y28.8722 
G01 X-21.1668 Y28.9493 
G01 X-21.2250 Y29.0365 
G01 X-21.2954 Y29.1069 
G01 X-21.3647 Y29.1762 
G00 Z2.0000  F3000
G00 X-25.8910 Y38.7307  F3000
G01 Z-0.2000 F200.00 
G01 X-25.7812 Y38.8949 F500.00 
G01 X-25.7056 Y39.0775 
G01 X-25.6671 Y39.2712 
G01 X-25.6671 Y39.4688 
G01 X-25.7056 Y39.6625 
G01 X-25.7812 Y39.8451 
G01 X-25.8910 Y40.0093 
G01 X-26.0307 Y40.1490 
G01 X-26.1949 Y40.2588 
G01 X-26.3775 Y40.3344 
G01 X-26.5712 Y40.3729 
G01 X-90.2688 Y40.3729 
G01 X-90.4625 Y40.3344 
G01 X-90.6450 Y40.2588 
G01 X-90.8093 Y40.1490 
G01 X-90.9490 Y40.0093 
G01 X-91.0588 Y39.8451 
G01 X-91.1344 Y39.6625 
G01 X-91.1729 Y39.4688 
G01 X-91.1729 Y27.6729 
G01 X-94.0788 Y27.6729 
G01 X-94.2725 Y27.6344 
G01 X-94.4550 Y27.5588 
G01 X-94.4743 Y27.5459 
G01 X-94.8283 Y27.5459 
G01 X-94.9975 Y27.5122 
G01 X-95.1569 Y27.4462 
G01 X-95.3004 Y27.3504 
G01 X-95.4224 Y27.2284 
G01 X-95.5182 Y27.0849 
G01 X-95.5842 Y26.9255 
G01 X-95.6179 Y26.7563 
G01 X-95.6179 Y26.5837 
G01 X-95.5842 Y26.4145 
G01 X-95.5182 Y26.2551 
G01 X-95.4224 Y26.1116 
G01 X-95.3004 Y25.9896 
G01 X-95.1569 Y25.8938 
G01 X-94.9975 Y25.8278 
G01 X-94.8283 Y25.7941 
G01 X-94.4743 Y25.7941 
G01 X-94.4550 Y25.7812 
G01 X-94.2725 Y25.7056 
G01 X-94.0788 Y25.6671 
G01 X-90.0712 Y25.6671 
G01 X-89.8775 Y25.7056 
G01 X-89.6949 Y25.7812 
G01 X-89.5307 Y25.8910 
G01 X-89.3910 Y26.0307 
G01 X-89.2812 Y26.1949 
G01 X-89.2056 Y26.3775 
G01 X-89.1671 Y26.5712 
G01 X-89.1671 Y38.3671 
G01 X-26.5712 Y38.3671 
G01 X-26.3775 Y38.4056 
G01 X-26.1949 Y38.4812 
G01 X-26.0307 Y38.5910 
G01 X-25.8910 Y38.7307 
G00 Z2.0000  F3000
G00 X-35.0016 Y35.7324  F3000
G01 Z-0.2000 F200.00 
G01 X-35.1451 Y35.8282 F500.00 
G01 X-35.3045 Y35.8942 
G01 X-35.4737 Y35.9279 
G01 X-35.6463 Y35.9279 
G01 X-35.8155 Y35.8942 
G01 X-35.9749 Y35.8282 
G01 X-36.1184 Y35.7324 
G01 X-36.2404 Y35.6104 
G01 X-36.3362 Y35.4669 
G01 X-36.4022 Y35.3075 
G01 X-36.4359 Y35.1383 
G01 X-36.4359 Y34.7841 
G01 X-38.6367 Y31.4829 
G01 X-39.7803 Y31.4829 
G01 X-39.7934 Y31.5145 
G01 X-39.8255 Y31.5466 
G01 X-39.8673 Y31.5639 
G01 X-39.9856 Y31.5639 
G01 X-40.0007 Y31.5790 
G01 X-40.1649 Y31.6888 
G01 X-40.3475 Y31.7644 
G01 X-40.5412 Y31.8029 
G01 X-40.7388 Y31.8029 
G01 X-40.9325 Y31.7644 
G01 X-41.1150 Y31.6888 
G01 X-41.2793 Y31.5790 
G01 X-41.2944 Y31.5639 
G01 X-41.4127 Y31.5639 
G01 X-41.4545 Y31.5466 
G01 X-41.4866 Y31.5145 
G01 X-41.5039 Y31.4727 
G01 X-41.5039 Y31.3544 
G01 X-42.6454 Y30.2129 
G01 X-42.7646 Y30.2129 
G01 X-43.4471 Y30.8954 
G01 X-43.4471 Y30.8988 
G01 X-43.4581 Y30.9539 
G01 X-43.4643 Y31.0097 
G01 X-43.4773 Y31.0505 
G01 X-43.4856 Y31.0925 
G01 X-43.5071 Y31.1444 
G01 X-43.5241 Y31.1979 
G01 X-43.5361 Y31.2196 
G01 X-43.5361 Y31.4727 
G01 X-43.5534 Y31.5145 
G01 X-43.5855 Y31.5466 
G01 X-43.6273 Y31.5639 
G01 X-43.7956 Y31.5639 
G01 X-43.8107 Y31.5790 
G01 X-43.8574 Y31.6102 
G01 X-43.9013 Y31.6453 
G01 X-43.9393 Y31.6649 
G01 X-43.9749 Y31.6888 
G01 X-44.0269 Y31.7103 
G01 X-44.0767 Y31.7361 
G01 X-44.1179 Y31.7480 
G01 X-44.1228 Y31.7500 
G01 X-43.9749 Y31.8112 
G01 X-43.8107 Y31.9210 
G01 X-43.7956 Y31.9361 
G01 X-43.6273 Y31.9361 
G01 X-43.5855 Y31.9534 
G01 X-43.5534 Y31.9855 
G01 X-43.5361 Y32.0273 
G01 X-43.5361 Y32.2856 
G01 X-43.4856 Y32.4075 
G01 X-43.4471 Y32.6012 
G01 X-43.4471 Y32.7988 
G01 X-43.4856 Y32.9925 
G01 X-43.5361 Y33.1144 
G01 X-43.5361 Y33.3727 
G01 X-43.5534 Y33.4145 
G01 X-43.5855 Y33.4466 
G01 X-43.6273 Y33.4639 
G01 X-43.7956 Y33.4639 
G01 X-45.4007 Y35.0690 
G01 X-45.5649 Y35.1788 
G01 X-45.7475 Y35.2544 
G01 X-45.9412 Y35.2929 
G01 X-58.5188 Y35.2929 
G01 X-58.7125 Y35.2544 
G01 X-58.8950 Y35.1788 
G01 X-59.0593 Y35.0690 
G01 X-59.1990 Y34.9293 
G01 X-59.3088 Y34.7651 
G01 X-59.3844 Y34.5825 
G01 X-59.4229 Y34.3888 
G01 X-59.4229 Y13.8712 
G01 X-59.3844 Y13.6775 
G01 X-59.3088 Y13.4949 
G01 X-59.1990 Y13.3307 
G01 X-59.0593 Y13.1910 
G01 X-58.8950 Y13.0812 
G01 X-58.7125 Y13.0056 
G01 X-58.5188 Y12.9671 
G01 X-55.7534 Y12.9671 
G01 X-55.6257 Y12.9417 
G01 X-53.5943 Y12.9417 
G01 X-53.3957 Y12.9812 
G01 X-53.2085 Y13.0587 
G01 X-53.0401 Y13.1713 
G01 X-52.8969 Y13.3145 
G01 X-52.7843 Y13.4829 
G01 X-52.7068 Y13.6701 
G01 X-52.6673 Y13.8687 
G01 X-52.6673 Y14.0713 
G01 X-52.7068 Y14.2699 
G01 X-52.7843 Y14.4571 
G01 X-52.8969 Y14.6255 
G01 X-53.0401 Y14.7687 
G01 X-53.2085 Y14.8813 
G01 X-53.3957 Y14.9588 
G01 X-53.5943 Y14.9983 
G01 X-55.6257 Y14.9983 
G01 X-55.7534 Y14.9729 
G01 X-57.4171 Y14.9729 
G01 X-57.4171 Y33.2871 
G01 X-46.4554 Y33.2871 
G01 X-45.3639 Y32.1956 
G01 X-45.3639 Y32.0273 
G01 X-45.3466 Y31.9855 
G01 X-45.3145 Y31.9534 
G01 X-45.2727 Y31.9361 
G01 X-45.1044 Y31.9361 
G01 X-45.0893 Y31.9210 
G01 X-44.9250 Y31.8112 
G01 X-44.8201 Y31.7677 
G01 X-47.3659 Y31.4829 
G01 X-49.6288 Y31.4829 
G01 X-49.8225 Y31.4444 
G01 X-50.0050 Y31.3688 
G01 X-50.1693 Y31.2590 
G01 X-50.3090 Y31.1193 
G01 X-51.2154 Y30.2129 
G01 X-53.4666 Y30.2129 
G01 X-53.5943 Y30.2383 
G01 X-55.6257 Y30.2383 
G01 X-55.8243 Y30.1988 
G01 X-56.0115 Y30.1213 
G01 X-56.1799 Y30.0087 
G01 X-56.3231 Y29.8655 
G01 X-56.4357 Y29.6971 
G01 X-56.5132 Y29.5099 
G01 X-56.5527 Y29.3113 
G01 X-56.5527 Y29.1087 
G01 X-56.5132 Y28.9101 
G01 X-56.4357 Y28.7229 
G01 X-56.3231 Y28.5545 
G01 X-56.1799 Y28.4113 
G01 X-56.0115 Y28.2987 
G01 X-55.8243 Y28.2212 
G01 X-55.6257 Y28.1817 
G01 X-53.5943 Y28.1817 
G01 X-53.4666 Y28.2071 
G01 X-50.7012 Y28.2071 
G01 X-50.5075 Y28.2456 
G01 X-50.3249 Y28.3212 
G01 X-50.1607 Y28.4310 
G01 X-49.1146 Y29.4771 
G01 X-47.3526 Y29.4771 
G01 X-47.2966 Y29.4723 
G01 X-47.2541 Y29.4771 
G01 X-47.2112 Y29.4771 
G01 X-47.1561 Y29.4881 
G01 X-45.1058 Y29.7175 
G01 X-43.9590 Y28.5707 
G01 X-43.8193 Y28.4310 
G01 X-43.6551 Y28.3212 
G01 X-43.4725 Y28.2456 
G01 X-43.2788 Y28.2071 
G01 X-42.1312 Y28.2071 
G01 X-41.9375 Y28.2456 
G01 X-41.7549 Y28.3212 
G01 X-41.5907 Y28.4310 
G01 X-40.5237 Y29.4980 
G01 X-40.4188 Y29.4771 
G01 X-38.1982 Y29.4771 
G01 X-38.0990 Y29.4771 
G01 X-38.0012 Y29.4771 
G01 X-37.9035 Y29.4965 
G01 X-37.8075 Y29.5156 
G01 X-37.7155 Y29.5537 
G01 X-37.6249 Y29.5912 
G01 X-37.5421 Y29.6466 
G01 X-37.4607 Y29.7010 
G01 X-37.3901 Y29.7716 
G01 X-37.3210 Y29.8407 
G01 X-37.2661 Y29.9228 
G01 X-37.2112 Y30.0049 
G01 X-35.4425 Y32.6583 
G01 X-35.3045 Y32.6858 
G01 X-35.1451 Y32.7518 
G01 X-35.0016 Y32.8476 
G01 X-34.8796 Y32.9696 
G01 X-34.7838 Y33.1131 
G01 X-34.7178 Y33.2725 
G01 X-34.6841 Y33.4417 
G01 X-34.6841 Y33.7958 
G01 X-34.6707 Y33.8159 
G01 X-34.5953 Y33.9985 
G01 X-34.5570 Y34.1923 
G01 X-34.5572 Y34.3898 
G01 X-34.5959 Y34.5835 
G01 X-34.6717 Y34.7660 
G01 X-34.6841 Y34.7844 
G01 X-34.6841 Y35.1383 
G01 X-34.7178 Y35.3075 
G01 X-34.7838 Y35.4669 
G01 X-34.8796 Y35.6104 
G01 X-35.0016 Y35.7324 
G00 Z2.0000  F3000
G00 X-42.7855 Y25.0266  F3000
G01 Z-0.2000 F200.00 
G01 X-42.8273 Y25.0439 F500.00 
G01 X-43.0856 Y25.0439 
G01 X-43.2075 Y25.0944 
G01 X-43.4012 Y25.1329 
G01 X-43.5988 Y25.1329 
G01 X-43.7925 Y25.0944 
G01 X-43.9144 Y25.0439 
G01 X-44.1727 Y25.0439 
G01 X-44.2145 Y25.0266 
G01 X-44.2466 Y24.9945 
G01 X-44.2639 Y24.9527 
G01 X-44.2639 Y24.7844 
G01 X-44.2790 Y24.7693 
G01 X-44.3888 Y24.6050 
G01 X-44.4500 Y24.4572 
G01 X-44.5112 Y24.6050 
G01 X-44.6210 Y24.7693 
G01 X-44.6361 Y24.7844 
G01 X-44.6361 Y24.9527 
G01 X-44.6534 Y24.9945 
G01 X-44.6855 Y25.0266 
G01 X-44.7273 Y25.0439 
G01 X-44.9856 Y25.0439 
G01 X-45.1075 Y25.0944 
G01 X-45.3012 Y25.1329 
G01 X-47.8446 Y25.1329 
G01 X-50.1607 Y27.4490 
G01 X-50.3249 Y27.5588 
G01 X-50.5075 Y27.6344 
G01 X-50.7012 Y27.6729 
G01 X-53.4666 Y27.6729 
G01 X-53.5943 Y27.6983 
G01 X-55.6257 Y27.6983 
G01 X-55.8243 Y27.6588 
G01 X-56.0115 Y27.5813 
G01 X-56.1799 Y27.4687 
G01 X-56.3231 Y27.3255 
G01 X-56.4357 Y27.1571 
G01 X-56.5132 Y26.9699 
G01 X-56.5527 Y26.7713 
G01 X-56.5527 Y26.5687 
G01 X-56.5132 Y26.3701 
G01 X-56.4357 Y26.1829 
G01 X-56.3231 Y26.0145 
G01 X-56.1799 Y25.8713 
G01 X-56.0115 Y25.7587 
G01 X-55.8243 Y25.6812 
G01 X-55.6257 Y25.6417 
G01 X-53.5943 Y25.6417 
G01 X-53.4666 Y25.6671 
G01 X-51.2154 Y25.6671 
G01 X-49.0390 Y23.4907 
G01 X-48.8993 Y23.3510 
G01 X-48.7351 Y23.2412 
G01 X-48.5525 Y23.1656 
G01 X-48.3588 Y23.1271 
G01 X-45.3012 Y23.1271 
G01 X-45.1075 Y23.1656 
G01 X-44.9856 Y23.2161 
G01 X-44.7273 Y23.2161 
G01 X-44.6855 Y23.2334 
G01 X-44.6534 Y23.2655 
G01 X-44.6361 Y23.3073 
G01 X-44.6361 Y23.4756 
G01 X-44.6210 Y23.4907 
G01 X-44.5112 Y23.6549 
G01 X-44.5029 Y23.6751 
G01 X-44.5029 Y21.6612 
G01 X-44.4644 Y21.4675 
G01 X-44.3888 Y21.2849 
G01 X-44.2790 Y21.1207 
G01 X-43.6493 Y20.4910 
G01 X-43.4851 Y20.3812 
G01 X-43.3025 Y20.3056 
G01 X-43.1088 Y20.2671 
G01 X-42.9112 Y20.2671 
G01 X-42.7175 Y20.3056 
G01 X-42.5349 Y20.3812 
G01 X-42.3707 Y20.4910 
G01 X-42.2310 Y20.6307 
G01 X-42.1212 Y20.7949 
G01 X-42.0456 Y20.9775 
G01 X-42.0071 Y21.1712 
G01 X-42.0071 Y21.3688 
G01 X-42.0456 Y21.5625 
G01 X-42.1212 Y21.7450 
G01 X-42.2310 Y21.9093 
G01 X-42.4971 Y22.1754 
G01 X-42.4971 Y24.2288 
G01 X-42.5356 Y24.4225 
G01 X-42.6112 Y24.6050 
G01 X-42.7210 Y24.7693 
G01 X-42.7361 Y24.7844 
G01 X-42.7361 Y24.9527 
G01 X-42.7534 Y24.9945 
G01 X-42.7855 Y25.0266 
G00 Z2.0000  F3000
G00 X-53.0401 Y24.9287  F3000
G01 Z-0.2000 F200.00 
G01 X-53.2085 Y25.0413 F500.00 
G01 X-53.3957 Y25.1188 
G01 X-53.5943 Y25.1583 
G01 X-55.6257 Y25.1583 
G01 X-55.8243 Y25.1188 
G01 X-56.0115 Y25.0413 
G01 X-56.1799 Y24.9287 
G01 X-56.3231 Y24.7855 
G01 X-56.4357 Y24.6171 
G01 X-56.5132 Y24.4299 
G01 X-56.5527 Y24.2313 
G01 X-56.5527 Y24.0287 
G01 X-56.5132 Y23.8301 
G01 X-56.4357 Y23.6429 
G01 X-56.3231 Y23.4745 
G01 X-56.1799 Y23.3313 
G01 X-56.0115 Y23.2187 
G01 X-55.8243 Y23.1412 
G01 X-55.6257 Y23.1017 
G01 X-53.5943 Y23.1017 
G01 X-53.3957 Y23.1412 
G01 X-53.2085 Y23.2187 
G01 X-53.0401 Y23.3313 
G01 X-52.8969 Y23.4745 
G01 X-52.7843 Y23.6429 
G01 X-52.7068 Y23.8301 
G01 X-52.6673 Y24.0287 
G01 X-52.6673 Y24.2313 
G01 X-52.7068 Y24.4299 
G01 X-52.7843 Y24.6171 
G01 X-52.8969 Y24.7855 
G01 X-53.0401 Y24.9287 
G00 Z2.0000  F3000
G00 X-53.0401 Y22.3887  F3000
G01 Z-0.2000 F200.00 
G01 X-53.2085 Y22.5013 F500.00 
G01 X-53.3957 Y22.5788 
G01 X-53.5943 Y22.6183 
G01 X-55.6257 Y22.6183 
G01 X-55.8243 Y22.5788 
G01 X-56.0115 Y22.5013 
G01 X-56.1799 Y22.3887 
G01 X-56.3231 Y22.2455 
G01 X-56.4357 Y22.0771 
G01 X-56.5132 Y21.8899 
G01 X-56.5527 Y21.6913 
G01 X-56.5527 Y21.4887 
G01 X-56.5132 Y21.2901 
G01 X-56.4357 Y21.1029 
G01 X-56.3231 Y20.9345 
G01 X-56.1799 Y20.7913 
G01 X-56.0115 Y20.6787 
G01 X-55.8243 Y20.6012 
G01 X-55.6257 Y20.5617 
G01 X-53.5943 Y20.5617 
G01 X-53.3957 Y20.6012 
G01 X-53.2085 Y20.6787 
G01 X-53.0401 Y20.7913 
G01 X-52.8969 Y20.9345 
G01 X-52.7843 Y21.1029 
G01 X-52.7068 Y21.2901 
G01 X-52.6673 Y21.4887 
G01 X-52.6673 Y21.6913 
G01 X-52.7068 Y21.8899 
G01 X-52.7843 Y22.0771 
G01 X-52.8969 Y22.2455 
G01 X-53.0401 Y22.3887 
G00 Z2.0000  F3000
G00 X-53.0401 Y19.8487  F3000
G01 Z-0.2000 F200.00 
G01 X-53.2085 Y19.9613 F500.00 
G01 X-53.3957 Y20.0388 
G01 X-53.5943 Y20.0783 
G01 X-55.6257 Y20.0783 
G01 X-55.8243 Y20.0388 
G01 X-56.0115 Y19.9613 
G01 X-56.1799 Y19.8487 
G01 X-56.3231 Y19.7055 
G01 X-56.4357 Y19.5371 
G01 X-56.5132 Y19.3499 
G01 X-56.5527 Y19.1513 
G01 X-56.5527 Y18.9487 
G01 X-56.5132 Y18.7501 
G01 X-56.4357 Y18.5629 
G01 X-56.3231 Y18.3945 
G01 X-56.1799 Y18.2513 
G01 X-56.0115 Y18.1387 
G01 X-55.8243 Y18.0612 
G01 X-55.6257 Y18.0217 
G01 X-53.5943 Y18.0217 
G01 X-53.3957 Y18.0612 
G01 X-53.2085 Y18.1387 
G01 X-53.0401 Y18.2513 
G01 X-52.8969 Y18.3945 
G01 X-52.7843 Y18.5629 
G01 X-52.7068 Y18.7501 
G01 X-52.6673 Y18.9487 
G01 X-52.6673 Y19.1513 
G01 X-52.7068 Y19.3499 
G01 X-52.7843 Y19.5371 
G01 X-52.8969 Y19.7055 
G01 X-53.0401 Y19.8487 
G00 Z2.0000  F3000
G00 X-53.0401 Y17.3087  F3000
G01 Z-0.2000 F200.00 
G01 X-53.2085 Y17.4213 F500.00 
G01 X-53.3957 Y17.4988 
G01 X-53.5943 Y17.5383 
G01 X-55.6257 Y17.5383 
G01 X-55.8243 Y17.4988 
G01 X-56.0115 Y17.4213 
G01 X-56.1799 Y17.3087 
G01 X-56.3231 Y17.1655 
G01 X-56.4357 Y16.9971 
G01 X-56.5132 Y16.8099 
G01 X-56.5527 Y16.6113 
G01 X-56.5527 Y16.4087 
G01 X-56.5132 Y16.2101 
G01 X-56.4357 Y16.0229 
G01 X-56.3231 Y15.8545 
G01 X-56.1799 Y15.7113 
G01 X-56.0115 Y15.5987 
G01 X-55.8243 Y15.5212 
G01 X-55.6257 Y15.4817 
G01 X-53.5943 Y15.4817 
G01 X-53.3957 Y15.5212 
G01 X-53.2085 Y15.5987 
G01 X-53.0401 Y15.7113 
G01 X-52.8969 Y15.8545 
G01 X-52.7843 Y16.0229 
G01 X-52.7068 Y16.2101 
G01 X-52.6673 Y16.4087 
G01 X-52.6673 Y16.6113 
G01 X-52.7068 Y16.8099 
G01 X-52.7843 Y16.9971 
G01 X-52.8969 Y17.1655 
G01 X-53.0401 Y17.3087 
G00 Z2.0000  F3000
G00 X-53.0401 Y30.9513  F3000
G01 Z-0.2000 F200.00 
G01 X-52.8969 Y31.0945 F500.00 
G01 X-52.7843 Y31.2629 
G01 X-52.7068 Y31.4501 
G01 X-52.6673 Y31.6487 
G01 X-52.6673 Y31.8513 
G01 X-52.7068 Y32.0499 
G01 X-52.7843 Y32.2371 
G01 X-52.8969 Y32.4055 
G01 X-53.0401 Y32.5487 
G01 X-53.2085 Y32.6613 
G01 X-53.3957 Y32.7388 
G01 X-53.5943 Y32.7783 
G01 X-55.6257 Y32.7783 
G01 X-55.8243 Y32.7388 
G01 X-56.0115 Y32.6613 
G01 X-56.1799 Y32.5487 
G01 X-56.3231 Y32.4055 
G01 X-56.4357 Y32.2371 
G01 X-56.5132 Y32.0499 
G01 X-56.5527 Y31.8513 
G01 X-56.5527 Y31.6487 
G01 X-56.5132 Y31.4501 
G01 X-56.4357 Y31.2629 
G01 X-56.3231 Y31.0945 
G01 X-56.1799 Y30.9513 
G01 X-56.0115 Y30.8387 
G01 X-55.8243 Y30.7612 
G01 X-55.6257 Y30.7217 
G01 X-53.5943 Y30.7217 
G01 X-53.3957 Y30.7612 
G01 X-53.2085 Y30.8387 
G01 X-53.0401 Y30.9513 
G00 Z2.0000  F3000
G00 X-75.7329 Y30.9550  F3000
G01 Z-0.2000 F200.00 
G01 X-75.7727 Y30.8589 F500.00 
G01 X-75.8085 Y30.7725 
G01 X-75.8348 Y30.6403 
G01 X-75.8471 Y30.5788 
G01 X-75.8471 Y30.4789 
G01 X-75.8471 Y30.3812 
G01 X-75.8392 Y30.3415 
G01 X-75.8085 Y30.1875 
G01 X-75.7709 Y30.0967 
G01 X-75.7329 Y30.0049 
G01 X-75.6656 Y29.9043 
G01 X-75.6232 Y29.8407 
G01 X-75.6186 Y29.8361 
G01 X-75.4503 Y29.4299 
G01 X-75.4503 Y28.9901 
G01 X-75.6186 Y28.5839 
G01 X-75.6232 Y28.5793 
G01 X-75.6674 Y28.5131 
G01 X-75.7329 Y28.4150 
G01 X-75.7727 Y28.3189 
G01 X-75.8085 Y28.2325 
G01 X-75.8348 Y28.1003 
G01 X-75.8471 Y28.0388 
G01 X-75.8471 Y27.9389 
G01 X-75.8471 Y27.8412 
G01 X-75.8392 Y27.8015 
G01 X-75.8085 Y27.6475 
G01 X-75.7709 Y27.5567 
G01 X-75.7329 Y27.4649 
G01 X-75.6656 Y27.3643 
G01 X-75.6232 Y27.3007 
G01 X-75.6186 Y27.2961 
G01 X-75.4503 Y26.8899 
G01 X-75.4503 Y26.4501 
G01 X-75.6186 Y26.0439 
G01 X-75.6232 Y26.0393 
G01 X-75.6674 Y25.9731 
G01 X-75.7329 Y25.8750 
G01 X-75.7727 Y25.7789 
G01 X-75.8085 Y25.6925 
G01 X-75.8348 Y25.5603 
G01 X-75.8471 Y25.4988 
G01 X-75.8471 Y25.3989 
G01 X-75.8471 Y25.3012 
G01 X-75.8392 Y25.2615 
G01 X-75.8085 Y25.1075 
G01 X-75.7709 Y25.0167 
G01 X-75.7329 Y24.9249 
G01 X-75.6656 Y24.8243 
G01 X-75.6232 Y24.7607 
G01 X-75.6186 Y24.7561 
G01 X-75.4503 Y24.3499 
G01 X-75.4503 Y23.9101 
G01 X-75.6186 Y23.5039 
G01 X-75.6231 Y23.4993 
G01 X-75.6674 Y23.4331 
G01 X-75.7329 Y23.3351 
G01 X-75.7727 Y23.2389 
G01 X-75.8085 Y23.1526 
G01 X-75.8400 Y22.9941 
G01 X-75.8470 Y22.9588 
G01 X-75.8471 Y22.8589 
G01 X-75.8471 Y22.7612 
G01 X-75.8341 Y22.6960 
G01 X-75.8085 Y22.5675 
G01 X-75.7709 Y22.4767 
G01 X-75.7329 Y22.3850 
G01 X-75.6657 Y22.2843 
G01 X-75.6232 Y22.2207 
G01 X-75.6186 Y22.2161 
G01 X-75.4503 Y21.8099 
G01 X-75.4503 Y21.3701 
G01 X-75.6186 Y20.9639 
G01 X-75.6232 Y20.9593 
G01 X-75.6674 Y20.8931 
G01 X-75.7329 Y20.7950 
G01 X-75.7727 Y20.6989 
G01 X-75.8085 Y20.6125 
G01 X-75.8348 Y20.4803 
G01 X-75.8471 Y20.4188 
G01 X-75.8471 Y20.3189 
G01 X-75.8471 Y20.2212 
G01 X-75.8392 Y20.1815 
G01 X-75.8085 Y20.0275 
G01 X-75.7709 Y19.9367 
G01 X-75.7329 Y19.8449 
G01 X-75.6656 Y19.7443 
G01 X-75.6232 Y19.6807 
G01 X-75.6186 Y19.6761 
G01 X-75.4503 Y19.2699 
G01 X-75.4503 Y18.8301 
G01 X-75.6174 Y18.4267 
G01 X-75.6290 Y18.4135 
G01 X-75.6756 Y18.3669 
G01 X-75.6939 Y18.3394 
G01 X-75.7157 Y18.3146 
G01 X-75.7487 Y18.2575 
G01 X-75.7853 Y18.2026 
G01 X-75.7980 Y18.1721 
G01 X-75.8145 Y18.1435 
G01 X-75.8357 Y18.0810 
G01 X-75.8609 Y18.0201 
G01 X-75.8674 Y17.9877 
G01 X-75.8780 Y17.9564 
G01 X-75.8866 Y17.8910 
G01 X-75.8995 Y17.8264 
G01 X-75.8995 Y17.7933 
G01 X-75.9038 Y17.7605 
G01 X-75.8995 Y17.6947 
G01 X-75.8995 Y17.6288 
G01 X-75.8930 Y17.5964 
G01 X-75.8909 Y17.5634 
G01 X-75.8773 Y17.5129 
G01 X-76.3267 Y17.5129 
G01 X-76.4543 Y17.5383 
G01 X-78.4857 Y17.5383 
G01 X-78.6133 Y17.5129 
G01 X-79.5489 Y17.5129 
G01 X-79.5727 Y17.5542 
G01 X-79.5945 Y17.5790 
G01 X-79.6129 Y17.6065 
G01 X-79.6595 Y17.6531 
G01 X-79.7030 Y17.7027 
G01 X-79.7292 Y17.7228 
G01 X-79.7526 Y17.7462 
G01 X-79.8074 Y17.7828 
G01 X-79.8597 Y17.8230 
G01 X-79.8893 Y17.8376 
G01 X-79.9168 Y17.8560 
G01 X-79.9777 Y17.8812 
G01 X-80.0369 Y17.9103 
G01 X-80.0688 Y17.9189 
G01 X-80.0993 Y17.9316 
G01 X-80.1640 Y17.9444 
G01 X-80.2277 Y17.9615 
G01 X-80.2607 Y17.9636 
G01 X-80.2931 Y17.9701 
G01 X-80.3590 Y17.9701 
G01 X-80.4248 Y17.9744 
G01 X-80.4576 Y17.9701 
G01 X-81.1426 Y17.9701 
G01 X-81.1754 Y17.9744 
G01 X-81.2411 Y17.9701 
G01 X-81.3071 Y17.9701 
G01 X-81.3395 Y17.9636 
G01 X-81.3725 Y17.9615 
G01 X-81.4362 Y17.9444 
G01 X-81.5008 Y17.9316 
G01 X-81.5314 Y17.9189 
G01 X-81.5633 Y17.9104 
G01 X-81.6224 Y17.8812 
G01 X-81.6834 Y17.8560 
G01 X-81.7108 Y17.8376 
G01 X-81.7405 Y17.8230 
G01 X-81.7928 Y17.7828 
G01 X-81.8476 Y17.7462 
G01 X-81.8710 Y17.7228 
G01 X-81.8972 Y17.7027 
G01 X-81.9407 Y17.6531 
G01 X-81.9873 Y17.6065 
G01 X-82.0057 Y17.5790 
G01 X-82.0275 Y17.5542 
G01 X-82.0513 Y17.5129 
G01 X-85.0615 Y17.5129 
G01 X-85.0445 Y17.5767 
G01 X-85.0423 Y17.6096 
G01 X-85.0358 Y17.6421 
G01 X-85.0358 Y17.7080 
G01 X-85.0315 Y17.7738 
G01 X-85.0358 Y17.8066 
G01 X-85.0358 Y17.8396 
G01 X-85.0487 Y17.9043 
G01 X-85.0573 Y17.9697 
G01 X-85.0679 Y18.0010 
G01 X-85.0744 Y18.0334 
G01 X-85.0996 Y18.0943 
G01 X-85.1208 Y18.1567 
G01 X-85.1373 Y18.1853 
G01 X-85.1500 Y18.2159 
G01 X-85.1866 Y18.2707 
G01 X-85.2196 Y18.3278 
G01 X-85.2414 Y18.3526 
G01 X-85.2597 Y18.3801 
G01 X-85.3064 Y18.4268 
G01 X-85.3498 Y18.4763 
G01 X-85.3761 Y18.4965 
G01 X-85.3898 Y18.5102 
G01 X-85.5349 Y18.8605 
G01 X-85.5349 Y19.2395 
G01 X-85.3898 Y19.5898 
G01 X-85.2989 Y19.6807 
G01 X-85.2544 Y19.7474 
G01 X-85.1892 Y19.8449 
G01 X-85.1136 Y20.0275 
G01 X-85.1002 Y20.0945 
G01 X-85.0750 Y20.2212 
G01 X-85.0750 Y20.4188 
G01 X-85.0984 Y20.5366 
G01 X-85.1136 Y20.6125 
G01 X-85.1328 Y20.6590 
G01 X-85.1892 Y20.7950 
G01 X-85.1921 Y20.7995 
G01 X-85.2989 Y20.9593 
G01 X-85.3036 Y20.9640 
G01 X-85.3898 Y21.0502 
G01 X-85.5349 Y21.4005 
G01 X-85.5349 Y21.7795 
G01 X-85.3898 Y22.1298 
G01 X-85.2989 Y22.2207 
G01 X-85.2544 Y22.2873 
G01 X-85.1892 Y22.3849 
G01 X-85.1136 Y22.5675 
G01 X-85.1002 Y22.6345 
G01 X-85.0750 Y22.7612 
G01 X-85.0750 Y22.9588 
G01 X-85.0984 Y23.0766 
G01 X-85.1136 Y23.1525 
G01 X-85.1328 Y23.1990 
G01 X-85.1892 Y23.3350 
G01 X-85.1921 Y23.3394 
G01 X-85.2989 Y23.4993 
G01 X-85.3036 Y23.5040 
G01 X-85.3898 Y23.5902 
G01 X-85.5349 Y23.9405 
G01 X-85.5349 Y24.3195 
G01 X-85.3898 Y24.6698 
G01 X-85.2989 Y24.7607 
G01 X-85.2544 Y24.8273 
G01 X-85.1892 Y24.9249 
G01 X-85.1136 Y25.1075 
G01 X-85.1002 Y25.1745 
G01 X-85.0750 Y25.3012 
G01 X-85.0750 Y25.4988 
G01 X-85.0984 Y25.6166 
G01 X-85.1136 Y25.6925 
G01 X-85.1328 Y25.7390 
G01 X-85.1892 Y25.8751 
G01 X-85.1921 Y25.8794 
G01 X-85.2989 Y26.0393 
G01 X-85.3036 Y26.0440 
G01 X-85.3898 Y26.1302 
G01 X-85.5349 Y26.4805 
G01 X-85.5349 Y26.8595 
G01 X-85.3898 Y27.2098 
G01 X-85.1218 Y27.4778 
G01 X-84.7715 Y27.6229 
G01 X-84.4421 Y27.6229 
G01 X-84.2484 Y27.6614 
G01 X-84.1099 Y27.7188 
G01 X-84.0658 Y27.7370 
G01 X-84.0348 Y27.7499 
G01 X-80.5757 Y27.7499 
G01 X-80.4758 Y27.7499 
G01 X-80.3781 Y27.7499 
G01 X-80.2621 Y27.7730 
G01 X-80.1844 Y27.7884 
G01 X-80.0875 Y27.8286 
G01 X-80.0019 Y27.8640 
G01 X-79.9181 Y27.9200 
G01 X-79.8376 Y27.9738 
G01 X-79.7672 Y28.0442 
G01 X-79.6979 Y28.1135 
G01 X-79.6432 Y28.1954 
G01 X-79.5882 Y28.2777 
G01 X-79.5521 Y28.3648 
G01 X-79.5126 Y28.4603 
G01 X-79.4978 Y28.5346 
G01 X-79.4740 Y28.6540 
G01 X-79.4740 Y28.7539 
G01 X-79.4740 Y28.8516 
G01 X-79.4897 Y28.9304 
G01 X-79.4897 Y29.4299 
G01 X-79.3214 Y29.8361 
G01 X-79.3169 Y29.8407 
G01 X-79.2726 Y29.9069 
G01 X-79.2071 Y30.0049 
G01 X-79.1673 Y30.1011 
G01 X-79.1315 Y30.1874 
G01 X-79.1000 Y30.3459 
G01 X-79.0929 Y30.3812 
G01 X-79.0929 Y30.4811 
G01 X-79.0929 Y30.5788 
G01 X-79.1059 Y30.6440 
G01 X-79.1315 Y30.7725 
G01 X-79.1691 Y30.8633 
G01 X-79.2071 Y30.9550 
G01 X-79.2743 Y31.0557 
G01 X-79.3168 Y31.1193 
G01 X-79.3214 Y31.1239 
G01 X-79.4897 Y31.5301 
G01 X-79.4897 Y31.9699 
G01 X-79.3214 Y32.3761 
G01 X-79.0105 Y32.6870 
G01 X-78.6043 Y32.8553 
G01 X-76.3357 Y32.8553 
G01 X-75.9295 Y32.6870 
G01 X-75.6186 Y32.3761 
G01 X-75.4503 Y31.9699 
G01 X-75.4503 Y31.5301 
G01 X-75.6186 Y31.1239 
G01 X-75.6232 Y31.1193 
G01 X-75.6674 Y31.0531 
G01 X-75.7329 Y30.9550 
G00 Z2.0000  F3000
G00 X-75.7569 Y31.0945  F3000
G01 Z-0.2000 F200.00 
G01 X-75.6443 Y31.2629 F500.00 
G01 X-75.5668 Y31.4501 
G01 X-75.5273 Y31.6487 
G01 X-75.5273 Y31.8513 
G01 X-75.5668 Y32.0499 
G01 X-75.6443 Y32.2371 
G01 X-75.7569 Y32.4055 
G01 X-75.9001 Y32.5487 
G01 X-76.0685 Y32.6613 
G01 X-76.2557 Y32.7388 
G01 X-76.4543 Y32.7783 
G01 X-78.4857 Y32.7783 
G01 X-78.6843 Y32.7388 
G01 X-78.8715 Y32.6613 
G01 X-79.0399 Y32.5487 
G01 X-79.1831 Y32.4055 
G01 X-79.2957 Y32.2371 
G01 X-79.3732 Y32.0499 
G01 X-79.4127 Y31.8513 
G01 X-79.4127 Y31.6487 
G01 X-79.3732 Y31.4501 
G01 X-79.2957 Y31.2629 
G01 X-79.1831 Y31.0945 
G01 X-79.0399 Y30.9513 
G01 X-78.8715 Y30.8387 
G01 X-78.6843 Y30.7612 
G01 X-78.4857 Y30.7217 
G01 X-76.4543 Y30.7217 
G01 X-76.2557 Y30.7612 
G01 X-76.0685 Y30.8387 
G01 X-75.9001 Y30.9513 
G01 X-75.7569 Y31.0945 
G00 Z2.0000  F3000
G00 X-75.9001 Y30.0087  F3000
G01 Z-0.2000 F200.00 
G01 X-76.0685 Y30.1213 F500.00 
G01 X-76.2557 Y30.1988 
G01 X-76.4543 Y30.2383 
G01 X-78.4857 Y30.2383 
G01 X-78.6843 Y30.1988 
G01 X-78.8715 Y30.1213 
G01 X-79.0399 Y30.0087 
G01 X-79.1831 Y29.8655 
G01 X-79.2957 Y29.6971 
G01 X-79.3732 Y29.5099 
G01 X-79.4127 Y29.3113 
G01 X-79.4127 Y29.1087 
G01 X-79.3732 Y28.9101 
G01 X-79.2957 Y28.7229 
G01 X-79.1831 Y28.5545 
G01 X-79.0399 Y28.4113 
G01 X-78.8715 Y28.2987 
G01 X-78.6843 Y28.2212 
G01 X-78.4857 Y28.1817 
G01 X-76.4543 Y28.1817 
G01 X-76.2557 Y28.2212 
G01 X-76.0685 Y28.2987 
G01 X-75.9001 Y28.4113 
G01 X-75.7569 Y28.5545 
G01 X-75.6443 Y28.7229 
G01 X-75.5668 Y28.9101 
G01 X-75.5273 Y29.1087 
G01 X-75.5273 Y29.3113 
G01 X-75.5668 Y29.5099 
G01 X-75.6443 Y29.6971 
G01 X-75.7569 Y29.8655 
G01 X-75.9001 Y30.0087 
G00 Z2.0000  F3000
G00 X-75.9001 Y27.4687  F3000
G01 Z-0.2000 F200.00 
G01 X-76.0685 Y27.5813 F500.00 
G01 X-76.2557 Y27.6588 
G01 X-76.4543 Y27.6983 
G01 X-78.4857 Y27.6983 
G01 X-78.6134 Y27.6729 
G01 X-83.9188 Y27.6729 
G01 X-84.1125 Y27.6344 
G01 X-84.2951 Y27.5588 
G01 X-84.3143 Y27.5459 
G01 X-84.6683 Y27.5459 
G01 X-84.8375 Y27.5122 
G01 X-84.9969 Y27.4462 
G01 X-85.1404 Y27.3504 
G01 X-85.2624 Y27.2284 
G01 X-85.3582 Y27.0849 
G01 X-85.4242 Y26.9255 
G01 X-85.4579 Y26.7563 
G01 X-85.4579 Y26.5837 
G01 X-85.4242 Y26.4145 
G01 X-85.3582 Y26.2551 
G01 X-85.2624 Y26.1116 
G01 X-85.1404 Y25.9896 
G01 X-84.9969 Y25.8938 
G01 X-84.8375 Y25.8278 
G01 X-84.6683 Y25.7941 
G01 X-84.3143 Y25.7941 
G01 X-84.2951 Y25.7812 
G01 X-84.1125 Y25.7056 
G01 X-83.9188 Y25.6671 
G01 X-78.6134 Y25.6671 
G01 X-78.4857 Y25.6417 
G01 X-76.4543 Y25.6417 
G01 X-76.2557 Y25.6812 
G01 X-76.0685 Y25.7587 
G01 X-75.9001 Y25.8713 
G01 X-75.7569 Y26.0145 
G01 X-75.6443 Y26.1829 
G01 X-75.5668 Y26.3701 
G01 X-75.5273 Y26.5687 
G01 X-75.5273 Y26.7713 
G01 X-75.5668 Y26.9699 
G01 X-75.6443 Y27.1571 
G01 X-75.7569 Y27.3255 
G01 X-75.9001 Y27.4687 
G00 Z2.0000  F3000
G00 X-75.9001 Y24.9287  F3000
G01 Z-0.2000 F200.00 
G01 X-76.0685 Y25.0413 F500.00 
G01 X-76.2557 Y25.1188 
G01 X-76.4543 Y25.1583 
G01 X-78.4857 Y25.1583 
G01 X-78.6134 Y25.1329 
G01 X-83.9188 Y25.1329 
G01 X-84.1125 Y25.0944 
G01 X-84.2951 Y25.0188 
G01 X-84.3143 Y25.0059 
G01 X-84.6683 Y25.0059 
G01 X-84.8375 Y24.9722 
G01 X-84.9969 Y24.9062 
G01 X-85.1404 Y24.8104 
G01 X-85.2624 Y24.6884 
G01 X-85.3582 Y24.5449 
G01 X-85.4242 Y24.3855 
G01 X-85.4579 Y24.2163 
G01 X-85.4579 Y24.0437 
G01 X-85.4242 Y23.8745 
G01 X-85.3582 Y23.7151 
G01 X-85.2624 Y23.5716 
G01 X-85.1404 Y23.4496 
G01 X-84.9969 Y23.3538 
G01 X-84.8375 Y23.2878 
G01 X-84.6683 Y23.2541 
G01 X-84.3143 Y23.2541 
G01 X-84.2951 Y23.2412 
G01 X-84.1125 Y23.1656 
G01 X-83.9188 Y23.1271 
G01 X-78.6134 Y23.1271 
G01 X-78.4857 Y23.1017 
G01 X-76.4543 Y23.1017 
G01 X-76.2557 Y23.1412 
G01 X-76.0685 Y23.2187 
G01 X-75.9001 Y23.3313 
G01 X-75.7569 Y23.4745 
G01 X-75.6443 Y23.6429 
G01 X-75.5668 Y23.8301 
G01 X-75.5273 Y24.0287 
G01 X-75.5273 Y24.2313 
G01 X-75.5668 Y24.4299 
G01 X-75.6443 Y24.6171 
G01 X-75.7569 Y24.7855 
G01 X-75.9001 Y24.9287 
G00 Z2.0000  F3000
G00 X-75.9001 Y22.3887  F3000
G01 Z-0.2000 F200.00 
G01 X-76.0685 Y22.5013 F500.00 
G01 X-76.2557 Y22.5788 
G01 X-76.4543 Y22.6183 
G01 X-78.4857 Y22.6183 
G01 X-78.6134 Y22.5929 
G01 X-83.9188 Y22.5929 
G01 X-84.1125 Y22.5544 
G01 X-84.2951 Y22.4788 
G01 X-84.3143 Y22.4659 
G01 X-84.6683 Y22.4659 
G01 X-84.8375 Y22.4322 
G01 X-84.9969 Y22.3662 
G01 X-85.1404 Y22.2704 
G01 X-85.2624 Y22.1484 
G01 X-85.3582 Y22.0049 
G01 X-85.4242 Y21.8455 
G01 X-85.4579 Y21.6763 
G01 X-85.4579 Y21.5037 
G01 X-85.4242 Y21.3345 
G01 X-85.3582 Y21.1751 
G01 X-85.2624 Y21.0316 
G01 X-85.1404 Y20.9096 
G01 X-84.9969 Y20.8138 
G01 X-84.8375 Y20.7478 
G01 X-84.6683 Y20.7141 
G01 X-84.3143 Y20.7141 
G01 X-84.2951 Y20.7012 
G01 X-84.1125 Y20.6256 
G01 X-83.9188 Y20.5871 
G01 X-78.6134 Y20.5871 
G01 X-78.4857 Y20.5617 
G01 X-76.4543 Y20.5617 
G01 X-76.2557 Y20.6012 
G01 X-76.0685 Y20.6787 
G01 X-75.9001 Y20.7913 
G01 X-75.7569 Y20.9345 
G01 X-75.6443 Y21.1029 
G01 X-75.5668 Y21.2901 
G01 X-75.5273 Y21.4887 
G01 X-75.5273 Y21.6913 
G01 X-75.5668 Y21.8899 
G01 X-75.6443 Y22.0771 
G01 X-75.7569 Y22.2455 
G01 X-75.9001 Y22.3887 
G00 Z2.0000  F3000
G00 X-75.9001 Y19.8487  F3000
G01 Z-0.2000 F200.00 
G01 X-76.0685 Y19.9613 F500.00 
G01 X-76.2557 Y20.0388 
G01 X-76.4543 Y20.0783 
G01 X-78.4857 Y20.0783 
G01 X-78.6134 Y20.0529 
G01 X-83.9188 Y20.0529 
G01 X-84.1125 Y20.0144 
G01 X-84.2951 Y19.9388 
G01 X-84.3143 Y19.9259 
G01 X-84.6683 Y19.9259 
G01 X-84.8375 Y19.8922 
G01 X-84.9969 Y19.8262 
G01 X-85.1404 Y19.7304 
G01 X-85.2624 Y19.6084 
G01 X-85.3582 Y19.4649 
G01 X-85.4242 Y19.3055 
G01 X-85.4579 Y19.1363 
G01 X-85.4579 Y18.9637 
G01 X-85.4242 Y18.7945 
G01 X-85.3582 Y18.6351 
G01 X-85.2624 Y18.4916 
G01 X-85.1404 Y18.3696 
G01 X-84.9969 Y18.2738 
G01 X-84.8375 Y18.2078 
G01 X-84.6683 Y18.1741 
G01 X-84.3143 Y18.1741 
G01 X-84.2951 Y18.1612 
G01 X-84.1125 Y18.0856 
G01 X-83.9188 Y18.0471 
G01 X-78.6134 Y18.0471 
G01 X-78.4857 Y18.0217 
G01 X-76.4543 Y18.0217 
G01 X-76.2557 Y18.0612 
G01 X-76.0685 Y18.1387 
G01 X-75.9001 Y18.2513 
G01 X-75.7569 Y18.3945 
G01 X-75.6443 Y18.5629 
G01 X-75.5668 Y18.7501 
G01 X-75.5273 Y18.9487 
G01 X-75.5273 Y19.1513 
G01 X-75.5668 Y19.3499 
G01 X-75.6443 Y19.5371 
G01 X-75.7569 Y19.7055 
G01 X-75.9001 Y19.8487 
G00 Z2.0000  F3000
G00 X-89.5307 Y17.2890  F3000
G01 Z-0.2000 F200.00 
G01 X-89.6949 Y17.3988 F500.00 
G01 X-89.8775 Y17.4744 
G01 X-90.0712 Y17.5129 
G01 X-92.6146 Y17.5129 
G01 X-93.5361 Y18.4344 
G01 X-93.5361 Y18.5527 
G01 X-93.5534 Y18.5945 
G01 X-93.5855 Y18.6266 
G01 X-93.6273 Y18.6439 
G01 X-93.7877 Y18.6439 
G01 X-93.8249 Y18.6688 
G01 X-94.0075 Y18.7444 
G01 X-94.2012 Y18.7829 
G01 X-94.3988 Y18.7829 
G01 X-94.5925 Y18.7444 
G01 X-94.7750 Y18.6688 
G01 X-94.8123 Y18.6439 
G01 X-94.9727 Y18.6439 
G01 X-95.0145 Y18.6266 
G01 X-95.0466 Y18.5945 
G01 X-95.0639 Y18.5527 
G01 X-95.0639 Y18.4344 
G01 X-95.0790 Y18.4193 
G01 X-95.1888 Y18.2551 
G01 X-95.2644 Y18.0725 
G01 X-95.3029 Y17.8788 
G01 X-95.3029 Y17.6812 
G01 X-95.2644 Y17.4875 
G01 X-95.1888 Y17.3049 
G01 X-95.0790 Y17.1407 
G01 X-95.0639 Y17.1256 
G01 X-95.0639 Y17.0073 
G01 X-95.0466 Y16.9655 
G01 X-95.0145 Y16.9334 
G01 X-94.9727 Y16.9161 
G01 X-94.8544 Y16.9161 
G01 X-94.2883 Y16.3500 
G01 X-94.7590 Y15.8793 
G01 X-94.8688 Y15.7150 
G01 X-94.9444 Y15.5325 
G01 X-94.9829 Y15.3388 
G01 X-94.9829 Y13.8712 
G01 X-94.9444 Y13.6775 
G01 X-94.8688 Y13.4949 
G01 X-94.7590 Y13.3307 
G01 X-94.6193 Y13.1910 
G01 X-94.4550 Y13.0812 
G01 X-94.2725 Y13.0056 
G01 X-94.0788 Y12.9671 
G01 X-93.8812 Y12.9671 
G01 X-93.6875 Y13.0056 
G01 X-93.5049 Y13.0812 
G01 X-93.3407 Y13.1910 
G01 X-93.2010 Y13.3307 
G01 X-93.0912 Y13.4949 
G01 X-93.0156 Y13.6775 
G01 X-92.9771 Y13.8712 
G01 X-92.9771 Y14.8246 
G01 X-92.2946 Y15.5071 
G01 X-90.0712 Y15.5071 
G01 X-89.8775 Y15.5456 
G01 X-89.6949 Y15.6212 
G01 X-89.5307 Y15.7310 
G01 X-89.3910 Y15.8707 
G01 X-89.2812 Y16.0349 
G01 X-89.2056 Y16.2175 
G01 X-89.1671 Y16.4112 
G01 X-89.1671 Y16.6088 
G01 X-89.2056 Y16.8025 
G01 X-89.2812 Y16.9851 
G01 X-89.3910 Y17.1493 
G01 X-89.5307 Y17.2890 
G00 Z2.0000  F3000
G00 X-4.7436 Y3.7181  F3000
G01 Z-0.2000 F200.00 
G01 X-4.5761 Y3.9364 F500.00 
G01 X-4.4385 Y4.1747 
G01 X-4.3332 Y4.4289 
G01 X-4.2620 Y4.6946 
G01 X-4.2261 Y4.9674 
G01 X-4.2261 Y9.0065 
G01 X-4.2620 Y9.2793 
G01 X-4.3332 Y9.5450 
G01 X-4.4385 Y9.7992 
G01 X-4.5761 Y10.0375 
G01 X-4.7436 Y10.2558 
G01 X-4.9381 Y10.4503 
G01 X-5.1564 Y10.6178 
G01 X-5.3947 Y10.7554 
G01 X-5.6489 Y10.8607 
G01 X-5.9146 Y10.9319 
G01 X-6.1874 Y10.9678 
G01 X-6.4626 Y10.9678 
G01 X-6.7354 Y10.9319 
G01 X-7.0011 Y10.8607 
G01 X-7.2553 Y10.7554 
G01 X-7.4936 Y10.6178 
G01 X-7.7119 Y10.4503 
G01 X-7.9064 Y10.2558 
G01 X-8.0739 Y10.0375 
G01 X-8.2115 Y9.7992 
G01 X-8.3168 Y9.5450 
G01 X-8.3880 Y9.2793 
G01 X-8.4239 Y9.0065 
G01 X-8.4239 Y5.9744 
G01 X-8.4894 Y5.9089 
G01 X-20.7611 Y5.9089 
G01 X-20.7611 Y8.9476 
G01 X-20.7970 Y9.2204 
G01 X-20.8682 Y9.4861 
G01 X-20.9735 Y9.7403 
G01 X-21.1111 Y9.9786 
G01 X-21.2786 Y10.1969 
G01 X-21.5531 Y10.4714 
G01 X-21.7714 Y10.6389 
G01 X-22.0097 Y10.7765 
G01 X-22.2639 Y10.8818 
G01 X-22.5296 Y10.9530 
G01 X-22.8024 Y10.9889 
G01 X-23.0776 Y10.9889 
G01 X-23.3504 Y10.9530 
G01 X-23.6161 Y10.8818 
G01 X-23.8703 Y10.7765 
G01 X-24.1086 Y10.6389 
G01 X-24.3269 Y10.4714 
G01 X-24.5214 Y10.2769 
G01 X-24.6889 Y10.0586 
G01 X-24.8265 Y9.8203 
G01 X-24.9318 Y9.5661 
G01 X-25.0030 Y9.3004 
G01 X-25.0389 Y9.0276 
G01 X-25.0389 Y8.7524 
G01 X-25.0030 Y8.4796 
G01 X-24.9589 Y8.3151 
G01 X-24.9589 Y3.6724 
G01 X-24.9230 Y3.3996 
G01 X-24.8518 Y3.1339 
G01 X-24.7465 Y2.8797 
G01 X-24.6089 Y2.6414 
G01 X-24.4414 Y2.4231 
G01 X-24.2469 Y2.2286 
G01 X-24.0286 Y2.0611 
G01 X-23.7903 Y1.9235 
G01 X-23.5361 Y1.8182 
G01 X-23.2704 Y1.7470 
G01 X-22.9976 Y1.7111 
G01 X-7.4824 Y1.7111 
G01 X-7.2096 Y1.7470 
G01 X-6.9439 Y1.8182 
G01 X-6.6897 Y1.9235 
G01 X-6.4514 Y2.0611 
G01 X-6.2331 Y2.2286 
G01 X-6.0386 Y2.4231 
G01 X-4.7436 Y3.7181 
G00 Z2.0000  F3000
G00 X-5.3713 Y12.8323  F3000
G01 Z-0.2000 F200.00 
G01 X-1.4234 Y16.7802 F500.00 
G01 X-1.2880 Y16.9666 
G01 X-1.1833 Y17.1720 
G01 X-1.1121 Y17.3911 
G01 X-1.0761 Y17.6187 
G01 X-1.0761 Y30.5952 
G01 X-1.1121 Y30.8228 
G01 X-1.1833 Y31.0419 
G01 X-1.2880 Y31.2473 
G01 X-1.4234 Y31.4337 
G01 X-1.5863 Y31.5966 
G01 X-1.7727 Y31.7320 
G01 X-1.9781 Y31.8366 
G01 X-2.1972 Y31.9078 
G01 X-2.4248 Y31.9439 
G01 X-2.6552 Y31.9439 
G01 X-2.7884 Y31.9228 
G01 X-6.4402 Y31.9228 
G01 X-6.6678 Y31.8867 
G01 X-6.8869 Y31.8155 
G01 X-7.0922 Y31.7109 
G01 X-7.2787 Y31.5755 
G01 X-7.4416 Y31.4126 
G01 X-7.5770 Y31.2262 
G01 X-7.6816 Y31.0208 
G01 X-7.7528 Y30.8017 
G01 X-7.7889 Y30.5741 
G01 X-7.7889 Y30.3437 
G01 X-7.7528 Y30.1161 
G01 X-7.6816 Y29.8970 
G01 X-7.5770 Y29.6916 
G01 X-7.4416 Y29.5052 
G01 X-7.2787 Y29.3423 
G01 X-7.0922 Y29.2069 
G01 X-6.8869 Y29.1023 
G01 X-6.6678 Y29.0310 
G01 X-6.4402 Y28.9950 
G01 X-4.0039 Y28.9950 
G01 X-4.0039 Y18.3403 
G01 X-7.3124 Y15.0318 
G01 X-7.7263 Y15.0318 
G01 X-7.8947 Y15.0051 
G01 X-8.0568 Y14.9525 
G01 X-8.2087 Y14.8751 
G01 X-8.3466 Y14.7749 
G01 X-13.5260 Y9.5955 
G01 X-13.6262 Y9.4576 
G01 X-13.7036 Y9.3057 
G01 X-13.7562 Y9.1436 
G01 X-13.7829 Y8.9752 
G01 X-13.7829 Y8.8048 
G01 X-13.7562 Y8.6364 
G01 X-13.7036 Y8.4743 
G01 X-13.6262 Y8.3224 
G01 X-13.5260 Y8.1845 
G01 X-13.4055 Y8.0640 
G01 X-13.2676 Y7.9638 
G01 X-13.1157 Y7.8864 
G01 X-12.9536 Y7.8338 
G01 X-12.7852 Y7.8071 
G01 X-12.6148 Y7.8071 
G01 X-12.4464 Y7.8338 
G01 X-12.2843 Y7.8864 
G01 X-12.1324 Y7.9638 
G01 X-11.9945 Y8.0640 
G01 X-7.2483 Y12.8102 
G01 X-7.0922 Y12.6969 
G01 X-6.8869 Y12.5922 
G01 X-6.6678 Y12.5210 
G01 X-6.4402 Y12.4850 
G01 X-6.2098 Y12.4850 
G01 X-5.9822 Y12.5210 
G01 X-5.7631 Y12.5922 
G01 X-5.5577 Y12.6969 
G01 X-5.3713 Y12.8323 
G00 Z2.0000  F3000
G00 X-6.0386 Y18.9331  F3000
G01 Z-0.2000 F200.00 
G01 X-5.8711 Y19.1514 F500.00 
G01 X-5.7335 Y19.3897 
G01 X-5.6282 Y19.6439 
G01 X-5.5570 Y19.9096 
G01 X-5.5211 Y20.1824 
G01 X-5.5211 Y23.2145 
G01 X-4.7436 Y23.9920 
G01 X-4.5761 Y24.2103 
G01 X-4.4385 Y24.4486 
G01 X-4.3332 Y24.7028 
G01 X-4.2620 Y24.9685 
G01 X-4.2261 Y25.2413 
G01 X-4.2261 Y25.5165 
G01 X-4.2620 Y25.7893 
G01 X-4.3332 Y26.0550 
G01 X-4.4385 Y26.3092 
G01 X-4.5761 Y26.5475 
G01 X-4.7436 Y26.7658 
G01 X-4.9381 Y26.9603 
G01 X-5.1564 Y27.1278 
G01 X-5.3947 Y27.2654 
G01 X-5.6489 Y27.3707 
G01 X-5.9146 Y27.4419 
G01 X-6.1874 Y27.4778 
G01 X-6.4626 Y27.4778 
G01 X-6.7354 Y27.4419 
G01 X-7.0011 Y27.3707 
G01 X-7.2553 Y27.2654 
G01 X-7.4936 Y27.1278 
G01 X-7.7119 Y26.9603 
G01 X-9.2014 Y25.4708 
G01 X-9.3689 Y25.2525 
G01 X-9.5065 Y25.0142 
G01 X-9.6118 Y24.7600 
G01 X-9.6830 Y24.4943 
G01 X-9.7189 Y24.2215 
G01 X-9.7189 Y21.1894 
G01 X-14.2814 Y16.6269 
G01 X-14.4489 Y16.4086 
G01 X-14.5865 Y16.1703 
G01 X-14.6918 Y15.9161 
G01 X-14.7630 Y15.6504 
G01 X-14.7989 Y15.3776 
G01 X-14.7989 Y15.2114 
G01 X-15.8464 Y14.1639 
G01 X-16.6252 Y14.1639 
G01 X-16.8528 Y14.1279 
G01 X-17.0719 Y14.0566 
G01 X-17.2772 Y13.9520 
G01 X-17.4637 Y13.8166 
G01 X-17.4998 Y13.7804 
G01 X-17.6526 Y13.7562 
G01 X-17.8147 Y13.7036 
G01 X-17.9666 Y13.6262 
G01 X-18.1045 Y13.5260 
G01 X-18.2250 Y13.4055 
G01 X-18.3252 Y13.2676 
G01 X-18.4026 Y13.1157 
G01 X-18.4552 Y12.9536 
G01 X-18.4819 Y12.7852 
G01 X-18.4819 Y12.6148 
G01 X-18.4552 Y12.4464 
G01 X-18.4026 Y12.2843 
G01 X-18.3252 Y12.1324 
G01 X-18.2250 Y11.9945 
G01 X-18.1045 Y11.8740 
G01 X-17.9666 Y11.7738 
G01 X-17.8147 Y11.6964 
G01 X-17.6526 Y11.6438 
G01 X-17.4998 Y11.6196 
G01 X-17.4637 Y11.5834 
G01 X-17.2772 Y11.4480 
G01 X-17.0719 Y11.3433 
G01 X-16.8528 Y11.2721 
G01 X-16.6252 Y11.2361 
G01 X-15.1248 Y11.2361 
G01 X-14.8972 Y11.2721 
G01 X-14.6781 Y11.3433 
G01 X-14.4727 Y11.4480 
G01 X-14.2863 Y11.5834 
G01 X-12.7286 Y13.1411 
G01 X-12.5624 Y13.1411 
G01 X-12.2896 Y13.1770 
G01 X-12.0239 Y13.2482 
G01 X-11.7697 Y13.3535 
G01 X-11.5314 Y13.4911 
G01 X-11.3131 Y13.6586 
G01 X-6.0386 Y18.9331 
G00 Z2.0000  F3000
G00 X-14.7611 Y18.9486  F3000
G01 Z-0.2000 F200.00 
G01 X-14.9286 Y19.1669 F500.00 
G01 X-15.1231 Y19.3614 
G01 X-15.3414 Y19.5289 
G01 X-15.5797 Y19.6665 
G01 X-15.8339 Y19.7718 
G01 X-16.0996 Y19.8430 
G01 X-16.3724 Y19.8789 
G01 X-25.5871 Y19.8789 
G01 X-25.5871 Y21.6752 
G01 X-25.6138 Y21.8436 
G01 X-25.6664 Y22.0057 
G01 X-25.7438 Y22.1576 
G01 X-25.8440 Y22.2955 
G01 X-25.9645 Y22.4160 
G01 X-26.1024 Y22.5162 
G01 X-26.2543 Y22.5936 
G01 X-26.4164 Y22.6462 
G01 X-26.5848 Y22.6729 
G01 X-26.7552 Y22.6729 
G01 X-26.9236 Y22.6462 
G01 X-27.0857 Y22.5936 
G01 X-27.2376 Y22.5162 
G01 X-27.3755 Y22.4160 
G01 X-27.4960 Y22.2955 
G01 X-27.5962 Y22.1576 
G01 X-27.6736 Y22.0057 
G01 X-27.7262 Y21.8436 
G01 X-27.7529 Y21.6752 
G01 X-27.7529 Y19.8789 
G01 X-29.3476 Y19.8789 
G01 X-29.6204 Y19.8430 
G01 X-29.8861 Y19.7718 
G01 X-30.1403 Y19.6665 
G01 X-30.3786 Y19.5289 
G01 X-30.5969 Y19.3614 
G01 X-38.9694 Y10.9889 
G01 X-45.7776 Y10.9889 
G01 X-46.0504 Y10.9530 
G01 X-46.3161 Y10.8818 
G01 X-46.5703 Y10.7765 
G01 X-46.8086 Y10.6389 
G01 X-47.0269 Y10.4714 
G01 X-47.2214 Y10.2769 
G01 X-47.3889 Y10.0586 
G01 X-47.5265 Y9.8203 
G01 X-47.6318 Y9.5661 
G01 X-47.7030 Y9.3004 
G01 X-47.7389 Y9.0276 
G01 X-47.7389 Y8.7524 
G01 X-47.7030 Y8.4796 
G01 X-47.6318 Y8.2139 
G01 X-47.5265 Y7.9597 
G01 X-47.3889 Y7.7214 
G01 X-47.2214 Y7.5031 
G01 X-47.0269 Y7.3086 
G01 X-46.8086 Y7.1411 
G01 X-46.5703 Y7.0035 
G01 X-46.3161 Y6.8982 
G01 X-46.0504 Y6.8270 
G01 X-45.7776 Y6.7911 
G01 X-37.9624 Y6.7911 
G01 X-37.6896 Y6.8270 
G01 X-37.4239 Y6.8982 
G01 X-37.1697 Y7.0035 
G01 X-36.9314 Y7.1411 
G01 X-36.7131 Y7.3086 
G01 X-28.3406 Y15.6811 
G01 X-26.8076 Y15.6811 
G01 X-16.3724 Y15.6811 
G01 X-16.0996 Y15.7170 
G01 X-15.8339 Y15.7882 
G01 X-15.5797 Y15.8935 
G01 X-15.3414 Y16.0311 
G01 X-15.1231 Y16.1986 
G01 X-14.9286 Y16.3931 
G01 X-14.7611 Y16.6114 
G01 X-14.6235 Y16.8497 
G01 X-14.5182 Y17.1039 
G01 X-14.4470 Y17.3696 
G01 X-14.4111 Y17.6424 
G01 X-14.4111 Y17.9176 
G01 X-14.4470 Y18.1904 
G01 X-14.5182 Y18.4561 
G01 X-14.6235 Y18.7103 
G01 X-14.7611 Y18.9486 
G00 Z2.0000  F3000
G00 X-18.2240 Y25.9645  F3000
G01 Z-0.2000 F200.00 
G01 X-18.1238 Y26.1024 F500.00 
G01 X-18.0464 Y26.2543 
G01 X-17.9938 Y26.4164 
G01 X-17.9671 Y26.5848 
G01 X-17.9671 Y26.8743 
G01 X-17.9074 Y26.8838 
G01 X-17.7453 Y26.9364 
G01 X-17.5934 Y27.0138 
G01 X-17.4555 Y27.1140 
G01 X-17.3350 Y27.2345 
G01 X-17.2348 Y27.3724 
G01 X-17.1574 Y27.5243 
G01 X-17.1048 Y27.6864 
G01 X-17.0781 Y27.8548 
G01 X-17.0781 Y28.0252 
G01 X-17.1048 Y28.1936 
G01 X-17.1574 Y28.3557 
G01 X-17.2348 Y28.5076 
G01 X-17.3350 Y28.6455 
G01 X-17.4555 Y28.7660 
G01 X-17.5934 Y28.8662 
G01 X-17.7453 Y28.9436 
G01 X-17.9074 Y28.9962 
G01 X-18.0758 Y29.0229 
G01 X-20.0242 Y29.0229 
G01 X-20.1926 Y28.9962 
G01 X-20.3547 Y28.9436 
G01 X-20.5066 Y28.8662 
G01 X-20.6445 Y28.7660 
G01 X-20.7650 Y28.6455 
G01 X-20.8652 Y28.5076 
G01 X-20.9183 Y28.4034 
G01 X-20.9211 Y28.4397 
G01 X-20.9211 Y28.4824 
G01 X-20.9278 Y28.5245 
G01 X-20.9311 Y28.5671 
G01 X-20.9411 Y28.6086 
G01 X-20.9478 Y28.6508 
G01 X-20.9610 Y28.6913 
G01 X-20.9709 Y28.7328 
G01 X-20.9873 Y28.7723 
G01 X-21.0005 Y28.8129 
G01 X-21.0198 Y28.8509 
G01 X-21.0361 Y28.8903 
G01 X-21.0585 Y28.9267 
G01 X-21.0778 Y28.9648 
G01 X-21.1029 Y28.9993 
G01 X-21.1252 Y29.0356 
G01 X-21.1529 Y29.0681 
G01 X-21.1780 Y29.1027 
G01 X-21.2082 Y29.1328 
G01 X-21.2359 Y29.1653 
G01 X-21.2684 Y29.1930 
G01 X-21.2986 Y29.2232 
G01 X-21.3331 Y29.2483 
G01 X-21.3655 Y29.2760 
G01 X-21.4019 Y29.2983 
G01 X-21.4365 Y29.3234 
G01 X-21.4745 Y29.3427 
G01 X-21.5108 Y29.3650 
G01 X-21.5503 Y29.3814 
G01 X-21.5812 Y29.3971 
G01 X-18.0758 Y29.3971 
G01 X-17.9074 Y29.4238 
G01 X-17.7453 Y29.4764 
G01 X-17.5934 Y29.5538 
G01 X-17.4555 Y29.6540 
G01 X-17.3350 Y29.7745 
G01 X-17.2348 Y29.9124 
G01 X-17.1574 Y30.0643 
G01 X-17.1048 Y30.2264 
G01 X-17.0781 Y30.3948 
G01 X-17.0781 Y30.5652 
G01 X-17.1048 Y30.7336 
G01 X-17.1574 Y30.8957 
G01 X-17.2348 Y31.0476 
G01 X-17.3350 Y31.1855 
G01 X-17.4555 Y31.3060 
G01 X-17.5934 Y31.4062 
G01 X-17.7453 Y31.4836 
G01 X-17.9074 Y31.5362 
G01 X-18.0758 Y31.5629 
G01 X-21.1671 Y31.5629 
G01 X-21.0224 Y31.6366 
G01 X-20.8845 Y31.7368 
G01 X-20.7640 Y31.8573 
G01 X-20.6638 Y31.9952 
G01 X-20.5864 Y32.1471 
G01 X-20.5338 Y32.3092 
G01 X-20.5071 Y32.4776 
G01 X-20.5071 Y35.7471 
G01 X-12.6148 Y35.7471 
G01 X-12.4464 Y35.7738 
G01 X-12.2843 Y35.8264 
G01 X-12.1324 Y35.9038 
G01 X-11.9945 Y36.0040 
G01 X-11.8740 Y36.1245 
G01 X-11.7738 Y36.2624 
G01 X-11.6964 Y36.4143 
G01 X-11.6438 Y36.5764 
G01 X-11.6171 Y36.7448 
G01 X-11.6171 Y36.9152 
G01 X-11.6438 Y37.0836 
G01 X-11.6964 Y37.2457 
G01 X-11.7738 Y37.3976 
G01 X-11.8740 Y37.5355 
G01 X-11.9945 Y37.6560 
G01 X-12.1324 Y37.7562 
G01 X-12.2843 Y37.8336 
G01 X-12.4464 Y37.8862 
G01 X-12.6148 Y37.9129 
G01 X-20.5071 Y37.9129 
G01 X-20.5071 Y40.0802 
G01 X-20.5338 Y40.2486 
G01 X-20.5864 Y40.4107 
G01 X-20.6638 Y40.5626 
G01 X-20.7640 Y40.7005 
G01 X-20.8845 Y40.8210 
G01 X-21.0224 Y40.9212 
G01 X-21.1743 Y40.9986 
G01 X-21.3364 Y41.0512 
G01 X-21.5048 Y41.0779 
G01 X-24.6319 Y41.0779 
G01 X-24.6745 Y41.0812 
G01 X-24.7170 Y41.0779 
G01 X-24.7597 Y41.0779 
G01 X-24.8019 Y41.0712 
G01 X-24.8444 Y41.0679 
G01 X-24.8859 Y41.0579 
G01 X-24.9281 Y41.0512 
G01 X-24.9686 Y41.0380 
G01 X-25.0102 Y41.0281 
G01 X-25.0496 Y41.0117 
G01 X-25.0902 Y40.9986 
G01 X-25.1282 Y40.9792 
G01 X-25.1676 Y40.9628 
G01 X-25.2040 Y40.9405 
G01 X-25.2420 Y40.9212 
G01 X-25.2766 Y40.8961 
G01 X-25.3130 Y40.8738 
G01 X-25.3454 Y40.8461 
G01 X-25.3799 Y40.8210 
G01 X-25.4101 Y40.7908 
G01 X-25.4426 Y40.7631 
G01 X-25.4703 Y40.7306 
G01 X-25.5005 Y40.7005 
G01 X-25.5256 Y40.6659 
G01 X-25.5533 Y40.6335 
G01 X-25.5756 Y40.5971 
G01 X-25.6007 Y40.5626 
G01 X-25.6200 Y40.5245 
G01 X-25.6423 Y40.4881 
G01 X-25.6587 Y40.4487 
G01 X-25.6780 Y40.4107 
G01 X-25.6912 Y40.3701 
G01 X-25.7076 Y40.3307 
G01 X-25.7175 Y40.2891 
G01 X-25.7307 Y40.2486 
G01 X-25.7374 Y40.2064 
G01 X-25.7474 Y40.1649 
G01 X-25.7507 Y40.1224 
G01 X-25.7574 Y40.0802 
G01 X-25.7574 Y40.0376 
G01 X-25.7607 Y39.9950 
G01 X-25.7577 Y39.9567 
G01 X-25.8440 Y40.0755 
G01 X-25.9645 Y40.1960 
G01 X-26.1024 Y40.2962 
G01 X-26.2543 Y40.3736 
G01 X-26.4164 Y40.4262 
G01 X-26.5848 Y40.4529 
G01 X-90.2552 Y40.4529 
G01 X-90.4236 Y40.4262 
G01 X-90.5857 Y40.3736 
G01 X-90.7376 Y40.2962 
G01 X-90.8755 Y40.1960 
G01 X-90.9960 Y40.0755 
G01 X-91.0823 Y39.9567 
G01 X-91.0793 Y39.9950 
G01 X-91.0826 Y40.0376 
G01 X-91.0826 Y40.0802 
G01 X-91.0893 Y40.1224 
G01 X-91.0926 Y40.1649 
G01 X-91.1026 Y40.2064 
G01 X-91.1093 Y40.2486 
G01 X-91.1225 Y40.2891 
G01 X-91.1324 Y40.3307 
G01 X-91.1488 Y40.3701 
G01 X-91.1620 Y40.4107 
G01 X-91.1813 Y40.4487 
G01 X-91.1977 Y40.4881 
G01 X-91.2200 Y40.5245 
G01 X-91.2393 Y40.5626 
G01 X-91.2644 Y40.5971 
G01 X-91.2867 Y40.6335 
G01 X-91.3144 Y40.6659 
G01 X-91.3395 Y40.7005 
G01 X-91.3697 Y40.7306 
G01 X-91.3974 Y40.7631 
G01 X-91.4299 Y40.7908 
G01 X-91.4601 Y40.8210 
G01 X-91.4946 Y40.8461 
G01 X-91.5270 Y40.8738 
G01 X-91.5634 Y40.8961 
G01 X-91.5979 Y40.9212 
G01 X-91.6360 Y40.9405 
G01 X-91.6724 Y40.9628 
G01 X-91.7118 Y40.9792 
G01 X-91.7498 Y40.9986 
G01 X-91.7904 Y41.0117 
G01 X-91.8298 Y41.0281 
G01 X-91.8713 Y41.0380 
G01 X-91.9119 Y41.0512 
G01 X-91.9541 Y41.0579 
G01 X-91.9956 Y41.0679 
G01 X-92.0381 Y41.0712 
G01 X-92.0803 Y41.0779 
G01 X-92.1229 Y41.0779 
G01 X-92.1655 Y41.0812 
G01 X-92.2081 Y41.0779 
G01 X-98.1802 Y41.0779 
G01 X-98.3486 Y41.0512 
G01 X-98.5107 Y40.9986 
G01 X-98.6626 Y40.9212 
G01 X-98.8005 Y40.8210 
G01 X-98.9210 Y40.7005 
G01 X-99.0212 Y40.5626 
G01 X-99.0986 Y40.4107 
G01 X-99.1512 Y40.2486 
G01 X-99.1779 Y40.0802 
G01 X-99.1779 Y15.2553 
G01 X-99.1512 Y15.0869 
G01 X-99.0986 Y14.9248 
G01 X-99.0212 Y14.7729 
G01 X-98.9470 Y14.6709 
G01 X-98.9210 Y14.6351 
G01 X-98.8005 Y14.5145 
G01 X-98.6626 Y14.4143 
G01 X-98.5107 Y14.3369 
G01 X-98.3486 Y14.2843 
G01 X-98.2050 Y14.2615 
G01 X-98.1802 Y14.2576 
G01 X-98.0098 Y14.2576 
G01 X-97.8414 Y14.2843 
G01 X-97.6870 Y14.3345 
G01 X-98.4955 Y13.5260 
G01 X-98.6160 Y13.4055 
G01 X-98.7162 Y13.2676 
G01 X-98.7936 Y13.1157 
G01 X-98.8462 Y12.9536 
G01 X-98.8729 Y12.7852 
G01 X-98.8729 Y4.9948 
G01 X-98.8462 Y4.8264 
G01 X-98.7936 Y4.6643 
G01 X-98.7162 Y4.5124 
G01 X-98.6160 Y4.3745 
G01 X-98.4955 Y4.2540 
G01 X-98.3576 Y4.1538 
G01 X-98.2057 Y4.0764 
G01 X-98.0436 Y4.0238 
G01 X-97.8752 Y3.9971 
G01 X-85.1335 Y3.9971 
G01 X-85.0919 Y3.9938 
G01 X-85.0484 Y3.9971 
G01 X-85.0048 Y3.9971 
G01 X-84.9636 Y4.0036 
G01 X-84.9220 Y4.0068 
G01 X-84.8795 Y4.0169 
G01 X-84.8364 Y4.0238 
G01 X-84.7968 Y4.0367 
G01 X-84.7562 Y4.0463 
G01 X-84.7158 Y4.0630 
G01 X-84.6743 Y4.0764 
G01 X-84.6371 Y4.0954 
G01 X-84.5986 Y4.1113 
G01 X-84.5613 Y4.1340 
G01 X-84.5224 Y4.1538 
G01 X-84.4887 Y4.1783 
G01 X-84.4531 Y4.2001 
G01 X-84.4198 Y4.2284 
G01 X-84.3845 Y4.2540 
G01 X-84.3550 Y4.2835 
G01 X-84.3233 Y4.3106 
G01 X-84.2949 Y4.3437 
G01 X-84.2640 Y4.3745 
G01 X-84.2395 Y4.4083 
G01 X-77.3291 Y12.4705 
G01 X-71.8433 Y8.0819 
G01 X-71.8255 Y8.0640 
G01 X-71.7769 Y8.0287 
G01 X-71.7299 Y7.9912 
G01 X-71.7080 Y7.9787 
G01 X-71.6876 Y7.9638 
G01 X-71.6340 Y7.9366 
G01 X-71.5818 Y7.9068 
G01 X-71.5582 Y7.8979 
G01 X-71.5357 Y7.8864 
G01 X-71.4786 Y7.8679 
G01 X-71.4223 Y7.8467 
G01 X-71.3976 Y7.8416 
G01 X-71.3736 Y7.8338 
G01 X-71.3143 Y7.8244 
G01 X-71.2554 Y7.8122 
G01 X-71.2302 Y7.8110 
G01 X-71.2052 Y7.8071 
G01 X-71.1451 Y7.8071 
G01 X-71.0851 Y7.8043 
G01 X-71.0600 Y7.8071 
G01 X-52.0951 Y7.8071 
G01 X-52.0351 Y7.8043 
G01 X-52.0100 Y7.8071 
G01 X-51.9848 Y7.8071 
G01 X-51.9254 Y7.8165 
G01 X-51.8657 Y7.8231 
G01 X-51.8413 Y7.8298 
G01 X-51.8164 Y7.8338 
G01 X-51.7593 Y7.8523 
G01 X-51.7013 Y7.8682 
G01 X-51.6783 Y7.8786 
G01 X-51.6543 Y7.8864 
G01 X-51.6008 Y7.9137 
G01 X-51.5460 Y7.9385 
G01 X-51.5249 Y7.9524 
G01 X-51.5024 Y7.9638 
G01 X-51.4538 Y7.9991 
G01 X-51.4036 Y8.0322 
G01 X-51.3850 Y8.0492 
G01 X-51.3645 Y8.0640 
G01 X-51.3221 Y8.1065 
G01 X-51.2776 Y8.1470 
G01 X-51.2619 Y8.1667 
G01 X-51.2440 Y8.1845 
G01 X-51.2087 Y8.2331 
G01 X-46.4695 Y14.1571 
G01 X-39.2848 Y14.1571 
G01 X-39.1164 Y14.1838 
G01 X-38.9543 Y14.2364 
G01 X-38.8024 Y14.3138 
G01 X-38.6645 Y14.4140 
G01 X-28.7614 Y24.3171 
G01 X-20.2348 Y24.3171 
G01 X-20.0664 Y24.3438 
G01 X-19.9043 Y24.3964 
G01 X-19.7524 Y24.4738 
G01 X-19.6145 Y24.5740 
G01 X-19.4940 Y24.6945 
G01 X-18.2240 Y25.9645 
G00 Z2.0000  F3000
G00 X-20.3247 Y26.9267  F3000
G01 Z-0.2000 F200.00 
G01 X-20.7686 Y26.4829 F500.00 
G01 X-21.5811 Y26.4829 
G01 X-21.5503 Y26.4986 
G01 X-21.5108 Y26.5150 
G01 X-21.4745 Y26.5373 
G01 X-21.4365 Y26.5566 
G01 X-21.4019 Y26.5817 
G01 X-21.3655 Y26.6040 
G01 X-21.3331 Y26.6317 
G01 X-21.2986 Y26.6568 
G01 X-21.2684 Y26.6870 
G01 X-21.2359 Y26.7147 
G01 X-21.2082 Y26.7472 
G01 X-21.1780 Y26.7773 
G01 X-21.1529 Y26.8119 
G01 X-21.1252 Y26.8444 
G01 X-21.1029 Y26.8807 
G01 X-21.0778 Y26.9152 
G01 X-21.0585 Y26.9533 
G01 X-21.0361 Y26.9897 
G01 X-21.0198 Y27.0291 
G01 X-21.0005 Y27.0671 
G01 X-20.9873 Y27.1077 
G01 X-20.9709 Y27.1472 
G01 X-20.9610 Y27.1887 
G01 X-20.9478 Y27.2292 
G01 X-20.9411 Y27.2714 
G01 X-20.9311 Y27.3129 
G01 X-20.9278 Y27.3555 
G01 X-20.9211 Y27.3976 
G01 X-20.9211 Y27.4403 
G01 X-20.9183 Y27.4766 
G01 X-20.8652 Y27.3724 
G01 X-20.7650 Y27.2345 
G01 X-20.6445 Y27.1140 
G01 X-20.5066 Y27.0138 
G01 X-20.3547 Y26.9364 
G01 X-20.3247 Y26.9267 
G00 Z2.0000  F3000
G00 X-34.1029 Y33.1452  F3000
G01 Z-0.2000 F200.00 
G01 X-34.1373 Y33.1515 F500.00 
G01 X-34.1515 Y33.1519 
G01 X-34.1656 Y33.1542 
G01 X-34.2367 Y33.1542 
G01 X-34.3077 Y33.1560 
G01 X-34.3218 Y33.1542 
G01 X-34.3361 Y33.1542 
G01 X-34.4063 Y33.1430 
G01 X-34.4767 Y33.1338 
G01 X-34.4903 Y33.1297 
G01 X-34.5044 Y33.1275 
G01 X-34.5720 Y33.1055 
G01 X-34.6401 Y33.0854 
G01 X-34.6530 Y33.0792 
G01 X-34.6665 Y33.0748 
G01 X-34.7298 Y33.0426 
G01 X-34.7370 Y33.0391 
G01 X-34.7129 Y33.0752 
G01 X-34.6408 Y33.2492 
G01 X-34.6041 Y33.4338 
G01 X-34.6041 Y33.7767 
G01 X-34.5405 Y33.9151 
G01 X-34.4944 Y34.0792 
G01 X-34.4745 Y34.2485 
G01 X-34.4814 Y34.4188 
G01 X-34.5148 Y34.5859 
G01 X-34.5740 Y34.7458 
G01 X-34.6041 Y34.7994 
G01 X-34.6041 Y35.1461 
G01 X-34.6408 Y35.3308 
G01 X-34.7129 Y35.5048 
G01 X-34.7370 Y35.5409 
G01 X-34.7298 Y35.5374 
G01 X-34.6665 Y35.5052 
G01 X-34.6530 Y35.5008 
G01 X-34.6401 Y35.4946 
G01 X-34.5720 Y35.4745 
G01 X-34.5044 Y35.4525 
G01 X-34.4903 Y35.4503 
G01 X-34.4767 Y35.4462 
G01 X-34.4063 Y35.4370 
G01 X-34.3361 Y35.4258 
G01 X-34.3218 Y35.4258 
G01 X-34.3077 Y35.4240 
G01 X-34.2367 Y35.4258 
G01 X-34.1656 Y35.4258 
G01 X-34.1515 Y35.4281 
G01 X-34.1373 Y35.4284 
G01 X-34.1029 Y35.4348 
G01 X-34.1029 Y33.1452 
G00 Z2.0000  F3000
G00 X-38.1496 Y32.3578  F3000
G01 Z-0.2000 F200.00 
G01 X-38.6795 Y31.5629 F500.00 
G01 X-39.7287 Y31.5629 
G01 X-39.7802 Y31.6144 
G01 X-39.8514 Y31.6439 
G01 X-39.9592 Y31.6439 
G01 X-40.0724 Y31.7262 
G01 X-40.2243 Y31.8036 
G01 X-40.3408 Y31.8414 
G01 X-40.2955 Y31.8561 
G01 X-39.8514 Y31.8561 
G01 X-39.7802 Y31.8856 
G01 X-39.7256 Y31.9402 
G01 X-39.6961 Y32.0114 
G01 X-39.6961 Y32.3500 
G01 X-39.6364 Y32.4671 
G01 X-39.5962 Y32.5908 
G01 X-39.5730 Y32.5588 
G01 X-39.5575 Y32.5433 
G01 X-39.5439 Y32.5261 
G01 X-39.4973 Y32.4832 
G01 X-39.4525 Y32.4383 
G01 X-39.4347 Y32.4254 
G01 X-39.4186 Y32.4106 
G01 X-39.3658 Y32.3754 
G01 X-39.3146 Y32.3381 
G01 X-39.2950 Y32.3282 
G01 X-39.2768 Y32.3160 
G01 X-39.2191 Y32.2895 
G01 X-39.1627 Y32.2607 
G01 X-39.1418 Y32.2540 
G01 X-39.1219 Y32.2448 
G01 X-39.0608 Y32.2277 
G01 X-39.0006 Y32.2081 
G01 X-38.9789 Y32.2046 
G01 X-38.9578 Y32.1987 
G01 X-38.8948 Y32.1913 
G01 X-38.8322 Y32.1814 
G01 X-38.8103 Y32.1814 
G01 X-38.7885 Y32.1789 
G01 X-38.7252 Y32.1814 
G01 X-38.6618 Y32.1814 
G01 X-38.6401 Y32.1848 
G01 X-38.6182 Y32.1857 
G01 X-38.5560 Y32.1982 
G01 X-38.4934 Y32.2081 
G01 X-38.4726 Y32.2149 
G01 X-38.4511 Y32.2192 
G01 X-38.3916 Y32.2412 
G01 X-38.3313 Y32.2607 
G01 X-38.3118 Y32.2707 
G01 X-38.2912 Y32.2783 
G01 X-38.2359 Y32.3094 
G01 X-38.1794 Y32.3381 
G01 X-38.1617 Y32.3510 
G01 X-38.1496 Y32.3578 
G00 Z2.0000  F3000
G00 X-40.9392 Y31.8414  F3000
G01 Z-0.2000 F200.00 
G01 X-41.0557 Y31.8036 F500.00 
G01 X-41.2076 Y31.7262 
G01 X-41.3208 Y31.6439 
G01 X-41.4286 Y31.6439 
G01 X-41.4998 Y31.6144 
G01 X-41.5544 Y31.5598 
G01 X-41.5839 Y31.4886 
G01 X-41.5839 Y31.3876 
G01 X-42.6786 Y30.2929 
G01 X-42.7314 Y30.2929 
G01 X-43.3753 Y30.9367 
G01 X-43.3766 Y30.9449 
G01 X-43.3833 Y31.0051 
G01 X-43.3899 Y31.0291 
G01 X-43.3938 Y31.0536 
G01 X-43.4125 Y31.1111 
G01 X-43.4285 Y31.1695 
G01 X-43.4388 Y31.1921 
G01 X-43.4464 Y31.2157 
G01 X-43.4561 Y31.2346 
G01 X-43.4561 Y31.4886 
G01 X-43.4856 Y31.5598 
G01 X-43.5402 Y31.6144 
G01 X-43.6114 Y31.6439 
G01 X-43.7692 Y31.6439 
G01 X-43.7935 Y31.6615 
G01 X-43.8408 Y31.6993 
G01 X-43.8624 Y31.7116 
G01 X-43.8824 Y31.7262 
G01 X-43.9292 Y31.7500 
G01 X-43.8824 Y31.7738 
G01 X-43.7692 Y31.8561 
G01 X-43.6114 Y31.8561 
G01 X-43.5402 Y31.8856 
G01 X-43.4856 Y31.9402 
G01 X-43.4561 Y32.0114 
G01 X-43.4561 Y32.2653 
G01 X-43.4464 Y32.2843 
G01 X-43.3938 Y32.4464 
G01 X-43.3671 Y32.6148 
G01 X-43.3671 Y32.7852 
G01 X-43.3938 Y32.9536 
G01 X-43.4464 Y33.1157 
G01 X-43.4561 Y33.1347 
G01 X-43.4561 Y33.1722 
G01 X-43.4345 Y33.1370 
G01 X-43.4151 Y33.0990 
G01 X-43.3901 Y33.0645 
G01 X-43.3678 Y33.0281 
G01 X-43.3400 Y32.9956 
G01 X-43.3149 Y32.9611 
G01 X-43.2848 Y32.9309 
G01 X-43.2571 Y32.8985 
G01 X-43.2246 Y32.8707 
G01 X-43.1944 Y32.8406 
G01 X-43.1599 Y32.8155 
G01 X-43.1274 Y32.7878 
G01 X-43.0911 Y32.7655 
G01 X-43.0565 Y32.7404 
G01 X-43.0185 Y32.7210 
G01 X-42.9821 Y32.6987 
G01 X-42.9427 Y32.6824 
G01 X-42.9046 Y32.6630 
G01 X-42.8641 Y32.6498 
G01 X-42.8246 Y32.6335 
G01 X-42.7831 Y32.6235 
G01 X-42.7425 Y32.6103 
G01 X-42.7004 Y32.6036 
G01 X-42.6589 Y32.5937 
G01 X-42.6163 Y32.5903 
G01 X-42.5742 Y32.5837 
G01 X-42.5315 Y32.5837 
G01 X-42.4890 Y32.5803 
G01 X-42.4464 Y32.5837 
G01 X-42.4037 Y32.5837 
G01 X-42.3616 Y32.5903 
G01 X-42.3190 Y32.5937 
G01 X-42.2776 Y32.6036 
G01 X-42.2354 Y32.6103 
G01 X-42.1948 Y32.6235 
G01 X-42.1533 Y32.6335 
G01 X-42.1139 Y32.6498 
G01 X-42.0733 Y32.6630 
G01 X-42.0352 Y32.6824 
G01 X-41.9958 Y32.6987 
G01 X-41.9594 Y32.7210 
G01 X-41.9214 Y32.7404 
G01 X-41.8869 Y32.7655 
G01 X-41.8505 Y32.7878 
G01 X-41.8180 Y32.8155 
G01 X-41.7835 Y32.8406 
G01 X-41.7533 Y32.8707 
G01 X-41.7229 Y32.8967 
G01 X-41.7229 Y32.7976 
G01 X-41.6962 Y32.6292 
G01 X-41.6436 Y32.4671 
G01 X-41.5839 Y32.3500 
G01 X-41.5839 Y32.0114 
G01 X-41.5544 Y31.9402 
G01 X-41.4998 Y31.8856 
G01 X-41.4286 Y31.8561 
G01 X-40.9845 Y31.8561 
G01 X-40.9392 Y31.8414 
G00 Z2.0000  F3000
G00 X-40.5053 Y29.4032  F3000
G01 Z-0.2000 F200.00 
G01 X-40.4969 Y29.4116 F500.00 
G01 X-40.4852 Y29.4098 
G01 X-40.5053 Y29.4032 
G00 Z2.0000  F3000
G00 X-45.0940 Y29.5925  F3000
G01 Z-0.2000 F200.00 
G01 X-45.1438 Y29.6087 F500.00 
G01 X-45.1929 Y29.6272 
G01 X-45.1351 Y29.6337 
G01 X-45.0940 Y29.5925 
G00 Z2.0000  F3000
G00 X-45.0800 Y31.8192  F3000
G01 Z-0.2000 F200.00 
G01 X-47.3704 Y31.5629 F500.00 
G01 X-49.6152 Y31.5629 
G01 X-49.7836 Y31.5362 
G01 X-49.9457 Y31.4836 
G01 X-50.0976 Y31.4062 
G01 X-50.2355 Y31.3060 
G01 X-50.3560 Y31.1855 
G01 X-51.2486 Y30.2929 
G01 X-53.4480 Y30.2929 
G01 X-53.6084 Y30.3183 
G01 X-55.6116 Y30.3183 
G01 X-55.7839 Y30.2910 
G01 X-55.9498 Y30.2371 
G01 X-56.1053 Y30.1579 
G01 X-56.2464 Y30.0554 
G01 X-56.3698 Y29.9320 
G01 X-56.4723 Y29.7909 
G01 X-56.5515 Y29.6354 
G01 X-56.6054 Y29.4695 
G01 X-56.6327 Y29.2972 
G01 X-56.6327 Y29.1228 
G01 X-56.6054 Y28.9505 
G01 X-56.5515 Y28.7846 
G01 X-56.4723 Y28.6291 
G01 X-56.3698 Y28.4880 
G01 X-56.2464 Y28.3646 
G01 X-56.1053 Y28.2621 
G01 X-55.9498 Y28.1829 
G01 X-55.7839 Y28.1290 
G01 X-55.6116 Y28.1017 
G01 X-53.6084 Y28.1017 
G01 X-53.4480 Y28.1271 
G01 X-50.7148 Y28.1271 
G01 X-50.5464 Y28.1538 
G01 X-50.3843 Y28.2064 
G01 X-50.2324 Y28.2838 
G01 X-50.1248 Y28.3620 
G01 X-50.1280 Y28.3557 
G01 X-50.1807 Y28.1936 
G01 X-50.2074 Y28.0252 
G01 X-50.2074 Y27.8548 
G01 X-50.2029 Y27.8262 
G01 X-50.1807 Y27.6864 
G01 X-50.1280 Y27.5243 
G01 X-50.1248 Y27.5180 
G01 X-50.2324 Y27.5962 
G01 X-50.3843 Y27.6736 
G01 X-50.5464 Y27.7262 
G01 X-50.7148 Y27.7529 
G01 X-53.4480 Y27.7529 
G01 X-53.6084 Y27.7783 
G01 X-55.6116 Y27.7783 
G01 X-55.7839 Y27.7510 
G01 X-55.9498 Y27.6971 
G01 X-56.1053 Y27.6179 
G01 X-56.2464 Y27.5154 
G01 X-56.3698 Y27.3920 
G01 X-56.4723 Y27.2509 
G01 X-56.5515 Y27.0954 
G01 X-56.6054 Y26.9295 
G01 X-56.6327 Y26.7572 
G01 X-56.6327 Y26.5828 
G01 X-56.6054 Y26.4105 
G01 X-56.5515 Y26.2446 
G01 X-56.4723 Y26.0891 
G01 X-56.3698 Y25.9480 
G01 X-56.2464 Y25.8246 
G01 X-56.1053 Y25.7221 
G01 X-55.9498 Y25.6429 
G01 X-55.7839 Y25.5890 
G01 X-55.6116 Y25.5617 
G01 X-53.6084 Y25.5617 
G01 X-53.4480 Y25.5871 
G01 X-51.7211 Y25.5871 
G01 X-51.8410 Y25.5681 
G01 X-52.0031 Y25.5154 
G01 X-52.0069 Y25.5135 
G01 X-52.1550 Y25.4381 
G01 X-52.2860 Y25.3429 
G01 X-52.2929 Y25.3379 
G01 X-52.4134 Y25.2173 
G01 X-52.5136 Y25.0794 
G01 X-52.5155 Y25.0757 
G01 X-52.5910 Y24.9276 
G01 X-52.6436 Y24.7655 
G01 X-52.6703 Y24.5971 
G01 X-52.6703 Y24.5590 
G01 X-52.7477 Y24.7109 
G01 X-52.8502 Y24.8520 
G01 X-52.9736 Y24.9754 
G01 X-53.1147 Y25.0779 
G01 X-53.2702 Y25.1571 
G01 X-53.4361 Y25.2110 
G01 X-53.6084 Y25.2383 
G01 X-55.6116 Y25.2383 
G01 X-55.7839 Y25.2110 
G01 X-55.9498 Y25.1571 
G01 X-56.1053 Y25.0779 
G01 X-56.2464 Y24.9754 
G01 X-56.3698 Y24.8520 
G01 X-56.4723 Y24.7109 
G01 X-56.5515 Y24.5554 
G01 X-56.6054 Y24.3895 
G01 X-56.6327 Y24.2172 
G01 X-56.6327 Y24.0428 
G01 X-56.6054 Y23.8705 
G01 X-56.5515 Y23.7046 
G01 X-56.4723 Y23.5491 
G01 X-56.3698 Y23.4080 
G01 X-56.2464 Y23.2846 
G01 X-56.1053 Y23.1821 
G01 X-55.9498 Y23.1029 
G01 X-55.7839 Y23.0490 
G01 X-55.6116 Y23.0217 
G01 X-53.6084 Y23.0217 
G01 X-53.4361 Y23.0490 
G01 X-53.2702 Y23.1029 
G01 X-53.1147 Y23.1821 
G01 X-52.9883 Y23.2740 
G01 X-53.0299 Y23.1457 
G01 X-53.0404 Y23.1136 
G01 X-53.0645 Y22.9616 
G01 X-53.0671 Y22.9452 
G01 X-53.0671 Y22.8590 
G01 X-53.0671 Y22.7748 
G01 X-53.0404 Y22.6064 
G01 X-53.0065 Y22.5022 
G01 X-52.9883 Y22.4460 
G01 X-53.1147 Y22.5379 
G01 X-53.2702 Y22.6171 
G01 X-53.4361 Y22.6710 
G01 X-53.6084 Y22.6983 
G01 X-55.6116 Y22.6983 
G01 X-55.7839 Y22.6710 
G01 X-55.9498 Y22.6171 
G01 X-56.1053 Y22.5379 
G01 X-56.2464 Y22.4354 
G01 X-56.3698 Y22.3120 
G01 X-56.4723 Y22.1709 
G01 X-56.5515 Y22.0154 
G01 X-56.6054 Y21.8495 
G01 X-56.6327 Y21.6772 
G01 X-56.6327 Y21.5028 
G01 X-56.6054 Y21.3305 
G01 X-56.5515 Y21.1646 
G01 X-56.4723 Y21.0091 
G01 X-56.3698 Y20.8680 
G01 X-56.2464 Y20.7446 
G01 X-56.1053 Y20.6421 
G01 X-55.9498 Y20.5629 
G01 X-55.7839 Y20.5090 
G01 X-55.6116 Y20.4817 
G01 X-53.6084 Y20.4817 
G01 X-53.4361 Y20.5090 
G01 X-53.2702 Y20.5629 
G01 X-53.1147 Y20.6421 
G01 X-52.9883 Y20.7340 
G01 X-53.0299 Y20.6057 
G01 X-53.0404 Y20.5736 
G01 X-53.0645 Y20.4216 
G01 X-53.0671 Y20.4052 
G01 X-53.0671 Y20.3190 
G01 X-53.0671 Y20.2348 
G01 X-53.0404 Y20.0664 
G01 X-53.0065 Y19.9622 
G01 X-52.9883 Y19.9060 
G01 X-53.1147 Y19.9979 
G01 X-53.2702 Y20.0771 
G01 X-53.4361 Y20.1310 
G01 X-53.6084 Y20.1583 
G01 X-55.6116 Y20.1583 
G01 X-55.7839 Y20.1310 
G01 X-55.9498 Y20.0771 
G01 X-56.1053 Y19.9979 
G01 X-56.2464 Y19.8954 
G01 X-56.3698 Y19.7720 
G01 X-56.4723 Y19.6309 
G01 X-56.5515 Y19.4754 
G01 X-56.6054 Y19.3095 
G01 X-56.6327 Y19.1372 
G01 X-56.6327 Y18.9628 
G01 X-56.6054 Y18.7905 
G01 X-56.5515 Y18.6246 
G01 X-56.4723 Y18.4691 
G01 X-56.3698 Y18.3280 
G01 X-56.2464 Y18.2046 
G01 X-56.1053 Y18.1021 
G01 X-55.9498 Y18.0229 
G01 X-55.7839 Y17.9690 
G01 X-55.6116 Y17.9417 
G01 X-53.6084 Y17.9417 
G01 X-53.4361 Y17.9690 
G01 X-53.2702 Y18.0229 
G01 X-53.1147 Y18.1021 
G01 X-52.9883 Y18.1940 
G01 X-53.0299 Y18.0657 
G01 X-53.0404 Y18.0336 
G01 X-53.0645 Y17.8816 
G01 X-53.0671 Y17.8652 
G01 X-53.0671 Y17.7790 
G01 X-53.0671 Y17.6948 
G01 X-53.0404 Y17.5264 
G01 X-53.0065 Y17.4222 
G01 X-52.9883 Y17.3660 
G01 X-53.1147 Y17.4579 
G01 X-53.2702 Y17.5371 
G01 X-53.4361 Y17.5910 
G01 X-53.6084 Y17.6183 
G01 X-55.6116 Y17.6183 
G01 X-55.7839 Y17.5910 
G01 X-55.9498 Y17.5371 
G01 X-56.1053 Y17.4579 
G01 X-56.2464 Y17.3554 
G01 X-56.3698 Y17.2320 
G01 X-56.4723 Y17.0909 
G01 X-56.5515 Y16.9354 
G01 X-56.6054 Y16.7695 
G01 X-56.6327 Y16.5972 
G01 X-56.6327 Y16.4228 
G01 X-56.6054 Y16.2505 
G01 X-56.5515 Y16.0846 
G01 X-56.4723 Y15.9291 
G01 X-56.3698 Y15.7880 
G01 X-56.2464 Y15.6646 
G01 X-56.1053 Y15.5621 
G01 X-55.9498 Y15.4829 
G01 X-55.7839 Y15.4290 
G01 X-55.6116 Y15.4017 
G01 X-53.6084 Y15.4017 
G01 X-53.4361 Y15.4290 
G01 X-53.2702 Y15.4829 
