;(.../Electronics/Eagle/pcb-gcode/pcb-gcode.ulp)
;(Copyright 2005 - 2012 by John Johnson)
;(See readme.txt for licensing terms.)
;(This file generated from the board:)
;(.../WiFi/Electronics/wifiboard.brd)
;(Current profile is .../pcb-gcode/profiles/generic.pp  )
;(This file generated 22/12/2017 14:54)
;(Settings from pcb-machine.h)
;(spindle on time = 1000.0000)
;(  Tool Size)
;(0.1778 )
;(spindle speed = 30000.0000)
;(tool change at 0.0000 0.0000 5.0000 )
;(feed rate xy = F500.00 )
;(feed rate z  = F200.00 )
;(Z Axis Settings)
;(  High     Up        Down     Drill)
;(5.0000 	2.0000 	-0.2000 	-2.0000 )
;(Settings from pcb-defaults.h)
;(isolate min = 0.0250)
;(isolate max = 0.5000)
;(isolate step = 0.0800)
;(Generated bottom outlines, bottom drill, )
;(Unit of measure: mm)
;(Metric Mode)
G21
;(Absolute Coordinates)
G90
;S30000
G00 Z5.0000  F3000
G00 X0.0000 Y0.0000  F3000
;M03 S1
G04 P1000.000000
G00 Z2.0000  F3000
G00 X-4.8039 Y3.7710  F3000
G01 Z-0.2000 F200.00 
G01 X-4.6427 Y3.9809 F500.00 
G01 X-4.5104 Y4.2101 
G01 X-4.4091 Y4.4546 
G01 X-4.3406 Y4.7103 
G01 X-4.3061 Y4.9727 
G01 X-4.3061 Y9.0012 
G01 X-4.3406 Y9.2636 
G01 X-4.4091 Y9.5192 
G01 X-4.5104 Y9.7637 
G01 X-4.6427 Y9.9929 
G01 X-4.8039 Y10.2029 
G01 X-4.9910 Y10.3900 
G01 X-5.2009 Y10.5512 
G01 X-5.4301 Y10.6835 
G01 X-5.6746 Y10.7848 
G01 X-5.9303 Y10.8533 
G01 X-6.1927 Y10.8878 
G01 X-6.4573 Y10.8878 
G01 X-6.7197 Y10.8533 
G01 X-6.9753 Y10.7848 
G01 X-7.2199 Y10.6835 
G01 X-7.4490 Y10.5512 
G01 X-7.6590 Y10.3900 
G01 X-7.8461 Y10.2029 
G01 X-8.0073 Y9.9929 
G01 X-8.1396 Y9.7637 
G01 X-8.2409 Y9.5192 
G01 X-8.3094 Y9.2636 
G01 X-8.3439 Y9.0012 
G01 X-8.3439 Y5.9413 
G01 X-8.4563 Y5.8289 
G01 X-20.8411 Y5.8289 
G01 X-20.8411 Y8.9423 
G01 X-20.8756 Y9.2047 
G01 X-20.9441 Y9.4603 
G01 X-21.0454 Y9.7049 
G01 X-21.1777 Y9.9340 
G01 X-21.3389 Y10.1440 
G01 X-21.6060 Y10.4111 
G01 X-21.8160 Y10.5723 
G01 X-22.0451 Y10.7046 
G01 X-22.2897 Y10.8059 
G01 X-22.5453 Y10.8744 
G01 X-22.8077 Y10.9089 
G01 X-23.0723 Y10.9089 
G01 X-23.3347 Y10.8744 
G01 X-23.5903 Y10.8059 
G01 X-23.8348 Y10.7046 
G01 X-24.0640 Y10.5723 
G01 X-24.2740 Y10.4111 
G01 X-24.4611 Y10.2240 
G01 X-24.6223 Y10.0140 
G01 X-24.7546 Y9.7849 
G01 X-24.8559 Y9.5403 
G01 X-24.9244 Y9.2847 
G01 X-24.9589 Y9.0223 
G01 X-24.9589 Y8.7577 
G01 X-24.9244 Y8.4953 
G01 X-24.8789 Y8.3256 
G01 X-24.8789 Y3.6777 
G01 X-24.8444 Y3.4153 
G01 X-24.7759 Y3.1597 
G01 X-24.6746 Y2.9151 
G01 X-24.5423 Y2.6860 
G01 X-24.3811 Y2.4760 
G01 X-24.1940 Y2.2889 
G01 X-23.9840 Y2.1277 
G01 X-23.7549 Y1.9954 
G01 X-23.5103 Y1.8941 
G01 X-23.2547 Y1.8256 
G01 X-22.9923 Y1.7911 
G01 X-7.4877 Y1.7911 
G01 X-7.2253 Y1.8256 
G01 X-6.9696 Y1.8941 
G01 X-6.7251 Y1.9954 
G01 X-6.4959 Y2.1277 
G01 X-6.2860 Y2.2889 
G01 X-6.0989 Y2.4760 
G01 X-4.8039 Y3.7710 
G00 Z2.0000  F3000
G00 X-5.4234 Y12.8933  F3000
G01 Z-0.2000 F200.00 
G01 X-1.4844 Y16.8324 F500.00 
G01 X-1.3564 Y17.0086 
G01 X-1.2575 Y17.2027 
G01 X-1.1902 Y17.4098 
G01 X-1.1561 Y17.6250 
G01 X-1.1561 Y30.5889 
G01 X-1.1902 Y30.8041 
G01 X-1.2575 Y31.0112 
G01 X-1.3564 Y31.2053 
G01 X-1.4844 Y31.3815 
G01 X-1.6384 Y31.5356 
G01 X-1.8147 Y31.6636 
G01 X-2.0088 Y31.7625 
G01 X-2.2159 Y31.8298 
G01 X-2.4311 Y31.8639 
G01 X-2.6489 Y31.8639 
G01 X-2.7821 Y31.8428 
G01 X-6.4339 Y31.8428 
G01 X-6.6491 Y31.8087 
G01 X-6.8562 Y31.7414 
G01 X-7.0503 Y31.6425 
G01 X-7.2265 Y31.5145 
G01 X-7.3806 Y31.3604 
G01 X-7.5086 Y31.1842 
G01 X-7.6075 Y30.9901 
G01 X-7.6748 Y30.7830 
G01 X-7.7089 Y30.5678 
G01 X-7.7089 Y30.3500 
G01 X-7.6748 Y30.1348 
G01 X-7.6075 Y29.9277 
G01 X-7.5086 Y29.7336 
G01 X-7.3806 Y29.5573 
G01 X-7.2265 Y29.4033 
G01 X-7.0503 Y29.2753 
G01 X-6.8562 Y29.1764 
G01 X-6.6491 Y29.1091 
G01 X-6.4339 Y29.0750 
G01 X-3.9239 Y29.0750 
G01 X-3.9239 Y18.3071 
G01 X-7.2792 Y14.9518 
G01 X-7.7399 Y14.9518 
G01 X-7.9336 Y14.9133 
G01 X-8.1161 Y14.8377 
G01 X-8.2804 Y14.7279 
G01 X-13.4790 Y9.5293 
G01 X-13.5888 Y9.3651 
G01 X-13.6644 Y9.1825 
G01 X-13.7029 Y8.9888 
G01 X-13.7029 Y8.7912 
G01 X-13.6644 Y8.5975 
G01 X-13.5888 Y8.4149 
G01 X-13.4790 Y8.2507 
G01 X-13.3393 Y8.1110 
G01 X-13.1751 Y8.0012 
G01 X-12.9925 Y7.9256 
G01 X-12.7988 Y7.8871 
G01 X-12.6012 Y7.8871 
G01 X-12.4075 Y7.9256 
G01 X-12.2249 Y8.0012 
G01 X-12.0607 Y8.1110 
G01 X-7.2525 Y12.9192 
G01 X-7.2265 Y12.8933 
G01 X-7.0503 Y12.7653 
G01 X-6.8562 Y12.6664 
G01 X-6.6491 Y12.5991 
G01 X-6.4339 Y12.5650 
G01 X-6.2161 Y12.5650 
G01 X-6.0009 Y12.5991 
G01 X-5.7938 Y12.6664 
G01 X-5.5997 Y12.7653 
G01 X-5.4234 Y12.8933 
G00 Z2.0000  F3000
G00 X-6.0989 Y18.9860  F3000
G01 Z-0.2000 F200.00 
G01 X-5.9377 Y19.1959 F500.00 
G01 X-5.8054 Y19.4251 
G01 X-5.7041 Y19.6697 
G01 X-5.6356 Y19.9253 
G01 X-5.6011 Y20.1877 
G01 X-5.6011 Y23.2476 
G01 X-4.8039 Y24.0449 
G01 X-4.6427 Y24.2549 
G01 X-4.5104 Y24.4840 
G01 X-4.4091 Y24.7285 
G01 X-4.3406 Y24.9842 
G01 X-4.3061 Y25.2466 
G01 X-4.3061 Y25.5112 
G01 X-4.3406 Y25.7736 
G01 X-4.4091 Y26.0292 
G01 X-4.5104 Y26.2737 
G01 X-4.6427 Y26.5029 
G01 X-4.8039 Y26.7129 
G01 X-4.9910 Y26.9000 
G01 X-5.2009 Y27.0612 
G01 X-5.4301 Y27.1935 
G01 X-5.6746 Y27.2948 
G01 X-5.9303 Y27.3633 
G01 X-6.1927 Y27.3978 
G01 X-6.4573 Y27.3978 
G01 X-6.7197 Y27.3633 
G01 X-6.9753 Y27.2948 
G01 X-7.2199 Y27.1935 
G01 X-7.4490 Y27.0612 
G01 X-7.6590 Y26.9000 
G01 X-9.1411 Y25.4179 
G01 X-9.3023 Y25.2079 
G01 X-9.4346 Y24.9788 
G01 X-9.5359 Y24.7342 
G01 X-9.6044 Y24.4786 
G01 X-9.6389 Y24.2162 
G01 X-9.6389 Y21.1563 
G01 X-14.2211 Y16.5740 
G01 X-14.3823 Y16.3640 
G01 X-14.5146 Y16.1349 
G01 X-14.6159 Y15.8903 
G01 X-14.6844 Y15.6347 
G01 X-14.7189 Y15.3723 
G01 X-14.7189 Y15.1782 
G01 X-15.8132 Y14.0839 
G01 X-16.6189 Y14.0839 
G01 X-16.8341 Y14.0498 
G01 X-17.0412 Y13.9825 
G01 X-17.2353 Y13.8836 
G01 X-17.4115 Y13.7556 
G01 X-17.4642 Y13.7029 
G01 X-17.4978 Y13.7029 
G01 X-17.6915 Y13.6644 
G01 X-17.8741 Y13.5888 
G01 X-18.0383 Y13.4790 
G01 X-18.1780 Y13.3393 
G01 X-18.2878 Y13.1751 
G01 X-18.3634 Y12.9925 
G01 X-18.4019 Y12.7988 
G01 X-18.4019 Y12.6012 
G01 X-18.3634 Y12.4075 
G01 X-18.2878 Y12.2249 
G01 X-18.1780 Y12.0607 
G01 X-18.0383 Y11.9210 
G01 X-17.8741 Y11.8112 
G01 X-17.6915 Y11.7356 
G01 X-17.4978 Y11.6971 
G01 X-17.4642 Y11.6971 
G01 X-17.4115 Y11.6444 
G01 X-17.2353 Y11.5164 
G01 X-17.0412 Y11.4175 
G01 X-16.8341 Y11.3502 
G01 X-16.6189 Y11.3161 
G01 X-15.1311 Y11.3161 
G01 X-14.9159 Y11.3502 
G01 X-14.7088 Y11.4175 
G01 X-14.5147 Y11.5164 
G01 X-14.3384 Y11.6444 
G01 X-12.7618 Y13.2211 
G01 X-12.5677 Y13.2211 
G01 X-12.3053 Y13.2556 
G01 X-12.0496 Y13.3241 
G01 X-11.8051 Y13.4254 
G01 X-11.5760 Y13.5577 
G01 X-11.3660 Y13.7189 
G01 X-6.2860 Y18.7989 
G01 X-6.0989 Y18.9860 
G00 Z2.0000  F3000
G00 X-14.9817 Y18.5590  F3000
G01 Z-0.2000 F200.00 
G01 X-15.1459 Y18.6688 F500.00 
G01 X-15.3285 Y18.7444 
G01 X-15.5222 Y18.7829 
G01 X-16.1046 Y18.7829 
G01 X-16.2573 Y18.8325 
G01 X-16.4251 Y18.8591 
G01 X-17.3418 Y18.8591 
G01 X-17.3677 Y18.9040 
G01 X-17.5289 Y19.1140 
G01 X-17.7160 Y19.3011 
G01 X-17.9260 Y19.4623 
G01 X-18.1551 Y19.5946 
G01 X-18.3997 Y19.6959 
G01 X-18.6553 Y19.7644 
G01 X-18.9177 Y19.7989 
G01 X-24.2623 Y19.7989 
G01 X-24.5247 Y19.7644 
G01 X-24.7803 Y19.6959 
G01 X-25.0249 Y19.5946 
G01 X-25.2540 Y19.4623 
G01 X-25.4640 Y19.3011 
G01 X-25.6511 Y19.1140 
G01 X-26.0990 Y18.6661 
G01 X-30.7311 Y14.0340 
G01 X-30.8923 Y13.8240 
G01 X-31.0246 Y13.5948 
G01 X-31.1259 Y13.3503 
G01 X-31.1944 Y13.0947 
G01 X-31.2289 Y12.8323 
G01 X-31.2289 Y10.9089 
G01 X-45.7723 Y10.9089 
G01 X-46.0347 Y10.8744 
G01 X-46.2903 Y10.8059 
G01 X-46.5348 Y10.7046 
G01 X-46.7640 Y10.5723 
G01 X-46.9740 Y10.4111 
G01 X-47.1611 Y10.2240 
G01 X-47.3223 Y10.0140 
G01 X-47.4546 Y9.7849 
G01 X-47.5559 Y9.5403 
G01 X-47.6244 Y9.2847 
G01 X-47.6589 Y9.0223 
G01 X-47.6589 Y8.7577 
G01 X-47.6244 Y8.4953 
G01 X-47.5559 Y8.2396 
G01 X-47.4546 Y7.9951 
G01 X-47.3223 Y7.7660 
G01 X-47.1611 Y7.5560 
G01 X-46.9740 Y7.3689 
G01 X-46.7640 Y7.2077 
G01 X-46.5348 Y7.0754 
G01 X-46.2903 Y6.9741 
G01 X-46.0347 Y6.9056 
G01 X-45.7723 Y6.8711 
G01 X-29.0777 Y6.8711 
G01 X-28.8153 Y6.9056 
G01 X-28.5597 Y6.9741 
G01 X-28.3151 Y7.0754 
G01 X-28.0860 Y7.2077 
G01 X-27.8760 Y7.3689 
G01 X-27.6889 Y7.5560 
G01 X-27.5277 Y7.7660 
G01 X-27.3954 Y7.9951 
G01 X-27.2941 Y8.2396 
G01 X-27.2256 Y8.4953 
G01 X-27.1911 Y8.7577 
G01 X-27.1911 Y11.8637 
G01 X-23.2937 Y15.7611 
G01 X-18.9177 Y15.7611 
G01 X-18.6553 Y15.7956 
G01 X-18.3997 Y15.8641 
G01 X-18.1551 Y15.9654 
G01 X-17.9260 Y16.0977 
G01 X-17.7160 Y16.2589 
G01 X-17.5289 Y16.4460 
G01 X-17.3677 Y16.6560 
G01 X-17.3418 Y16.7009 
G01 X-16.4251 Y16.7009 
G01 X-16.2573 Y16.7275 
G01 X-16.1046 Y16.7771 
G01 X-15.5222 Y16.7771 
G01 X-15.3285 Y16.8156 
G01 X-15.1459 Y16.8912 
G01 X-14.9817 Y17.0010 
G01 X-14.8420 Y17.1407 
G01 X-14.7322 Y17.3049 
G01 X-14.6566 Y17.4875 
G01 X-14.6181 Y17.6812 
G01 X-14.6181 Y17.8788 
G01 X-14.6566 Y18.0725 
G01 X-14.7322 Y18.2551 
G01 X-14.8420 Y18.4193 
G01 X-14.9817 Y18.5590 
G00 Z2.0000  F3000
G00 X-19.4969 Y24.6970  F3000
G01 Z-0.2000 F200.00 
G01 X-19.3971 Y24.8344 F500.00 
G01 X-19.3242 Y24.9775 
G01 X-18.2710 Y26.0307 
G01 X-18.1612 Y26.1949 
G01 X-18.0856 Y26.3775 
G01 X-18.0471 Y26.5712 
G01 X-18.0471 Y26.9401 
G01 X-17.8685 Y26.9756 
G01 X-17.6859 Y27.0512 
G01 X-17.5217 Y27.1610 
G01 X-17.3820 Y27.3007 
G01 X-17.2722 Y27.4649 
G01 X-17.1966 Y27.6475 
G01 X-17.1581 Y27.8412 
G01 X-17.1581 Y28.0388 
G01 X-17.1966 Y28.2325 
G01 X-17.2722 Y28.4151 
G01 X-17.3820 Y28.5793 
G01 X-17.5217 Y28.7190 
G01 X-17.6859 Y28.8288 
G01 X-17.8685 Y28.9044 
G01 X-18.0622 Y28.9429 
G01 X-20.0378 Y28.9429 
G01 X-20.2315 Y28.9044 
G01 X-20.4140 Y28.8288 
G01 X-20.5783 Y28.7190 
G01 X-20.7180 Y28.5793 
G01 X-20.8278 Y28.4151 
G01 X-20.9034 Y28.2325 
G01 X-20.9419 Y28.0388 
G01 X-20.9419 Y27.8412 
G01 X-20.9034 Y27.6475 
G01 X-20.8278 Y27.4649 
G01 X-20.7180 Y27.3007 
G01 X-20.5783 Y27.1610 
G01 X-20.4140 Y27.0512 
G01 X-20.2315 Y26.9756 
G01 X-20.1741 Y26.9642 
G01 X-20.6592 Y26.4791 
G01 X-28.0249 Y26.4791 
G01 X-28.1927 Y26.4525 
G01 X-28.3542 Y26.4000 
G01 X-28.5056 Y26.3229 
G01 X-28.6430 Y26.2231 
G01 X-31.1830 Y23.6831 
G01 X-31.3031 Y23.5630 
G01 X-31.4029 Y23.4256 
G01 X-31.4800 Y23.2742 
G01 X-31.5325 Y23.1127 
G01 X-31.5591 Y22.9449 
G01 X-31.5591 Y20.1320 
G01 X-35.4482 Y16.2429 
G01 X-49.6288 Y16.2429 
G01 X-49.8225 Y16.2044 
G01 X-50.0050 Y16.1288 
G01 X-50.1693 Y16.0190 
G01 X-50.3090 Y15.8793 
G01 X-50.4188 Y15.7150 
G01 X-50.4944 Y15.5325 
G01 X-50.5329 Y15.3388 
G01 X-50.5329 Y13.1154 
G01 X-52.4854 Y11.1629 
G01 X-64.3546 Y11.1629 
G01 X-67.3935 Y14.2018 
G01 X-67.4395 Y14.3736 
G01 X-67.5167 Y14.5470 
G01 X-67.6200 Y14.7063 
G01 X-67.6279 Y14.7150 
G01 X-67.6279 Y21.1756 
G01 X-67.5674 Y21.2361 
G01 X-67.4773 Y21.2361 
G01 X-67.4355 Y21.2534 
G01 X-67.4034 Y21.2855 
G01 X-67.3861 Y21.3273 
G01 X-67.3861 Y21.5684 
G01 X-67.3845 Y21.5723 
G01 X-67.3479 Y21.7562 
G01 X-67.3479 Y21.9438 
G01 X-67.3845 Y22.1277 
G01 X-67.3861 Y22.1316 
G01 X-67.3861 Y22.3727 
G01 X-67.4034 Y22.4145 
G01 X-67.4355 Y22.4466 
G01 X-67.4773 Y22.4639 
G01 X-67.5674 Y22.4639 
G01 X-67.6931 Y22.5895 
G01 X-67.8490 Y22.6937 
G01 X-68.0223 Y22.7655 
G01 X-68.2062 Y22.8021 
G01 X-68.6738 Y22.8021 
G01 X-68.8577 Y22.7655 
G01 X-69.0310 Y22.6937 
G01 X-69.1869 Y22.5895 
G01 X-69.3195 Y22.4569 
G01 X-69.4237 Y22.3010 
G01 X-69.4955 Y22.1277 
G01 X-69.5321 Y21.9438 
G01 X-69.5321 Y14.9221 
G01 X-74.8971 Y14.9221 
G01 X-74.9857 Y14.9588 
G01 X-75.1843 Y14.9983 
G01 X-77.2157 Y14.9983 
G01 X-77.4143 Y14.9588 
G01 X-77.6015 Y14.8813 
G01 X-77.7699 Y14.7687 
G01 X-77.9131 Y14.6255 
G01 X-78.0257 Y14.4571 
G01 X-78.1032 Y14.2699 
G01 X-78.1427 Y14.0713 
G01 X-78.1427 Y13.8687 
G01 X-78.1032 Y13.6701 
G01 X-78.0257 Y13.4829 
G01 X-77.9131 Y13.3145 
G01 X-77.7699 Y13.1713 
G01 X-77.6015 Y13.0587 
G01 X-77.4143 Y12.9812 
G01 X-77.2157 Y12.9417 
G01 X-75.1843 Y12.9417 
G01 X-74.9857 Y12.9812 
G01 X-74.8971 Y13.0179 
G01 X-71.4408 Y13.0179 
G01 X-75.3928 Y9.4611 
G01 X-83.2799 Y9.4611 
G01 X-83.4674 Y9.4314 
G01 X-83.6480 Y9.3727 
G01 X-83.8171 Y9.2865 
G01 X-83.9707 Y9.1750 
G01 X-84.1050 Y9.0407 
G01 X-84.2165 Y8.8871 
G01 X-84.3027 Y8.7180 
G01 X-84.3614 Y8.5374 
G01 X-84.3911 Y8.3499 
G01 X-84.3911 Y8.1601 
G01 X-84.3614 Y7.9726 
G01 X-84.3027 Y7.7920 
G01 X-84.2165 Y7.6229 
G01 X-84.1050 Y7.4693 
G01 X-83.9707 Y7.3350 
G01 X-83.8171 Y7.2234 
G01 X-83.6480 Y7.1373 
G01 X-83.4674 Y7.0786 
G01 X-83.2799 Y7.0489 
G01 X-74.9617 Y7.0489 
G01 X-74.8986 Y7.0456 
G01 X-74.8669 Y7.0489 
G01 X-74.8351 Y7.0489 
G01 X-74.7726 Y7.0588 
G01 X-74.7098 Y7.0654 
G01 X-74.6790 Y7.0736 
G01 X-74.6476 Y7.0786 
G01 X-74.5874 Y7.0981 
G01 X-74.5264 Y7.1145 
G01 X-74.4973 Y7.1274 
G01 X-74.4670 Y7.1373 
G01 X-74.4107 Y7.1660 
G01 X-74.3530 Y7.1917 
G01 X-74.3263 Y7.2090 
G01 X-74.2979 Y7.2234 
G01 X-74.2467 Y7.2606 
G01 X-74.1937 Y7.2950 
G01 X-74.1700 Y7.3163 
G01 X-74.1443 Y7.3350 
G01 X-74.0996 Y7.3797 
G01 X-68.4725 Y12.4441 
G01 X-65.4093 Y9.3810 
G01 X-65.2451 Y9.2712 
G01 X-65.0625 Y9.1956 
G01 X-64.8688 Y9.1571 
G01 X-64.6712 Y9.1571 
G01 X-52.1688 Y9.1571 
G01 X-51.9712 Y9.1571 
G01 X-51.7775 Y9.1956 
G01 X-51.5949 Y9.2712 
G01 X-51.4307 Y9.3810 
G01 X-48.8907 Y11.9210 
G01 X-48.7510 Y12.0607 
G01 X-48.6412 Y12.2249 
G01 X-48.5656 Y12.4075 
G01 X-48.5271 Y12.6012 
G01 X-48.5271 Y14.2371 
G01 X-35.3304 Y14.2371 
G01 X-35.1777 Y14.1875 
G01 X-35.0099 Y14.1609 
G01 X-34.8401 Y14.1609 
G01 X-34.6723 Y14.1875 
G01 X-34.5108 Y14.2400 
G01 X-34.3594 Y14.3171 
G01 X-34.2220 Y14.4169 
G01 X-29.8514 Y18.7875 
G01 X-29.7947 Y18.8442 
G01 X-29.7313 Y18.9076 
G01 X-29.7172 Y18.9218 
G01 X-29.5938 Y19.0915 
G01 X-29.4986 Y19.2785 
G01 X-29.4337 Y19.4780 
G01 X-29.4009 Y19.6853 
G01 X-29.4009 Y22.4130 
G01 X-27.4930 Y24.3209 
G01 X-20.2351 Y24.3209 
G01 X-20.0673 Y24.3475 
G01 X-19.9058 Y24.4000 
G01 X-19.7544 Y24.4771 
G01 X-19.6170 Y24.5769 
G01 X-19.4969 Y24.6970 
G00 Z2.0000  F3000
G00 X-20.6358 Y29.4771  F3000
G01 Z-0.2000 F200.00 
G01 X-18.0622 Y29.4771 F500.00 
G01 X-17.8685 Y29.5156 
G01 X-17.6859 Y29.5912 
G01 X-17.5217 Y29.7010 
G01 X-17.3820 Y29.8407 
G01 X-17.2722 Y30.0049 
G01 X-17.1966 Y30.1875 
G01 X-17.1581 Y30.3812 
G01 X-17.1581 Y30.5788 
G01 X-17.1966 Y30.7725 
G01 X-17.2722 Y30.9550 
G01 X-17.3820 Y31.1193 
G01 X-17.5217 Y31.2590 
G01 X-17.6859 Y31.3688 
G01 X-17.8685 Y31.4444 
G01 X-18.0622 Y31.4829 
G01 X-20.0378 Y31.4829 
G01 X-20.6358 Y31.4829 
G01 X-20.6884 Y31.5356 
G01 X-20.8647 Y31.6636 
G01 X-21.0588 Y31.7625 
G01 X-21.2659 Y31.8298 
G01 X-21.4811 Y31.8639 
G01 X-30.4837 Y31.8639 
G01 X-30.4914 Y31.8627 
G01 X-30.6950 Y31.8359 
G01 X-30.9024 Y31.7803 
G01 X-31.1008 Y31.6981 
G01 X-31.2867 Y31.5908 
G01 X-31.4497 Y31.4657 
G01 X-31.4559 Y31.4612 
G01 X-36.4615 Y26.4556 
G01 X-36.6156 Y26.3015 
G01 X-36.7436 Y26.1253 
G01 X-36.8425 Y25.9312 
G01 X-36.9098 Y25.7241 
G01 X-36.9439 Y25.5089 
G01 X-36.9439 Y22.3389 
G01 X-38.6206 Y22.3389 
G01 X-38.6206 Y23.3907 
G01 X-38.6379 Y23.4325 
G01 X-38.6700 Y23.4646 
G01 X-38.7118 Y23.4819 
G01 X-44.4722 Y23.4819 
G01 X-44.5140 Y23.4646 
G01 X-44.5461 Y23.4325 
G01 X-44.5634 Y23.3907 
G01 X-44.5634 Y18.5193 
G01 X-44.5461 Y18.4775 
G01 X-44.5140 Y18.4454 
G01 X-44.4722 Y18.4281 
G01 X-38.7118 Y18.4281 
G01 X-38.6700 Y18.4454 
G01 X-38.6379 Y18.4775 
G01 X-38.6206 Y18.5193 
G01 X-38.6206 Y19.5711 
G01 X-35.4511 Y19.5711 
G01 X-35.2359 Y19.6052 
G01 X-35.0288 Y19.6725 
G01 X-34.8347 Y19.7714 
G01 X-34.6585 Y19.8994 
G01 X-34.5044 Y20.0535 
G01 X-34.3764 Y20.2297 
G01 X-34.2775 Y20.4238 
G01 X-34.2102 Y20.6309 
G01 X-34.1761 Y20.8461 
G01 X-34.1761 Y24.8268 
G01 X-29.9068 Y29.0961 
G01 X-21.4811 Y29.0961 
G01 X-21.2659 Y29.1302 
G01 X-21.0588 Y29.1975 
G01 X-20.8647 Y29.2964 
G01 X-20.6884 Y29.4244 
G01 X-20.6358 Y29.4771 
G00 Z2.0000  F3000
G00 X-23.9353 Y28.9557  F3000
G01 Z-0.2000 F200.00 
G01 X-24.0076 Y28.9975 F500.00 
G01 X-24.0882 Y29.0191 
G01 X-29.7853 Y29.0191 
G01 X-29.8659 Y28.9975 
G01 X-29.9382 Y28.9557 
G01 X-33.9767 Y24.9173 
G01 X-34.0357 Y24.8582 
G01 X-34.0775 Y24.7859 
G01 X-34.0991 Y24.7053 
G01 X-34.0991 Y20.6644 
G01 X-34.3215 Y20.1275 
G01 X-34.7325 Y19.7165 
G01 X-35.2694 Y19.4941 
G01 X-38.2682 Y19.4941 
G01 X-38.3489 Y19.4725 
G01 X-38.4212 Y19.4307 
G01 X-38.4802 Y19.3717 
G01 X-38.5220 Y19.2994 
G01 X-38.5436 Y19.2187 
G01 X-38.5436 Y18.4629 
G01 X-38.6554 Y18.3511 
G01 X-44.5286 Y18.3511 
G01 X-44.6404 Y18.4629 
G01 X-44.6404 Y23.4471 
G01 X-44.5286 Y23.5589 
G01 X-38.6554 Y23.5589 
G01 X-38.5436 Y23.4471 
G01 X-38.5436 Y22.6912 
G01 X-38.5220 Y22.6106 
G01 X-38.4802 Y22.5383 
G01 X-38.4212 Y22.4793 
G01 X-38.3489 Y22.4375 
G01 X-38.2682 Y22.4159 
G01 X-37.2962 Y22.4159 
G01 X-37.2156 Y22.4375 
G01 X-37.1433 Y22.4793 
G01 X-37.0843 Y22.5383 
G01 X-37.0425 Y22.6106 
G01 X-37.0209 Y22.6912 
G01 X-37.0209 Y25.6906 
G01 X-36.7985 Y26.2275 
G01 X-36.3724 Y26.6536 
G01 X-31.8670 Y31.1590 
G01 X-31.8080 Y31.2181 
G01 X-31.6581 Y31.3679 
G01 X-31.3668 Y31.6592 
G01 X-31.3462 Y31.6798 
G01 X-30.7159 Y31.9409 
G01 X-24.0882 Y31.9409 
G01 X-24.0076 Y31.9625 
G01 X-23.9353 Y32.0043 
G01 X-23.8763 Y32.0633 
G01 X-23.8345 Y32.1356 
G01 X-23.8129 Y32.2162 
G01 X-23.8129 Y33.3358 
G01 X-23.6549 Y33.4012 
G01 X-23.4907 Y33.5110 
G01 X-23.3510 Y33.6507 
G01 X-21.1746 Y35.8271 
G01 X-12.6012 Y35.8271 
G01 X-12.4075 Y35.8656 
G01 X-12.2249 Y35.9412 
G01 X-12.0607 Y36.0510 
G01 X-11.9210 Y36.1907 
G01 X-11.8112 Y36.3549 
G01 X-11.7356 Y36.5375 
G01 X-11.6971 Y36.7312 
G01 X-11.6971 Y36.9288 
G01 X-11.7356 Y37.1225 
G01 X-11.8112 Y37.3051 
G01 X-11.9210 Y37.4693 
G01 X-12.0607 Y37.6090 
G01 X-12.2249 Y37.7188 
G01 X-12.4075 Y37.7944 
G01 X-12.6012 Y37.8329 
G01 X-21.6888 Y37.8329 
G01 X-21.8825 Y37.7944 
G01 X-22.0650 Y37.7188 
G01 X-22.2293 Y37.6090 
G01 X-23.8129 Y36.0254 
G01 X-23.8129 Y40.6491 
G01 X-23.8129 Y40.7325 
G01 X-23.8345 Y40.8132 
G01 X-23.8763 Y40.8855 
G01 X-23.9353 Y40.9445 
G01 X-24.0076 Y40.9863 
G01 X-24.0882 Y41.0079 
G01 X-26.3201 Y41.0079 
G01 X-26.3409 Y41.0106 
G01 X-26.3617 Y41.0079 
G01 X-26.3827 Y41.0079 
G01 X-26.4029 Y41.0025 
G01 X-26.4237 Y40.9997 
G01 X-26.4431 Y40.9917 
G01 X-26.4633 Y40.9863 
G01 X-26.4815 Y40.9758 
G01 X-26.5008 Y40.9678 
G01 X-26.5175 Y40.9550 
G01 X-26.5356 Y40.9445 
G01 X-26.5504 Y40.9297 
G01 X-26.5671 Y40.9170 
G01 X-26.5798 Y40.9003 
G01 X-26.5947 Y40.8855 
G01 X-26.6051 Y40.8673 
G01 X-26.6179 Y40.8507 
G01 X-26.6259 Y40.8313 
G01 X-26.6364 Y40.8132 
G01 X-26.6418 Y40.7929 
G01 X-26.6499 Y40.7736 
G01 X-26.6526 Y40.7528 
G01 X-26.6580 Y40.7325 
G01 X-26.6580 Y40.7116 
G01 X-26.6608 Y40.6908 
G01 X-26.6580 Y40.6700 
G01 X-26.6580 Y40.6491 
G01 X-26.6526 Y40.6288 
G01 X-26.6499 Y40.6080 
G01 X-26.6418 Y40.5887 
G01 X-26.6364 Y40.5684 
G01 X-26.6259 Y40.5502 
G01 X-26.6179 Y40.5309 
G01 X-26.6051 Y40.5143 
G01 X-26.5947 Y40.4961 
G01 X-26.5798 Y40.4813 
G01 X-26.5671 Y40.4646 
G01 X-26.5504 Y40.4519 
G01 X-26.5356 Y40.4371 
G01 X-26.5175 Y40.4266 
G01 X-26.5008 Y40.4138 
G01 X-26.4815 Y40.4058 
G01 X-26.4633 Y40.3953 
G01 X-26.4431 Y40.3899 
G01 X-26.0871 Y40.2424 
G01 X-25.7976 Y39.9529 
G01 X-25.6409 Y39.5747 
G01 X-25.6409 Y39.1653 
G01 X-25.7976 Y38.7871 
G01 X-26.0871 Y38.4976 
G01 X-26.4653 Y38.3409 
G01 X-82.5646 Y38.3409 
G01 X-82.5854 Y38.3436 
G01 X-82.6061 Y38.3409 
G01 X-82.6271 Y38.3409 
G01 X-82.6474 Y38.3355 
G01 X-82.6681 Y38.3327 
G01 X-82.6875 Y38.3247 
G01 X-82.7078 Y38.3193 
G01 X-82.7259 Y38.3088 
G01 X-82.9550 Y38.2139 
G01 X-88.3315 Y38.2139 
G01 X-88.4122 Y38.1923 
G01 X-88.4845 Y38.1505 
G01 X-88.8915 Y37.7435 
G01 X-88.9505 Y37.6845 
G01 X-88.9923 Y37.6122 
G01 X-89.0139 Y37.5315 
G01 X-89.0139 Y35.3912 
G01 X-88.9923 Y35.3106 
G01 X-88.9505 Y35.2383 
G01 X-88.8915 Y35.1793 
G01 X-88.8192 Y35.1375 
G01 X-88.7385 Y35.1159 
G01 X-86.0694 Y35.1159 
G01 X-85.5325 Y34.8935 
G01 X-85.1215 Y34.4825 
G01 X-84.9591 Y34.0905 
G01 X-84.9537 Y34.0702 
G01 X-84.9432 Y34.0521 
G01 X-84.9352 Y34.0327 
G01 X-84.9224 Y34.0161 
G01 X-84.9119 Y33.9979 
G01 X-84.8971 Y33.9831 
G01 X-84.8844 Y33.9665 
G01 X-84.8677 Y33.9537 
G01 X-84.8529 Y33.9389 
G01 X-84.8347 Y33.9284 
G01 X-84.8181 Y33.9156 
G01 X-84.7987 Y33.9076 
G01 X-84.7806 Y33.8971 
G01 X-84.7603 Y33.8917 
G01 X-84.7410 Y33.8837 
G01 X-84.7202 Y33.8809 
G01 X-84.6999 Y33.8755 
G01 X-84.6790 Y33.8755 
G01 X-84.6582 Y33.8728 
G01 X-84.6374 Y33.8755 
G01 X-84.6164 Y33.8755 
G01 X-84.5962 Y33.8809 
G01 X-84.5754 Y33.8837 
G01 X-84.5561 Y33.8917 
G01 X-84.5358 Y33.8971 
G01 X-84.5176 Y33.9076 
G01 X-84.4983 Y33.9156 
G01 X-84.4817 Y33.9284 
G01 X-84.4635 Y33.9389 
G01 X-84.4487 Y33.9537 
G01 X-84.4320 Y33.9665 
G01 X-84.4193 Y33.9831 
G01 X-84.4045 Y33.9979 
G01 X-84.3940 Y34.0161 
G01 X-84.3812 Y34.0327 
G01 X-84.3732 Y34.0521 
G01 X-84.3627 Y34.0702 
G01 X-84.3573 Y34.0905 
G01 X-84.3493 Y34.1098 
G01 X-84.3465 Y34.1306 
G01 X-84.3411 Y34.1509 
G01 X-84.3411 Y34.1718 
G01 X-84.3384 Y34.1926 
G01 X-84.3411 Y34.2134 
G01 X-84.3411 Y35.7900 
G01 X-84.1651 Y36.2149 
G01 X-83.8399 Y36.5401 
G01 X-83.4150 Y36.7161 
G01 X-68.3500 Y36.7161 
G01 X-67.9251 Y36.5401 
G01 X-67.5999 Y36.2149 
G01 X-67.4239 Y35.7900 
G01 X-67.4239 Y35.3300 
G01 X-67.5188 Y35.1009 
G01 X-67.5293 Y35.0827 
G01 X-67.5347 Y35.0625 
G01 X-67.5427 Y35.0431 
G01 X-67.5455 Y35.0224 
G01 X-67.5509 Y35.0021 
G01 X-67.5509 Y34.9811 
G01 X-67.5536 Y34.9604 
G01 X-67.5509 Y34.9396 
G01 X-67.5509 Y27.3205 
G01 X-67.5293 Y27.2398 
G01 X-67.4875 Y27.1675 
G01 X-67.3091 Y26.9891 
G01 X-67.3091 Y26.7908 
G01 X-67.3118 Y26.7700 
G01 X-67.3091 Y26.7492 
G01 X-67.3091 Y26.7282 
G01 X-67.3037 Y26.7080 
G01 X-67.3009 Y26.6872 
G01 X-67.2929 Y26.6679 
G01 X-67.2875 Y26.6476 
G01 X-67.2770 Y26.6294 
G01 X-67.2709 Y26.6147 
G01 X-67.2709 Y26.2053 
G01 X-67.2770 Y26.1906 
G01 X-67.2875 Y26.1724 
G01 X-67.2929 Y26.1521 
G01 X-67.3009 Y26.1328 
G01 X-67.3037 Y26.1120 
G01 X-67.3091 Y26.0917 
G01 X-67.3091 Y26.0708 
G01 X-67.3118 Y26.0500 
G01 X-67.3091 Y26.0292 
G01 X-67.3091 Y25.8309 
G01 X-67.4209 Y25.7191 
G01 X-67.4459 Y25.7191 
G01 X-67.5266 Y25.6975 
G01 X-67.5989 Y25.6557 
G01 X-67.7171 Y25.5376 
G01 X-68.0953 Y25.3809 
G01 X-68.7847 Y25.3809 
G01 X-69.1629 Y25.5376 
G01 X-69.4524 Y25.8271 
G01 X-69.6091 Y26.2053 
G01 X-69.6091 Y34.1285 
G01 X-69.6307 Y34.2092 
G01 X-69.6725 Y34.2815 
G01 X-69.7315 Y34.3405 
G01 X-69.8038 Y34.3823 
G01 X-69.8844 Y34.4039 
G01 X-81.7535 Y34.4039 
G01 X-81.8342 Y34.3823 
G01 X-81.9065 Y34.3405 
G01 X-81.9655 Y34.2815 
G01 X-82.0073 Y34.2092 
G01 X-82.0289 Y34.1285 
G01 X-82.0289 Y28.9800 
G01 X-82.2049 Y28.5551 
G01 X-82.5301 Y28.2299 
G01 X-82.9550 Y28.0539 
G01 X-83.4150 Y28.0539 
G01 X-83.8399 Y28.2299 
G01 X-84.1651 Y28.5551 
G01 X-84.2811 Y28.8352 
G01 X-84.2865 Y28.8554 
G01 X-84.2970 Y28.8736 
G01 X-84.3050 Y28.8929 
G01 X-84.3178 Y28.9096 
G01 X-84.3283 Y28.9277 
G01 X-84.3431 Y28.9425 
G01 X-84.3558 Y28.9592 
G01 X-84.3725 Y28.9719 
G01 X-84.3873 Y28.9868 
G01 X-84.4055 Y28.9972 
G01 X-84.4221 Y29.0100 
G01 X-84.4414 Y29.0180 
G01 X-84.4596 Y29.0285 
G01 X-84.4799 Y29.0339 
G01 X-84.4992 Y29.0419 
G01 X-84.5200 Y29.0447 
G01 X-84.5403 Y29.0501 
G01 X-84.5612 Y29.0501 
G01 X-84.5820 Y29.0528 
G01 X-84.6028 Y29.0501 
G01 X-84.6237 Y29.0501 
G01 X-84.6440 Y29.0447 
G01 X-84.6648 Y29.0419 
G01 X-84.6841 Y29.0339 
G01 X-84.7044 Y29.0285 
G01 X-84.7225 Y29.0180 
G01 X-84.7419 Y29.0100 
G01 X-84.7585 Y28.9972 
G01 X-84.7767 Y28.9868 
G01 X-84.7915 Y28.9719 
G01 X-84.8082 Y28.9592 
G01 X-84.8209 Y28.9425 
G01 X-84.8357 Y28.9277 
G01 X-84.8462 Y28.9096 
G01 X-84.8590 Y28.8929 
G01 X-84.8670 Y28.8736 
G01 X-84.8775 Y28.8554 
G01 X-84.8829 Y28.8352 
G01 X-84.8909 Y28.8158 
G01 X-84.8937 Y28.7950 
G01 X-84.8991 Y28.7748 
G01 X-84.8991 Y28.7538 
G01 X-84.9018 Y28.7330 
G01 X-84.8991 Y28.7122 
G01 X-84.8991 Y24.4744 
G01 X-85.1215 Y23.9375 
G01 X-85.5475 Y23.5114 
G01 X-86.0467 Y23.0123 
G01 X-86.1057 Y22.9532 
G01 X-86.1475 Y22.8809 
G01 X-86.1691 Y22.8003 
G01 X-86.1691 Y21.9344 
G01 X-86.3915 Y21.3975 
G01 X-86.8025 Y20.9865 
G01 X-87.3394 Y20.7641 
G01 X-87.9206 Y20.7641 
G01 X-88.4575 Y20.9865 
G01 X-88.8685 Y21.3975 
G01 X-89.0909 Y21.9344 
G01 X-89.0909 Y23.7856 
G01 X-88.8685 Y24.3225 
G01 X-87.9433 Y25.2477 
G01 X-87.8843 Y25.3068 
G01 X-87.8425 Y25.3791 
G01 X-87.8209 Y25.4597 
G01 X-87.8209 Y30.2066 
G01 X-87.8182 Y30.2274 
G01 X-87.8209 Y30.2481 
G01 X-87.8209 Y30.7118 
G01 X-87.8182 Y30.7326 
G01 X-87.8209 Y30.7534 
G01 X-87.8209 Y31.9187 
G01 X-87.8425 Y31.9994 
G01 X-87.8843 Y32.0717 
G01 X-87.9433 Y32.1307 
G01 X-88.0156 Y32.1725 
G01 X-88.0962 Y32.1941 
G01 X-88.7385 Y32.1941 
G01 X-88.8192 Y32.1725 
G01 X-88.8915 Y32.1307 
G01 X-88.9505 Y32.0717 
G01 X-88.9923 Y31.9994 
G01 X-89.0139 Y31.9187 
G01 X-89.0139 Y31.5808 
G01 X-89.0166 Y31.5601 
G01 X-89.0139 Y31.5393 
G01 X-89.0139 Y31.5183 
G01 X-89.0085 Y31.4981 
G01 X-89.0057 Y31.4773 
G01 X-88.9977 Y31.4579 
G01 X-88.9923 Y31.4377 
G01 X-88.9818 Y31.4195 
G01 X-88.9738 Y31.4001 
G01 X-88.9610 Y31.3835 
G01 X-88.9505 Y31.3653 
G01 X-88.9357 Y31.3505 
G01 X-88.9230 Y31.3339 
G01 X-88.9063 Y31.3211 
G01 X-88.8915 Y31.3063 
G01 X-88.8801 Y31.2997 
G01 X-88.6002 Y31.0198 
G01 X-88.4551 Y30.6695 
G01 X-88.4551 Y30.2905 
G01 X-88.6002 Y29.9402 
G01 X-88.8682 Y29.6722 
G01 X-89.2185 Y29.5271 
G01 X-89.3656 Y29.5271 
G01 X-89.3864 Y29.5298 
G01 X-89.4072 Y29.5271 
G01 X-89.4281 Y29.5271 
G01 X-89.4484 Y29.5217 
G01 X-89.4692 Y29.5189 
G01 X-89.4885 Y29.5109 
G01 X-89.5088 Y29.5055 
G01 X-89.5269 Y29.4950 
G01 X-89.6112 Y29.4601 
G01 X-89.6314 Y29.4547 
G01 X-89.6496 Y29.4442 
G01 X-89.6690 Y29.4362 
G01 X-89.6856 Y29.4234 
G01 X-89.7037 Y29.4129 
G01 X-89.7186 Y29.3981 
G01 X-89.7352 Y29.3854 
G01 X-89.7480 Y29.3687 
G01 X-89.7628 Y29.3539 
G01 X-89.7733 Y29.3357 
G01 X-89.7860 Y29.3191 
G01 X-89.7940 Y29.2997 
G01 X-89.8045 Y29.2816 
G01 X-89.8100 Y29.2613 
G01 X-89.8180 Y29.2420 
G01 X-89.8207 Y29.2212 
G01 X-89.8261 Y29.2009 
G01 X-89.8261 Y29.1800 
G01 X-89.8289 Y29.1592 
G01 X-89.8261 Y29.1384 
G01 X-89.8261 Y29.1174 
G01 X-89.8207 Y29.0972 
G01 X-89.8180 Y29.0764 
G01 X-89.8100 Y29.0571 
G01 X-89.8045 Y29.0368 
G01 X-89.7940 Y29.0186 
G01 X-89.7860 Y28.9993 
G01 X-89.7733 Y28.9827 
G01 X-89.7628 Y28.9645 
G01 X-89.7480 Y28.9497 
G01 X-89.7352 Y28.9330 
G01 X-89.7186 Y28.9203 
G01 X-89.7037 Y28.9055 
G01 X-89.6856 Y28.8950 
G01 X-89.6690 Y28.8822 
G01 X-89.6496 Y28.8742 
G01 X-89.6314 Y28.8637 
G01 X-89.6112 Y28.8583 
G01 X-89.5918 Y28.8503 
G01 X-89.5710 Y28.8475 
G01 X-89.5508 Y28.8421 
G01 X-89.5298 Y28.8421 
G01 X-89.5091 Y28.8394 
G01 X-89.4883 Y28.8421 
G01 X-89.3370 Y28.8421 
G01 X-89.1967 Y28.8199 
G01 X-89.0617 Y28.7760 
G01 X-88.9352 Y28.7115 
G01 X-88.8203 Y28.6281 
G01 X-88.7199 Y28.5277 
G01 X-88.6364 Y28.4128 
G01 X-88.5830 Y28.3079 
G01 X-88.6123 Y28.3079 
G01 X-88.6318 Y28.3549 
G01 X-88.7276 Y28.4984 
G01 X-88.8496 Y28.6204 
G01 X-88.9931 Y28.7162 
G01 X-89.1525 Y28.7822 
G01 X-89.3217 Y28.8159 
G01 X-91.0183 Y28.8159 
G01 X-91.1875 Y28.7822 
G01 X-91.3469 Y28.7162 
G01 X-91.4904 Y28.6204 
G01 X-91.6124 Y28.4984 
G01 X-91.7082 Y28.3549 
G01 X-91.7277 Y28.3079 
G01 X-91.7570 Y28.3079 
G01 X-91.7035 Y28.4128 
G01 X-91.6201 Y28.5277 
G01 X-91.5197 Y28.6281 
G01 X-91.4048 Y28.7115 
G01 X-91.2783 Y28.7760 
G01 X-91.1433 Y28.8199 
G01 X-91.0030 Y28.8421 
G01 X-90.8517 Y28.8421 
G01 X-90.8309 Y28.8394 
G01 X-90.8102 Y28.8421 
G01 X-90.7892 Y28.8421 
G01 X-90.7690 Y28.8475 
G01 X-90.7482 Y28.8503 
G01 X-90.7288 Y28.8583 
G01 X-90.7086 Y28.8637 
G01 X-90.6904 Y28.8742 
G01 X-90.6710 Y28.8822 
G01 X-90.6544 Y28.8950 
G01 X-90.6362 Y28.9055 
G01 X-90.6214 Y28.9203 
G01 X-90.6048 Y28.9330 
G01 X-90.5920 Y28.9497 
G01 X-90.5772 Y28.9645 
G01 X-90.5667 Y28.9827 
G01 X-90.5540 Y28.9993 
G01 X-90.5459 Y29.0186 
G01 X-90.5355 Y29.0368 
G01 X-90.5300 Y29.0571 
G01 X-90.5220 Y29.0764 
G01 X-90.5193 Y29.0972 
G01 X-90.5139 Y29.1174 
G01 X-90.5139 Y29.1384 
G01 X-90.5111 Y29.1592 
G01 X-90.5139 Y29.1800 
G01 X-90.5139 Y29.2009 
G01 X-90.5193 Y29.2212 
G01 X-90.5220 Y29.2420 
G01 X-90.5300 Y29.2613 
G01 X-90.5355 Y29.2816 
G01 X-90.5459 Y29.2997 
G01 X-90.5540 Y29.3191 
G01 X-90.5667 Y29.3357 
G01 X-90.5772 Y29.3539 
G01 X-90.5920 Y29.3687 
G01 X-90.6048 Y29.3854 
G01 X-90.6214 Y29.3981 
G01 X-90.6362 Y29.4129 
G01 X-90.6544 Y29.4234 
G01 X-90.6710 Y29.4362 
G01 X-90.6904 Y29.4442 
G01 X-90.7086 Y29.4547 
G01 X-90.7288 Y29.4601 
G01 X-90.8130 Y29.4950 
G01 X-90.8312 Y29.5055 
G01 X-90.8515 Y29.5109 
G01 X-90.8708 Y29.5189 
G01 X-90.8916 Y29.5217 
G01 X-90.9119 Y29.5271 
G01 X-90.9328 Y29.5271 
G01 X-90.9536 Y29.5298 
G01 X-90.9744 Y29.5271 
G01 X-91.1215 Y29.5271 
G01 X-91.4718 Y29.6722 
G01 X-91.7398 Y29.9402 
G01 X-91.8849 Y30.2905 
G01 X-91.8849 Y30.6695 
G01 X-91.7398 Y31.0198 
G01 X-91.4599 Y31.2997 
G01 X-91.4485 Y31.3063 
G01 X-91.4337 Y31.3211 
G01 X-91.4170 Y31.3339 
G01 X-91.4043 Y31.3505 
G01 X-91.3895 Y31.3653 
G01 X-91.3790 Y31.3835 
G01 X-91.3662 Y31.4001 
G01 X-91.3582 Y31.4195 
G01 X-91.3477 Y31.4377 
G01 X-91.3423 Y31.4579 
G01 X-91.3343 Y31.4773 
G01 X-91.3315 Y31.4981 
G01 X-91.3261 Y31.5183 
G01 X-91.3261 Y31.5393 
G01 X-91.3234 Y31.5601 
G01 X-91.3261 Y31.5808 
G01 X-91.3261 Y32.6555 
G01 X-91.3477 Y32.7361 
G01 X-91.3895 Y32.8084 
G01 X-91.4085 Y32.8275 
G01 X-91.6309 Y33.3644 
G01 X-91.6309 Y33.9456 
G01 X-91.4085 Y34.4825 
G01 X-91.3895 Y34.5016 
G01 X-91.3477 Y34.5739 
G01 X-91.3261 Y34.6545 
G01 X-91.3261 Y38.3300 
G01 X-91.1501 Y38.7549 
G01 X-90.7508 Y39.1542 
G01 X-90.0286 Y39.8764 
G01 X-89.9696 Y39.9354 
G01 X-89.9342 Y39.9708 
G01 X-89.8871 Y40.0179 
G01 X-89.8751 Y40.0298 
G01 X-89.6142 Y40.2908 
G01 X-89.5935 Y40.3114 
G01 X-89.4041 Y40.3899 
G01 X-89.3839 Y40.3953 
G01 X-89.3657 Y40.4058 
G01 X-89.3463 Y40.4138 
G01 X-89.3297 Y40.4266 
G01 X-89.3116 Y40.4371 
G01 X-89.2967 Y40.4519 
G01 X-89.2801 Y40.4646 
G01 X-89.2673 Y40.4813 
G01 X-89.2525 Y40.4961 
G01 X-89.2420 Y40.5143 
G01 X-89.2293 Y40.5309 
G01 X-89.2213 Y40.5502 
G01 X-89.2108 Y40.5684 
G01 X-89.2053 Y40.5887 
G01 X-89.1973 Y40.6080 
G01 X-89.1946 Y40.6288 
G01 X-89.1892 Y40.6491 
G01 X-89.1892 Y40.6700 
G01 X-89.1864 Y40.6908 
G01 X-89.1892 Y40.7116 
G01 X-89.1892 Y40.7325 
G01 X-89.1946 Y40.7528 
G01 X-89.1973 Y40.7736 
G01 X-89.2053 Y40.7929 
G01 X-89.2108 Y40.8132 
G01 X-89.2213 Y40.8313 
G01 X-89.2293 Y40.8507 
G01 X-89.2420 Y40.8673 
G01 X-89.2525 Y40.8855 
G01 X-89.2673 Y40.9003 
G01 X-89.2801 Y40.9170 
G01 X-89.2967 Y40.9297 
G01 X-89.3116 Y40.9445 
G01 X-89.3297 Y40.9550 
G01 X-89.3463 Y40.9678 
G01 X-89.3657 Y40.9758 
G01 X-89.3839 Y40.9863 
G01 X-89.4041 Y40.9917 
G01 X-89.4235 Y40.9997 
G01 X-89.4443 Y41.0025 
G01 X-89.4645 Y41.0079 
G01 X-89.4855 Y41.0079 
G01 X-89.5063 Y41.0106 
G01 X-89.5270 Y41.0079 
G01 X-89.7067 Y41.0079 
G01 X-89.7874 Y40.9863 
G01 X-89.8597 Y40.9445 
G01 X-89.9929 Y40.8113 
G01 X-89.9993 Y40.8064 
G01 X-90.0042 Y40.8000 
G01 X-91.6387 Y39.1656 
G01 X-91.6451 Y39.1607 
G01 X-91.6500 Y39.1542 
G01 X-94.1747 Y36.6295 
G01 X-94.2337 Y36.5705 
G01 X-94.2755 Y36.4982 
G01 X-94.2971 Y36.4175 
G01 X-94.2971 Y3.5875 
G01 X-94.2755 Y3.5068 
G01 X-94.2337 Y3.4345 
G01 X-94.1763 Y3.3770 
G01 X-90.5455 Y-0.2537 
G01 X-90.4732 Y-0.2955 
G01 X-90.3925 Y-0.3171 
G01 X-50.1232 Y-0.3171 
G01 X-50.0426 Y-0.2955 
G01 X-49.9703 Y-0.2537 
G01 X-49.9113 Y-0.1947 
G01 X-49.8695 Y-0.1224 
G01 X-49.8479 Y-0.0417 
G01 X-49.8479 Y10.1311 
G01 X-49.8695 Y10.2117 
G01 X-49.9113 Y10.2841 
G01 X-49.9703 Y10.3431 
G01 X-50.0426 Y10.3848 
G01 X-50.1232 Y10.4064 
G01 X-50.2067 Y10.4064 
G01 X-50.2874 Y10.3848 
G01 X-50.3597 Y10.3431 
G01 X-50.3780 Y10.3248 
G01 X-50.4187 Y10.2841 
G01 X-51.4583 Y9.2445 
G01 X-51.8552 Y9.0801 
G01 X-64.9848 Y9.0801 
G01 X-65.3817 Y9.2445 
G01 X-68.2566 Y12.1194 
G01 X-68.2790 Y12.1442 
G01 X-68.2861 Y12.1488 
G01 X-68.2920 Y12.1548 
G01 X-68.3210 Y12.1715 
G01 X-68.3490 Y12.1897 
G01 X-68.3570 Y12.1923 
G01 X-68.3643 Y12.1966 
G01 X-68.3966 Y12.2052 
G01 X-68.4284 Y12.2156 
G01 X-68.4368 Y12.2160 
G01 X-68.4450 Y12.2182 
G01 X-68.4784 Y12.2182 
G01 X-68.5118 Y12.2199 
G01 X-68.5200 Y12.2182 
G01 X-68.5285 Y12.2182 
G01 X-68.5607 Y12.2095 
G01 X-68.5934 Y12.2026 
G01 X-68.6010 Y12.1988 
G01 X-68.6091 Y12.1966 
G01 X-68.6381 Y12.1799 
G01 X-68.6678 Y12.1647 
G01 X-68.6741 Y12.1591 
G01 X-68.6814 Y12.1548 
G01 X-68.7051 Y12.1312 
G01 X-74.0156 Y7.3517 
G01 X-74.0229 Y7.3475 
G01 X-74.0466 Y7.3238 
G01 X-74.0714 Y7.3015 
G01 X-74.0760 Y7.2944 
G01 X-74.2032 Y7.1672 
G01 X-74.2237 Y7.1588 
G01 X-74.2337 Y7.1511 
G01 X-74.2449 Y7.1454 
G01 X-74.2614 Y7.1305 
G01 X-74.4309 Y7.0705 
G01 X-74.4393 Y7.0694 
G01 X-74.4701 Y7.0567 
G01 X-74.5016 Y7.0455 
G01 X-74.5086 Y7.0407 
G01 X-74.6748 Y6.9719 
G01 X-74.6970 Y6.9719 
G01 X-74.7091 Y6.9686 
G01 X-74.7216 Y6.9677 
G01 X-74.7426 Y6.9603 
G01 X-74.9222 Y6.9697 
G01 X-74.9303 Y6.9719 
G01 X-74.9637 Y6.9719 
G01 X-74.9971 Y6.9737 
G01 X-75.0054 Y6.9719 
G01 X-83.4402 Y6.9719 
G01 X-83.9118 Y7.1672 
G01 X-84.2728 Y7.5282 
G01 X-84.4681 Y7.9998 
G01 X-84.4681 Y8.5102 
G01 X-84.2728 Y8.9818 
G01 X-83.9118 Y9.3428 
G01 X-83.4402 Y9.5381 
G01 X-75.5524 Y9.5381 
G01 X-75.5190 Y9.5363 
G01 X-75.5108 Y9.5381 
G01 X-75.5023 Y9.5381 
G01 X-75.4700 Y9.5467 
G01 X-75.4374 Y9.5537 
G01 X-75.4298 Y9.5575 
G01 X-75.4217 Y9.5597 
G01 X-75.3927 Y9.5764 
G01 X-75.3630 Y9.5916 
G01 X-75.3567 Y9.5972 
G01 X-75.3493 Y9.6015 
G01 X-75.3257 Y9.6251 
G01 X-72.2804 Y12.3658 
G01 X-72.2731 Y12.3701 
G01 X-72.2495 Y12.3937 
G01 X-72.2247 Y12.4160 
G01 X-72.2201 Y12.4231 
G01 X-72.2141 Y12.4291 
G01 X-72.1974 Y12.4580 
G01 X-72.1792 Y12.4860 
G01 X-72.1766 Y12.4941 
G01 X-72.1723 Y12.5014 
G01 X-72.1637 Y12.5336 
G01 X-72.1534 Y12.5654 
G01 X-72.1529 Y12.5739 
G01 X-72.1507 Y12.5821 
G01 X-72.1507 Y12.6154 
G01 X-72.1490 Y12.6488 
G01 X-72.1507 Y12.6571 
G01 X-72.1507 Y12.6655 
G01 X-72.1594 Y12.6978 
G01 X-72.1663 Y12.7305 
G01 X-72.1701 Y12.7380 
G01 X-72.1723 Y12.7462 
G01 X-72.1890 Y12.7751 
G01 X-72.2042 Y12.8049 
G01 X-72.2099 Y12.8112 
G01 X-72.2141 Y12.8185 
G01 X-72.2377 Y12.8421 
G01 X-72.2601 Y12.8670 
G01 X-72.2671 Y12.8716 
G01 X-72.2731 Y12.8775 
G01 X-72.3020 Y12.8942 
G01 X-72.3301 Y12.9124 
G01 X-72.3381 Y12.9151 
G01 X-72.3454 Y12.9193 
G01 X-72.3777 Y12.9279 
G01 X-72.4095 Y12.9383 
G01 X-72.4179 Y12.9387 
G01 X-72.4261 Y12.9409 
G01 X-72.4595 Y12.9409 
G01 X-72.4928 Y12.9427 
G01 X-72.5011 Y12.9409 
G01 X-74.7979 Y12.9409 
G01 X-74.8187 Y12.9436 
G01 X-74.8395 Y12.9409 
G01 X-74.8605 Y12.9409 
G01 X-74.8807 Y12.9355 
G01 X-74.9015 Y12.9327 
G01 X-74.9209 Y12.9247 
G01 X-74.9411 Y12.9193 
G01 X-74.9593 Y12.9088 
G01 X-75.0657 Y12.8647 
G01 X-77.3343 Y12.8647 
G01 X-77.7405 Y13.0330 
G01 X-78.0514 Y13.3439 
G01 X-78.2197 Y13.7501 
G01 X-78.2197 Y14.1899 
G01 X-78.0514 Y14.5961 
G01 X-77.7405 Y14.9070 
G01 X-77.5880 Y14.9702 
G01 X-77.5602 Y14.9792 
G01 X-77.5496 Y14.9861 
G01 X-77.5379 Y14.9909 
G01 X-77.5147 Y15.0088 
G01 X-77.4901 Y15.0247 
G01 X-77.4817 Y15.0341 
G01 X-77.4717 Y15.0417 
G01 X-77.4539 Y15.0650 
G01 X-77.4343 Y15.0868 
G01 X-77.4286 Y15.0980 
G01 X-77.4209 Y15.1080 
G01 X-77.4097 Y15.1351 
G01 X-77.3964 Y15.1611 
G01 X-77.3938 Y15.1735 
G01 X-77.3889 Y15.1851 
G01 X-77.3851 Y15.2142 
G01 X-77.3790 Y15.2428 
G01 X-77.3797 Y15.2554 
G01 X-77.3780 Y15.2679 
G01 X-77.3819 Y15.2970 
G01 X-77.3834 Y15.3262 
G01 X-77.3873 Y15.3382 
G01 X-77.3889 Y15.3507 
G01 X-77.4001 Y15.3777 
G01 X-77.4092 Y15.4056 
G01 X-77.4160 Y15.4162 
G01 X-77.4209 Y15.4278 
G01 X-77.4387 Y15.4511 
G01 X-77.4547 Y15.4756 
G01 X-77.4640 Y15.4841 
G01 X-77.4717 Y15.4941 
G01 X-77.4887 Y15.5071 
G01 X-77.3434 Y15.5071 
G01 X-77.2157 Y15.4817 
G01 X-75.1843 Y15.4817 
G01 X-74.9857 Y15.5212 
G01 X-74.7985 Y15.5987 
G01 X-74.6301 Y15.7113 
G01 X-74.4869 Y15.8545 
G01 X-74.3743 Y16.0229 
G01 X-74.3250 Y16.1421 
G01 X-74.2964 Y16.1421 
G01 X-74.3084 Y16.1052 
G01 X-74.3837 Y15.9573 
G01 X-74.4813 Y15.8230 
G01 X-74.5986 Y15.7057 
G01 X-74.7270 Y15.6124 
G01 X-74.7298 Y15.6117 
G01 X-74.7587 Y15.5950 
G01 X-74.7885 Y15.5798 
G01 X-74.7948 Y15.5741 
G01 X-74.8021 Y15.5699 
G01 X-74.8257 Y15.5463 
G01 X-74.8506 Y15.5239 
G01 X-74.8551 Y15.5169 
G01 X-74.8611 Y15.5109 
G01 X-74.8778 Y15.4819 
G01 X-74.8960 Y15.4539 
G01 X-74.8986 Y15.4459 
G01 X-74.9029 Y15.4386 
G01 X-74.9115 Y15.4063 
G01 X-74.9218 Y15.3745 
G01 X-74.9223 Y15.3661 
G01 X-74.9245 Y15.3579 
G01 X-74.9245 Y15.3245 
G01 X-74.9262 Y15.2911 
G01 X-74.9245 Y15.2829 
G01 X-74.9245 Y15.2744 
G01 X-74.9158 Y15.2422 
G01 X-74.9089 Y15.2094 
G01 X-74.9050 Y15.2019 
G01 X-74.9029 Y15.1938 
G01 X-74.8861 Y15.1649 
G01 X-74.8710 Y15.1351 
G01 X-74.8653 Y15.1288 
G01 X-74.8611 Y15.1215 
G01 X-74.8375 Y15.0978 
G01 X-74.8151 Y15.0730 
G01 X-74.8080 Y15.0684 
G01 X-74.8021 Y15.0625 
G01 X-74.7731 Y15.0457 
G01 X-74.7451 Y15.0275 
G01 X-74.7371 Y15.0249 
G01 X-74.7298 Y15.0207 
G01 X-74.6975 Y15.0121 
G01 X-74.6657 Y15.0017 
G01 X-74.6572 Y15.0013 
G01 X-74.6491 Y14.9991 
G01 X-74.6157 Y14.9991 
G01 X-74.5823 Y14.9973 
G01 X-74.5740 Y14.9991 
G01 X-69.8844 Y14.9991 
G01 X-69.8038 Y15.0207 
G01 X-69.7315 Y15.0625 
G01 X-69.6725 Y15.1215 
G01 X-69.6307 Y15.1938 
G01 X-69.6091 Y15.2744 
G01 X-69.6091 Y22.0547 
G01 X-69.4524 Y22.4329 
G01 X-69.1629 Y22.7224 
G01 X-68.7847 Y22.8791 
G01 X-68.0953 Y22.8791 
G01 X-67.7171 Y22.7224 
G01 X-67.6579 Y22.6633 
G01 X-67.5989 Y22.6043 
G01 X-67.5266 Y22.5625 
G01 X-67.4459 Y22.5409 
G01 X-67.4209 Y22.5409 
G01 X-67.3091 Y22.4291 
G01 X-67.3091 Y22.2308 
G01 X-67.3118 Y22.2100 
G01 X-67.3091 Y22.1892 
G01 X-67.3091 Y22.1682 
G01 X-67.3037 Y22.1480 
G01 X-67.3009 Y22.1272 
G01 X-67.2929 Y22.1078 
G01 X-67.2875 Y22.0876 
G01 X-67.2770 Y22.0694 
G01 X-67.2709 Y22.0547 
G01 X-67.2709 Y21.6453 
G01 X-67.2770 Y21.6305 
G01 X-67.2875 Y21.6124 
G01 X-67.2929 Y21.5921 
G01 X-67.3009 Y21.5728 
G01 X-67.3037 Y21.5520 
G01 X-67.3091 Y21.5317 
G01 X-67.3091 Y21.5108 
G01 X-67.3118 Y21.4900 
G01 X-67.3091 Y21.4692 
G01 X-67.3091 Y21.2709 
G01 X-67.4285 Y21.1515 
G01 X-67.4875 Y21.0925 
G01 X-67.5293 Y21.0202 
G01 X-67.5509 Y20.9395 
G01 X-67.5509 Y14.8746 
G01 X-67.5527 Y14.8412 
G01 X-67.5509 Y14.8330 
G01 X-67.5509 Y14.8245 
G01 X-67.5422 Y14.7922 
G01 X-67.5353 Y14.7596 
G01 X-67.5315 Y14.7520 
G01 X-67.5293 Y14.7439 
G01 X-67.5126 Y14.7149 
G01 X-67.4974 Y14.6852 
G01 X-67.4918 Y14.6789 
G01 X-67.4875 Y14.6716 
G01 X-67.4639 Y14.6479 
G01 X-67.4555 Y14.6386 
G01 X-67.3380 Y14.3065 
G01 X-67.3304 Y14.2782 
G01 X-67.3241 Y14.2673 
G01 X-67.3199 Y14.2554 
G01 X-67.3033 Y14.2313 
G01 X-67.2887 Y14.2059 
G01 X-67.2798 Y14.1970 
G01 X-67.2727 Y14.1866 
G01 X-67.2504 Y14.1676 
G01 X-64.4313 Y11.3485 
G01 X-64.3860 Y11.3033 
G01 X-64.3137 Y11.2615 
G01 X-64.2331 Y11.2399 
G01 X-52.6069 Y11.2399 
G01 X-52.5263 Y11.2615 
G01 X-52.4539 Y11.3033 
G01 X-50.7323 Y13.0249 
G01 X-50.6733 Y13.0839 
G01 X-50.6315 Y13.1563 
G01 X-50.6099 Y13.2369 
G01 X-50.6099 Y15.4548 
G01 X-50.4455 Y15.8517 
G01 X-50.1417 Y16.1555 
G01 X-49.7448 Y16.3199 
G01 X-35.5697 Y16.3199 
G01 X-35.4890 Y16.3415 
G01 X-35.4167 Y16.3833 
G01 X-31.7585 Y20.0415 
G01 X-31.6995 Y20.1005 
G01 X-31.6577 Y20.1728 
G01 X-31.6361 Y20.2535 
G01 X-31.6361 Y23.0900 
G01 X-31.4601 Y23.5149 
G01 X-31.1198 Y23.8552 
G01 X-28.5949 Y26.3801 
G01 X-28.1700 Y26.5561 
G01 X-24.0882 Y26.5561 
G01 X-24.0076 Y26.5777 
G01 X-23.9353 Y26.6195 
G01 X-23.8763 Y26.6785 
G01 X-23.8345 Y26.7508 
G01 X-23.8129 Y26.8314 
G01 X-23.8129 Y28.7437 
G01 X-23.8345 Y28.8244 
G01 X-23.8763 Y28.8967 
G01 X-23.9353 Y28.9557 
G00 Z2.0000  F3000
G00 X-25.9305 Y38.7631  F3000
G01 Z-0.2000 F200.00 
G01 X-25.8263 Y38.9190 F500.00 
G01 X-25.7545 Y39.0923 
G01 X-25.7179 Y39.2762 
G01 X-25.7179 Y39.4638 
G01 X-25.7545 Y39.6477 
G01 X-25.8263 Y39.8210 
G01 X-25.9305 Y39.9769 
G01 X-26.0631 Y40.1095 
G01 X-26.2190 Y40.2137 
G01 X-26.3923 Y40.2855 
G01 X-26.5762 Y40.3221 
G01 X-82.6767 Y40.3221 
G01 X-82.7708 Y40.3700 
G01 X-82.9323 Y40.4225 
G01 X-83.1001 Y40.4491 
G01 X-88.8997 Y40.4491 
G01 X-89.1070 Y40.4163 
G01 X-89.3065 Y40.3514 
G01 X-89.4935 Y40.2562 
G01 X-89.6632 Y40.1328 
G01 X-89.6774 Y40.1187 
G01 X-89.7459 Y40.0501 
G01 X-89.7975 Y39.9986 
G01 X-90.8730 Y38.9231 
G01 X-90.9931 Y38.8030 
G01 X-91.0929 Y38.6656 
G01 X-91.1700 Y38.5142 
G01 X-91.2225 Y38.3527 
G01 X-91.2491 Y38.1849 
G01 X-91.2491 Y34.5242 
G01 X-91.3536 Y34.3803 
G01 X-91.4525 Y34.1862 
G01 X-91.5198 Y33.9791 
G01 X-91.5539 Y33.7639 
G01 X-91.5539 Y33.5461 
G01 X-91.5198 Y33.3309 
G01 X-91.4525 Y33.1238 
G01 X-91.3536 Y32.9297 
G01 X-91.2491 Y32.7858 
G01 X-91.2491 Y31.2967 
G01 X-91.3469 Y31.2562 
G01 X-91.4904 Y31.1604 
G01 X-91.6124 Y31.0384 
G01 X-91.7082 Y30.8949 
G01 X-91.7742 Y30.7355 
G01 X-91.8079 Y30.5663 
G01 X-91.8079 Y30.3937 
G01 X-91.7742 Y30.2245 
G01 X-91.7082 Y30.0651 
G01 X-91.6124 Y29.9216 
G01 X-91.4904 Y29.7996 
G01 X-91.3469 Y29.7038 
G01 X-91.1875 Y29.6378 
G01 X-91.0183 Y29.6041 
G01 X-90.8003 Y29.6041 
G01 X-90.7356 Y29.5571 
G01 X-90.5842 Y29.4800 
G01 X-90.4227 Y29.4275 
G01 X-90.2549 Y29.4009 
G01 X-90.0851 Y29.4009 
G01 X-89.9173 Y29.4275 
G01 X-89.7558 Y29.4800 
G01 X-89.6044 Y29.5571 
G01 X-89.5397 Y29.6041 
G01 X-89.3217 Y29.6041 
G01 X-89.1525 Y29.6378 
G01 X-88.9931 Y29.7038 
G01 X-88.8496 Y29.7996 
G01 X-88.7276 Y29.9216 
G01 X-88.6318 Y30.0651 
G01 X-88.5658 Y30.2245 
G01 X-88.5321 Y30.3937 
G01 X-88.5321 Y30.5663 
G01 X-88.5658 Y30.7355 
G01 X-88.6318 Y30.8949 
G01 X-88.7276 Y31.0384 
G01 X-88.8496 Y31.1604 
G01 X-88.9931 Y31.2562 
G01 X-89.0909 Y31.2967 
G01 X-89.0909 Y32.2711 
G01 X-87.7439 Y32.2711 
G01 X-87.7439 Y25.3382 
G01 X-88.6856 Y24.3965 
G01 X-88.8136 Y24.2203 
G01 X-88.9125 Y24.0262 
G01 X-88.9798 Y23.8191 
G01 X-89.0139 Y23.6039 
G01 X-89.0139 Y22.1161 
G01 X-88.9798 Y21.9009 
G01 X-88.9125 Y21.6938 
G01 X-88.8136 Y21.4997 
G01 X-88.6856 Y21.3235 
G01 X-88.5315 Y21.1694 
G01 X-88.3553 Y21.0414 
G01 X-88.1612 Y20.9425 
G01 X-87.9541 Y20.8752 
G01 X-87.7389 Y20.8411 
G01 X-87.5211 Y20.8411 
G01 X-87.3059 Y20.8752 
G01 X-87.0988 Y20.9425 
G01 X-86.9047 Y21.0414 
G01 X-86.7284 Y21.1694 
G01 X-86.5744 Y21.3235 
G01 X-86.4464 Y21.4997 
G01 X-86.3475 Y21.6938 
G01 X-86.2802 Y21.9009 
G01 X-86.2461 Y22.1161 
G01 X-86.2461 Y22.9218 
G01 X-85.4584 Y23.7094 
G01 X-85.3044 Y23.8635 
G01 X-85.1764 Y24.0397 
G01 X-85.0775 Y24.2338 
G01 X-85.0102 Y24.4409 
G01 X-84.9761 Y24.6561 
G01 X-84.9761 Y33.7639 
G01 X-85.0102 Y33.9791 
G01 X-85.0775 Y34.1862 
G01 X-85.1764 Y34.3803 
G01 X-85.3044 Y34.5565 
G01 X-85.4584 Y34.7106 
G01 X-85.6347 Y34.8386 
G01 X-85.8288 Y34.9375 
G01 X-86.0359 Y35.0048 
G01 X-86.2511 Y35.0389 
G01 X-89.0909 Y35.0389 
G01 X-89.0909 Y37.6530 
G01 X-88.4530 Y38.2909 
G01 X-83.1001 Y38.2909 
G01 X-82.9323 Y38.3175 
G01 X-82.7708 Y38.3700 
G01 X-82.6767 Y38.4179 
G01 X-26.5762 Y38.4179 
G01 X-26.3923 Y38.4545 
G01 X-26.2190 Y38.5263 
G01 X-26.0631 Y38.6305 
G01 X-25.9305 Y38.7631 
G00 Z2.0000  F3000
G00 X-32.3319 Y35.6397  F3000
G01 Z-0.2000 F200.00 
G01 X-32.2484 Y35.5248 F500.00 
G01 X-32.1840 Y35.3983 
G01 X-32.1497 Y35.2929 
G01 X-32.1749 Y35.2929 
G01 X-32.1778 Y35.3075 
G01 X-32.2438 Y35.4669 
G01 X-32.3396 Y35.6104 
G01 X-32.4616 Y35.7324 
G01 X-32.6051 Y35.8282 
G01 X-32.6521 Y35.8477 
G01 X-32.6521 Y35.8770 
G01 X-32.5472 Y35.8235 
G01 X-32.4323 Y35.7401 
G01 X-32.3319 Y35.6397 
G00 Z2.0000  F3000
G00 X-33.3879 Y35.8477  F3000
G01 Z-0.2000 F200.00 
G01 X-33.4349 Y35.8282 F500.00 
G01 X-33.5784 Y35.7324 
G01 X-33.7004 Y35.6104 
G01 X-33.7962 Y35.4669 
G01 X-33.8622 Y35.3075 
G01 X-33.8959 Y35.1383 
G01 X-33.8959 Y34.7843 
G01 X-33.9088 Y34.7651 
G01 X-33.9221 Y34.7328 
G01 X-33.9221 Y35.1230 
G01 X-33.8999 Y35.2633 
G01 X-33.8560 Y35.3983 
G01 X-33.7915 Y35.5248 
G01 X-33.7081 Y35.6397 
G01 X-33.6077 Y35.7401 
G01 X-33.4928 Y35.8235 
G01 X-33.3879 Y35.8770 
G01 X-33.3879 Y35.8477 
G00 Z2.0000  F3000
G00 X-34.7522 Y35.5918  F3000
G01 Z-0.2000 F200.00 
G01 X-34.6071 Y35.2415 F500.00 
G01 X-34.6071 Y33.3385 
G01 X-34.7522 Y32.9882 
G01 X-35.0202 Y32.7202 
G01 X-35.3705 Y32.5751 
G01 X-35.7495 Y32.5751 
G01 X-36.0998 Y32.7202 
G01 X-36.3678 Y32.9882 
G01 X-36.4759 Y33.2491 
G01 X-36.4813 Y33.2694 
G01 X-36.4918 Y33.2875 
G01 X-36.4998 Y33.3069 
G01 X-36.5126 Y33.3235 
G01 X-36.5231 Y33.3417 
G01 X-36.5379 Y33.3565 
G01 X-36.5507 Y33.3732 
G01 X-36.5673 Y33.3859 
G01 X-36.5821 Y33.4007 
G01 X-36.6003 Y33.4112 
G01 X-36.6169 Y33.4240 
G01 X-36.6363 Y33.4320 
G01 X-36.6544 Y33.4425 
G01 X-36.6747 Y33.4479 
G01 X-36.6940 Y33.4559 
G01 X-36.7148 Y33.4587 
G01 X-36.7351 Y33.4641 
G01 X-36.7560 Y33.4641 
G01 X-36.7768 Y33.4668 
G01 X-36.7976 Y33.4641 
G01 X-40.4843 Y33.4641 
G01 X-40.7878 Y33.5898 
G01 X-40.8447 Y33.6467 
G01 X-40.9037 Y33.7057 
G01 X-40.9760 Y33.7475 
G01 X-41.0360 Y33.7636 
G01 X-41.0567 Y33.7691 
G01 X-41.5177 Y33.7691 
G01 X-41.5737 Y33.7841 
G01 X-43.0293 Y33.7841 
G01 X-43.3328 Y33.9098 
G01 X-44.0347 Y34.6117 
G01 X-44.0937 Y34.6707 
G01 X-44.1660 Y34.7125 
G01 X-44.2433 Y34.7332 
G01 X-44.2467 Y34.7341 
G01 X-55.4137 Y34.7341 
G01 X-55.4944 Y34.7125 
G01 X-55.5667 Y34.6707 
G01 X-55.6257 Y34.6117 
G01 X-55.6675 Y34.5394 
G01 X-55.6891 Y34.4587 
G01 X-55.6891 Y32.6022 
G01 X-55.6675 Y32.5216 
G01 X-55.6257 Y32.4493 
G01 X-55.5667 Y32.3902 
G01 X-55.4960 Y32.3494 
G01 X-55.4910 Y32.3476 
G01 X-55.4137 Y32.3269 
G01 X-55.3302 Y32.3269 
G01 X-55.2496 Y32.3485 
G01 X-55.1773 Y32.3902 
G01 X-55.1744 Y32.3931 
G01 X-55.1183 Y32.4493 
G01 X-54.8805 Y32.6870 
G01 X-54.4743 Y32.8553 
G01 X-52.2057 Y32.8553 
G01 X-51.7995 Y32.6870 
G01 X-51.4886 Y32.3761 
G01 X-51.3203 Y31.9699 
G01 X-51.3203 Y31.5301 
G01 X-51.4886 Y31.1239 
G01 X-51.7995 Y30.8130 
G01 X-51.8575 Y30.7889 
G01 X-51.9172 Y30.7642 
G01 X-51.9347 Y30.7570 
G01 X-51.9820 Y30.7206 
G01 X-52.0009 Y30.7062 
G01 X-52.0517 Y30.6399 
G01 X-52.0837 Y30.5628 
G01 X-52.0922 Y30.4984 
G01 X-52.0946 Y30.4800 
G01 X-52.0837 Y30.3972 
G01 X-52.0568 Y30.3324 
G01 X-52.0517 Y30.3201 
G01 X-52.0154 Y30.2727 
G01 X-52.0009 Y30.2538 
G01 X-51.9347 Y30.2030 
G01 X-51.7995 Y30.1470 
G01 X-51.4886 Y29.8361 
G01 X-51.3203 Y29.4299 
G01 X-51.3203 Y28.9901 
G01 X-51.4886 Y28.5839 
G01 X-51.7995 Y28.2730 
G01 X-51.8575 Y28.2489 
G01 X-51.9237 Y28.2215 
G01 X-51.9347 Y28.2170 
G01 X-51.9710 Y28.1891 
G01 X-52.0009 Y28.1662 
G01 X-52.0253 Y28.1344 
G01 X-52.0517 Y28.0999 
G01 X-52.0837 Y28.0228 
G01 X-52.0918 Y27.9609 
G01 X-52.0946 Y27.9400 
G01 X-52.0837 Y27.8572 
G01 X-52.0553 Y27.7888 
G01 X-52.0517 Y27.7801 
G01 X-52.0238 Y27.7437 
G01 X-52.0009 Y27.7138 
G01 X-51.9691 Y27.6895 
G01 X-51.9347 Y27.6630 
G01 X-51.7926 Y27.6042 
G01 X-51.7745 Y27.5937 
G01 X-51.7542 Y27.5883 
G01 X-51.7349 Y27.5803 
G01 X-51.7141 Y27.5775 
G01 X-51.6938 Y27.5721 
G01 X-51.6729 Y27.5721 
G01 X-51.6521 Y27.5694 
G01 X-51.6313 Y27.5721 
G01 X-51.2633 Y27.5721 
G01 X-51.1826 Y27.5937 
G01 X-51.1103 Y27.6355 
G01 X-50.5545 Y28.1913 
G01 X-50.4955 Y28.2503 
G01 X-50.4537 Y28.3226 
G01 X-50.4321 Y28.4033 
G01 X-50.4321 Y31.9294 
G01 X-50.2948 Y32.2610 
G01 X-50.0410 Y32.5148 
G01 X-49.7094 Y32.6521 
G01 X-48.8475 Y32.6521 
G01 X-48.8033 Y32.6639 
G01 X-48.7668 Y32.6737 
G01 X-48.7458 Y32.6858 
G01 X-48.6945 Y32.7155 
G01 X-48.6691 Y32.7409 
G01 X-47.2109 Y32.7409 
G01 X-47.1847 Y32.7147 
G01 X-47.1669 Y32.7044 
G01 X-47.1124 Y32.6729 
G01 X-47.0651 Y32.6603 
G01 X-47.0317 Y32.6513 
G01 X-46.9482 Y32.6513 
G01 X-46.9041 Y32.6631 
G01 X-46.8676 Y32.6729 
G01 X-46.8466 Y32.6850 
G01 X-46.7953 Y32.7147 
G01 X-46.7691 Y32.7409 
G01 X-45.3109 Y32.7409 
G01 X-45.1991 Y32.6291 
G01 X-45.1991 Y32.4867 
G01 X-45.1775 Y32.4061 
G01 X-45.1357 Y32.3337 
G01 X-45.0198 Y32.2178 
G01 X-44.8941 Y31.9143 
G01 X-44.8941 Y27.7757 
G01 X-45.0198 Y27.4722 
G01 X-47.3117 Y25.1803 
G01 X-47.3707 Y25.1213 
G01 X-47.4125 Y25.0489 
G01 X-47.4341 Y24.9683 
G01 X-47.4341 Y24.5012 
G01 X-47.4125 Y24.4206 
G01 X-47.3707 Y24.3483 
G01 X-47.3117 Y24.2893 
G01 X-47.2394 Y24.2475 
G01 X-47.1587 Y24.2259 
G01 X-46.9109 Y24.2259 
G01 X-46.7991 Y24.1141 
G01 X-46.7991 Y22.3559 
G01 X-46.9109 Y22.2441 
G01 X-50.0691 Y22.2441 
G01 X-50.1809 Y22.3559 
G01 X-50.1809 Y24.1141 
G01 X-50.0691 Y24.2259 
G01 X-49.3612 Y24.2259 
G01 X-49.2806 Y24.2475 
G01 X-49.2083 Y24.2893 
G01 X-49.1493 Y24.3483 
G01 X-49.1075 Y24.4206 
G01 X-49.0859 Y24.5012 
G01 X-49.0859 Y25.5643 
G01 X-48.9602 Y25.8678 
G01 X-48.7127 Y26.1152 
G01 X-46.6683 Y28.1597 
G01 X-46.6093 Y28.2187 
G01 X-46.5675 Y28.2910 
G01 X-46.5459 Y28.3717 
G01 X-46.5459 Y30.4837 
G01 X-46.5675 Y30.5644 
G01 X-46.6093 Y30.6367 
G01 X-46.6683 Y30.6957 
G01 X-46.7406 Y30.7375 
G01 X-46.7500 Y30.7400 
G01 X-46.7953 Y30.7853 
G01 X-46.8498 Y30.8168 
G01 X-46.8676 Y30.8271 
G01 X-46.9059 Y30.8373 
G01 X-46.9482 Y30.8487 
G01 X-47.0317 Y30.8487 
G01 X-47.0665 Y30.8393 
G01 X-47.1124 Y30.8271 
G01 X-47.1637 Y30.7974 
G01 X-47.1847 Y30.7853 
G01 X-47.2109 Y30.7591 
G01 X-48.3525 Y30.7591 
G01 X-48.4332 Y30.7375 
G01 X-48.5055 Y30.6957 
G01 X-48.5645 Y30.6367 
G01 X-48.6063 Y30.5644 
G01 X-48.6279 Y30.4837 
G01 X-48.6279 Y27.7606 
G01 X-48.7652 Y27.4290 
G01 X-49.0341 Y27.1602 
G01 X-49.8867 Y26.3075 
G01 X-49.9458 Y26.2485 
G01 X-50.0939 Y26.1004 
G01 X-50.2297 Y25.9645 
G01 X-50.2503 Y25.9439 
G01 X-50.6752 Y25.7679 
G01 X-51.6313 Y25.7679 
G01 X-51.6521 Y25.7706 
G01 X-51.6729 Y25.7679 
G01 X-51.6938 Y25.7679 
G01 X-51.7141 Y25.7625 
G01 X-51.7349 Y25.7597 
G01 X-51.7542 Y25.7517 
G01 X-51.7745 Y25.7463 
G01 X-51.7926 Y25.7358 
G01 X-51.8575 Y25.7089 
G01 X-51.9182 Y25.6838 
G01 X-51.9347 Y25.6770 
G01 X-51.9820 Y25.6406 
G01 X-52.0009 Y25.6262 
G01 X-52.0517 Y25.5599 
G01 X-52.0837 Y25.4828 
G01 X-52.0921 Y25.4184 
G01 X-52.0946 Y25.4000 
G01 X-52.0837 Y25.3172 
G01 X-52.0568 Y25.2524 
G01 X-52.0517 Y25.2401 
G01 X-52.0154 Y25.1927 
G01 X-52.0009 Y25.1738 
G01 X-51.9347 Y25.1230 
G01 X-51.7995 Y25.0670 
G01 X-51.4886 Y24.7561 
G01 X-51.3203 Y24.3499 
G01 X-51.3203 Y23.9101 
G01 X-51.4886 Y23.5039 
G01 X-51.7995 Y23.1930 
G01 X-51.8575 Y23.1689 
G01 X-51.9172 Y23.1442 
G01 X-51.9347 Y23.1370 
G01 X-51.9820 Y23.1006 
G01 X-52.0009 Y23.0862 
G01 X-52.0517 Y23.0199 
G01 X-52.0837 Y22.9428 
G01 X-52.0921 Y22.8784 
G01 X-52.0946 Y22.8600 
G01 X-52.0837 Y22.7772 
G01 X-52.0568 Y22.7124 
G01 X-52.0517 Y22.7001 
G01 X-52.0154 Y22.6527 
G01 X-52.0009 Y22.6338 
G01 X-51.9347 Y22.5830 
G01 X-51.7995 Y22.5270 
G01 X-51.4886 Y22.2161 
G01 X-51.3203 Y21.8099 
G01 X-51.3203 Y21.3701 
G01 X-51.4886 Y20.9639 
G01 X-51.7995 Y20.6530 
G01 X-51.8575 Y20.6289 
G01 X-51.9172 Y20.6042 
G01 X-51.9347 Y20.5970 
G01 X-51.9820 Y20.5606 
G01 X-52.0009 Y20.5462 
G01 X-52.0517 Y20.4799 
G01 X-52.0837 Y20.4028 
G01 X-52.0922 Y20.3384 
G01 X-52.0946 Y20.3200 
G01 X-52.0837 Y20.2372 
G01 X-52.0568 Y20.1724 
G01 X-52.0517 Y20.1601 
G01 X-52.0154 Y20.1127 
G01 X-52.0009 Y20.0938 
G01 X-51.9347 Y20.0430 
G01 X-51.7995 Y19.9870 
G01 X-51.4886 Y19.6761 
G01 X-51.3203 Y19.2699 
G01 X-51.3203 Y18.8301 
G01 X-51.4886 Y18.4239 
G01 X-51.7995 Y18.1130 
G01 X-51.8575 Y18.0889 
G01 X-51.9172 Y18.0642 
G01 X-51.9347 Y18.0570 
G01 X-51.9820 Y18.0206 
G01 X-52.0009 Y18.0062 
G01 X-52.0517 Y17.9399 
G01 X-52.0837 Y17.8628 
G01 X-52.0922 Y17.7984 
G01 X-52.0946 Y17.7800 
G01 X-52.0837 Y17.6972 
G01 X-52.0568 Y17.6324 
G01 X-52.0517 Y17.6201 
G01 X-52.0154 Y17.5727 
G01 X-52.0009 Y17.5538 
G01 X-51.9347 Y17.5030 
G01 X-51.7995 Y17.4470 
G01 X-51.4886 Y17.1361 
G01 X-51.3203 Y16.7299 
G01 X-51.3203 Y16.2901 
G01 X-51.4886 Y15.8839 
G01 X-51.7995 Y15.5730 
G01 X-51.8575 Y15.5489 
G01 X-51.9172 Y15.5242 
G01 X-51.9347 Y15.5170 
G01 X-51.9820 Y15.4806 
G01 X-52.0009 Y15.4662 
G01 X-52.0517 Y15.3999 
G01 X-52.0837 Y15.3228 
G01 X-52.0922 Y15.2584 
G01 X-52.0946 Y15.2400 
G01 X-52.0837 Y15.1572 
G01 X-52.0568 Y15.0924 
G01 X-52.0517 Y15.0801 
G01 X-52.0154 Y15.0327 
G01 X-52.0009 Y15.0138 
G01 X-51.9347 Y14.9630 
G01 X-51.7995 Y14.9070 
G01 X-51.4886 Y14.5961 
G01 X-51.3203 Y14.1899 
G01 X-51.3203 Y13.7501 
G01 X-51.4886 Y13.3439 
G01 X-51.7995 Y13.0330 
G01 X-52.2057 Y12.8647 
G01 X-54.4743 Y12.8647 
G01 X-54.8805 Y13.0330 
G01 X-54.9283 Y13.0807 
G01 X-55.0006 Y13.1225 
G01 X-55.0812 Y13.1441 
G01 X-58.2096 Y13.1441 
G01 X-58.6065 Y13.3085 
G01 X-58.6271 Y13.3291 
G01 X-58.6837 Y13.3857 
G01 X-58.7561 Y13.4275 
G01 X-58.8367 Y13.4491 
G01 X-59.2991 Y13.4491 
G01 X-59.4109 Y13.5609 
G01 X-59.4109 Y15.0191 
G01 X-59.3847 Y15.0453 
G01 X-59.3532 Y15.0998 
G01 X-59.3429 Y15.1176 
G01 X-59.3327 Y15.1559 
G01 X-59.3213 Y15.1982 
G01 X-59.3213 Y15.2817 
G01 X-59.3306 Y15.3165 
G01 X-59.3429 Y15.3624 
G01 X-59.3726 Y15.4137 
G01 X-59.3847 Y15.4347 
G01 X-59.4109 Y15.4609 
G01 X-59.4109 Y16.9191 
G01 X-59.3683 Y16.9617 
G01 X-59.3093 Y17.0207 
G01 X-59.2825 Y17.0671 
G01 X-59.2675 Y17.0930 
G01 X-59.2459 Y17.1737 
G01 X-59.2459 Y18.5246 
G01 X-59.0815 Y18.9215 
G01 X-59.0609 Y18.9421 
G01 X-57.4633 Y20.5397 
G01 X-57.4043 Y20.5987 
G01 X-57.3625 Y20.6711 
G01 X-57.3409 Y20.7517 
G01 X-57.3409 Y21.0835 
G01 X-57.3527 Y21.1277 
G01 X-57.3625 Y21.1642 
G01 X-57.3746 Y21.1852 
G01 X-57.4043 Y21.2365 
G01 X-57.4633 Y21.2955 
G01 X-57.4811 Y21.3058 
G01 X-57.5356 Y21.3373 
G01 X-57.5829 Y21.3499 
G01 X-57.6162 Y21.3589 
G01 X-57.6998 Y21.3589 
G01 X-57.7439 Y21.3471 
G01 X-57.7804 Y21.3373 
G01 X-57.7969 Y21.3278 
G01 X-57.8459 Y21.2994 
G01 X-57.8815 Y21.2899 
G01 X-60.4797 Y21.2899 
G01 X-60.4797 Y21.3161 
G01 X-57.8773 Y21.3161 
G01 X-57.8355 Y21.3334 
G01 X-57.8034 Y21.3655 
G01 X-57.7861 Y21.4073 
G01 X-57.7861 Y26.8527 
G01 X-57.8034 Y26.8945 
G01 X-57.8355 Y26.9266 
G01 X-57.8773 Y26.9439 
G01 X-60.4797 Y26.9439 
G01 X-60.4797 Y26.9701 
G01 X-57.8815 Y26.9701 
G01 X-57.8459 Y26.9606 
G01 X-57.7944 Y26.9308 
G01 X-57.7804 Y26.9227 
G01 X-57.7420 Y26.9124 
G01 X-57.6998 Y26.9011 
G01 X-57.6162 Y26.9011 
G01 X-57.5814 Y26.9104 
G01 X-57.5356 Y26.9227 
G01 X-57.4843 Y26.9524 
G01 X-57.4633 Y26.9645 
G01 X-57.4043 Y27.0235 
G01 X-57.3728 Y27.0780 
G01 X-57.3625 Y27.0958 
G01 X-57.3522 Y27.1342 
G01 X-57.3409 Y27.1764 
G01 X-57.3409 Y35.0893 
G01 X-57.2152 Y35.3928 
G01 X-56.9678 Y35.6402 
G01 X-56.4071 Y36.2009 
G01 X-56.3865 Y36.2215 
G01 X-55.9896 Y36.3859 
G01 X-43.6507 Y36.3859 
G01 X-43.3472 Y36.2602 
G01 X-43.0998 Y36.0128 
G01 X-43.0958 Y36.0087 
G01 X-43.0407 Y35.9537 
G01 X-42.6453 Y35.5583 
G01 X-42.5863 Y35.4993 
G01 X-42.5139 Y35.4575 
G01 X-42.4333 Y35.4359 
G01 X-41.7929 Y35.4359 
G01 X-41.7778 Y35.4399 
G01 X-41.7123 Y35.4575 
G01 X-41.6991 Y35.4651 
G01 X-41.6399 Y35.4993 
G01 X-41.5809 Y35.5583 
G01 X-41.5642 Y35.5872 
G01 X-41.5392 Y35.6306 
G01 X-41.5381 Y35.6347 
G01 X-41.5176 Y35.7112 
G01 X-41.5176 Y35.7948 
G01 X-41.5218 Y35.8106 
G01 X-41.5301 Y35.8416 
G01 X-41.5301 Y36.0711 
G01 X-41.5039 Y36.0711 
G01 X-41.5039 Y35.8373 
G01 X-41.4866 Y35.7955 
G01 X-41.4545 Y35.7634 
G01 X-41.4127 Y35.7461 
G01 X-39.8673 Y35.7461 
G01 X-39.8255 Y35.7634 
G01 X-39.7934 Y35.7955 
G01 X-39.7761 Y35.8373 
G01 X-39.7761 Y36.0711 
G01 X-39.7499 Y36.0711 
G01 X-39.7499 Y35.8415 
G01 X-39.7594 Y35.8059 
G01 X-39.7657 Y35.7951 
G01 X-39.7891 Y35.7545 
G01 X-39.8074 Y35.7228 
G01 X-39.8136 Y35.6999 
G01 X-39.8291 Y35.6421 
G01 X-39.8291 Y35.5586 
G01 X-39.8172 Y35.5145 
G01 X-39.8075 Y35.4780 
G01 X-39.8005 Y35.4659 
G01 X-39.7657 Y35.4057 
G01 X-39.7628 Y35.4027 
G01 X-39.7067 Y35.3466 
G01 X-39.6800 Y35.3200 
G01 X-39.6775 Y35.3106 
G01 X-39.6357 Y35.2383 
G01 X-39.5767 Y35.1793 
G01 X-39.5044 Y35.1375 
G01 X-39.4237 Y35.1159 
G01 X-36.7976 Y35.1159 
G01 X-36.7768 Y35.1132 
G01 X-36.7560 Y35.1159 
G01 X-36.7351 Y35.1159 
G01 X-36.7148 Y35.1213 
G01 X-36.6940 Y35.1241 
G01 X-36.6747 Y35.1321 
G01 X-36.6544 Y35.1375 
G01 X-36.6363 Y35.1480 
G01 X-36.6169 Y35.1560 
G01 X-36.6003 Y35.1688 
G01 X-36.5821 Y35.1793 
G01 X-36.5673 Y35.1941 
G01 X-36.5507 Y35.2068 
G01 X-36.5379 Y35.2235 
G01 X-36.5231 Y35.2383 
G01 X-36.5126 Y35.2564 
G01 X-36.4998 Y35.2731 
G01 X-36.4918 Y35.2924 
G01 X-36.4813 Y35.3106 
G01 X-36.4759 Y35.3308 
G01 X-36.3678 Y35.5918 
G01 X-36.0998 Y35.8598 
G01 X-35.7495 Y36.0049 
G01 X-35.3705 Y36.0049 
G01 X-35.0202 Y35.8598 
G01 X-34.7522 Y35.5918 
G00 Z2.0000  F3000
G00 X-34.8796 Y35.6104  F3000
G01 Z-0.2000 F200.00 
G01 X-35.0016 Y35.7324 F500.00 
G01 X-35.1451 Y35.8282 
G01 X-35.3045 Y35.8942 
G01 X-35.4737 Y35.9279 
G01 X-35.6463 Y35.9279 
G01 X-35.8155 Y35.8942 
G01 X-35.9749 Y35.8282 
G01 X-36.1184 Y35.7324 
G01 X-36.2404 Y35.6104 
G01 X-36.3362 Y35.4669 
G01 X-36.4022 Y35.3075 
G01 X-36.4359 Y35.1383 
G01 X-36.4359 Y35.0389 
G01 X-39.7761 Y35.0389 
G01 X-39.7761 Y35.2827 
G01 X-39.7934 Y35.3245 
G01 X-39.8255 Y35.3566 
G01 X-39.8673 Y35.3739 
G01 X-41.4127 Y35.3739 
G01 X-41.4489 Y35.3589 
G01 X-42.5548 Y35.3589 
G01 X-43.2333 Y36.0374 
G01 X-43.3376 Y36.1417 
G01 X-43.4603 Y36.2237 
G01 X-43.5966 Y36.2801 
G01 X-43.7412 Y36.3089 
G01 X-55.8736 Y36.3089 
G01 X-56.0673 Y36.2704 
G01 X-56.2498 Y36.1948 
G01 X-56.4141 Y36.0850 
G01 X-56.4839 Y36.0152 
G01 X-56.5361 Y35.9630 
G01 X-56.9924 Y35.5067 
G01 X-57.0967 Y35.4024 
G01 X-57.1787 Y35.2797 
G01 X-57.2351 Y35.1434 
G01 X-57.2639 Y34.9988 
G01 X-57.2639 Y20.6302 
G01 X-58.9273 Y18.9668 
G01 X-58.9450 Y18.9491 
G01 X-59.0548 Y18.7848 
G01 X-59.1304 Y18.6023 
G01 X-59.1689 Y18.4086 
G01 X-59.1689 Y16.9539 
G01 X-59.2427 Y16.9539 
G01 X-59.2845 Y16.9366 
G01 X-59.3166 Y16.9045 
G01 X-59.3339 Y16.8627 
G01 X-59.3339 Y15.5173 
G01 X-59.3166 Y15.4755 
G01 X-59.2845 Y15.4434 
G01 X-59.2427 Y15.4261 
G01 X-57.5973 Y15.4261 
G01 X-57.5555 Y15.4434 
G01 X-57.5234 Y15.4755 
G01 X-57.5061 Y15.5173 
G01 X-57.5061 Y16.8627 
G01 X-57.5234 Y16.9045 
G01 X-57.5555 Y16.9366 
G01 X-57.5973 Y16.9539 
G01 X-57.6711 Y16.9539 
G01 X-57.6711 Y18.1048 
G01 X-56.0376 Y19.7383 
G01 X-55.9333 Y19.8426 
G01 X-55.8513 Y19.9653 
G01 X-55.7949 Y20.1016 
G01 X-55.7661 Y20.2462 
G01 X-55.7661 Y28.4611 
G01 X-54.9597 Y28.4611 
G01 X-54.9099 Y28.4113 
G01 X-54.7415 Y28.2987 
G01 X-54.5543 Y28.2212 
G01 X-54.3557 Y28.1817 
G01 X-52.3243 Y28.1817 
G01 X-52.1257 Y28.2212 
G01 X-51.9385 Y28.2987 
G01 X-51.7701 Y28.4113 
G01 X-51.6269 Y28.5545 
G01 X-51.5143 Y28.7229 
G01 X-51.4368 Y28.9101 
G01 X-51.3973 Y29.1087 
G01 X-51.3973 Y29.3113 
G01 X-51.4368 Y29.5099 
G01 X-51.5143 Y29.6971 
G01 X-51.6269 Y29.8655 
G01 X-51.7701 Y30.0087 
G01 X-51.9385 Y30.1213 
G01 X-52.1257 Y30.1988 
G01 X-52.3243 Y30.2383 
G01 X-54.3557 Y30.2383 
G01 X-54.5543 Y30.1988 
G01 X-54.7415 Y30.1213 
G01 X-54.9099 Y30.0087 
G01 X-54.9597 Y29.9589 
G01 X-55.7661 Y29.9589 
G01 X-55.7661 Y34.6148 
G01 X-55.5698 Y34.8111 
G01 X-44.1252 Y34.8111 
G01 X-43.3424 Y34.0283 
G01 X-43.2197 Y33.9463 
G01 X-43.0834 Y33.8899 
G01 X-42.9388 Y33.8611 
G01 X-41.4489 Y33.8611 
G01 X-41.4127 Y33.8461 
G01 X-40.9352 Y33.8461 
G01 X-40.7974 Y33.7083 
G01 X-40.6747 Y33.6263 
G01 X-40.5384 Y33.5699 
G01 X-40.3938 Y33.5411 
G01 X-36.4359 Y33.5411 
G01 X-36.4359 Y33.4417 
G01 X-36.4022 Y33.2725 
G01 X-36.3362 Y33.1131 
G01 X-36.2404 Y32.9696 
G01 X-36.1184 Y32.8476 
G01 X-35.9749 Y32.7518 
G01 X-35.8155 Y32.6858 
G01 X-35.6463 Y32.6521 
G01 X-35.4737 Y32.6521 
G01 X-35.3045 Y32.6858 
G01 X-35.1451 Y32.7518 
G01 X-35.0016 Y32.8476 
G01 X-34.8796 Y32.9696 
G01 X-34.7838 Y33.1131 
G01 X-34.7178 Y33.2725 
G01 X-34.6841 Y33.4417 
G01 X-34.6841 Y35.1383 
G01 X-34.7178 Y35.3075 
G01 X-34.7838 Y35.4669 
G01 X-34.8796 Y35.6104 
G00 Z2.0000  F3000
G00 X-33.9221 Y33.8472  F3000
G01 Z-0.2000 F200.00 
G01 X-33.9088 Y33.8149 F500.00 
G01 X-33.8959 Y33.7957 
G01 X-33.8959 Y33.4417 
G01 X-33.8622 Y33.2725 
G01 X-33.7962 Y33.1131 
G01 X-33.7004 Y32.9696 
G01 X-33.5784 Y32.8476 
G01 X-33.4349 Y32.7518 
G01 X-33.3879 Y32.7323 
G01 X-33.3879 Y32.7030 
G01 X-33.4928 Y32.7565 
G01 X-33.6077 Y32.8399 
G01 X-33.7081 Y32.9403 
G01 X-33.7915 Y33.0552 
G01 X-33.8560 Y33.1817 
G01 X-33.8999 Y33.3167 
G01 X-33.9221 Y33.4570 
G01 X-33.9221 Y33.8472 
G00 Z2.0000  F3000
G00 X-32.1749 Y33.2871  F3000
G01 Z-0.2000 F200.00 
G01 X-32.1497 Y33.2871 F500.00 
G01 X-32.1840 Y33.1817 
G01 X-32.2484 Y33.0552 
G01 X-32.3319 Y32.9403 
G01 X-32.4323 Y32.8399 
G01 X-32.5472 Y32.7565 
G01 X-32.6521 Y32.7030 
G01 X-32.6521 Y32.7323 
G01 X-32.6051 Y32.7518 
G01 X-32.4616 Y32.8476 
G01 X-32.3396 Y32.9696 
G01 X-32.2438 Y33.1131 
G01 X-32.1778 Y33.2725 
G01 X-32.1749 Y33.2871 
G00 Z2.0000  F3000
G00 X-39.7499 Y36.9489  F3000
G01 Z-0.2000 F200.00 
G01 X-39.7761 Y36.9489 F500.00 
G01 X-39.7761 Y37.1827 
G01 X-39.7934 Y37.2245 
G01 X-39.8255 Y37.2566 
G01 X-39.8673 Y37.2739 
G01 X-40.2011 Y37.2739 
G01 X-40.2011 Y37.3001 
G01 X-39.8715 Y37.3001 
G01 X-39.8359 Y37.2906 
G01 X-39.8040 Y37.2721 
G01 X-39.7779 Y37.2460 
G01 X-39.7594 Y37.2141 
G01 X-39.7499 Y37.1784 
G01 X-39.7499 Y36.9489 
G00 Z2.0000  F3000
G00 X-41.0789 Y37.2739  F3000
G01 Z-0.2000 F200.00 
G01 X-41.4127 Y37.2739 F500.00 
G01 X-41.4545 Y37.2566 
G01 X-41.4866 Y37.2245 
G01 X-41.5039 Y37.1827 
G01 X-41.5039 Y36.9489 
G01 X-41.5301 Y36.9489 
G01 X-41.5301 Y37.1784 
G01 X-41.5206 Y37.2141 
G01 X-41.5021 Y37.2460 
G01 X-41.4760 Y37.2721 
G01 X-41.4441 Y37.2906 
G01 X-41.4084 Y37.3001 
G01 X-41.0789 Y37.3001 
G01 X-41.0789 Y37.2739 
G00 Z2.0000  F3000
G00 X-45.3255 Y32.6466  F3000
G01 Z-0.2000 F200.00 
G01 X-45.3673 Y32.6639 F500.00 
G01 X-46.7127 Y32.6639 
G01 X-46.7545 Y32.6466 
G01 X-46.7866 Y32.6145 
G01 X-46.8039 Y32.5727 
G01 X-46.8039 Y30.9273 
G01 X-46.7866 Y30.8855 
G01 X-46.7545 Y30.8534 
G01 X-46.7127 Y30.8361 
G01 X-46.4689 Y30.8361 
G01 X-46.4689 Y28.2502 
G01 X-48.7374 Y25.9817 
G01 X-48.8417 Y25.8774 
G01 X-48.9237 Y25.7547 
G01 X-48.9801 Y25.6184 
G01 X-49.0089 Y25.4738 
G01 X-49.0089 Y24.1489 
G01 X-50.0127 Y24.1489 
G01 X-50.0545 Y24.1316 
G01 X-50.0866 Y24.0995 
G01 X-50.1039 Y24.0577 
G01 X-50.1039 Y22.4123 
G01 X-50.0866 Y22.3705 
G01 X-50.0545 Y22.3384 
G01 X-50.0127 Y22.3211 
G01 X-46.9673 Y22.3211 
G01 X-46.9255 Y22.3384 
G01 X-46.8934 Y22.3705 
G01 X-46.8761 Y22.4123 
G01 X-46.8761 Y24.0577 
G01 X-46.8934 Y24.0995 
G01 X-46.9255 Y24.1316 
G01 X-46.9673 Y24.1489 
G01 X-47.5111 Y24.1489 
G01 X-47.5111 Y25.0898 
G01 X-45.1383 Y27.4626 
G01 X-45.0563 Y27.5853 
G01 X-44.9999 Y27.7216 
G01 X-44.9711 Y27.8662 
G01 X-44.9711 Y31.8238 
G01 X-44.9999 Y31.9684 
G01 X-45.0563 Y32.1047 
G01 X-45.1383 Y32.2274 
G01 X-45.2426 Y32.3317 
G01 X-45.2761 Y32.3541 
G01 X-45.2761 Y32.5727 
G01 X-45.2934 Y32.6145 
G01 X-45.3255 Y32.6466 
G00 Z2.0000  F3000
G00 X-47.2255 Y32.6466  F3000
G01 Z-0.2000 F200.00 
G01 X-47.2673 Y32.6639 F500.00 
G01 X-48.6127 Y32.6639 
G01 X-48.6545 Y32.6466 
G01 X-48.6866 Y32.6145 
G01 X-48.7029 Y32.5751 
G01 X-49.6113 Y32.5751 
G01 X-49.7707 Y32.5434 
G01 X-49.9208 Y32.4812 
G01 X-50.0560 Y32.3909 
G01 X-50.1709 Y32.2760 
G01 X-50.2612 Y32.1408 
G01 X-50.3234 Y31.9907 
G01 X-50.3551 Y31.8313 
G01 X-50.3551 Y28.2818 
G01 X-51.1418 Y27.4951 
G01 X-51.8096 Y27.4951 
G01 X-51.9385 Y27.5813 
G01 X-52.1257 Y27.6588 
G01 X-52.3243 Y27.6983 
G01 X-54.3557 Y27.6983 
G01 X-54.5543 Y27.6588 
G01 X-54.7415 Y27.5813 
G01 X-54.9099 Y27.4687 
G01 X-55.0531 Y27.3255 
G01 X-55.1657 Y27.1571 
G01 X-55.2432 Y26.9699 
G01 X-55.2827 Y26.7713 
G01 X-55.2827 Y26.5687 
G01 X-55.2432 Y26.3701 
G01 X-55.1657 Y26.1829 
G01 X-55.0531 Y26.0145 
G01 X-54.9099 Y25.8713 
G01 X-54.7415 Y25.7587 
G01 X-54.5543 Y25.6812 
G01 X-54.3557 Y25.6417 
G01 X-52.3243 Y25.6417 
G01 X-52.1257 Y25.6812 
G01 X-51.9385 Y25.7587 
G01 X-51.8096 Y25.8449 
G01 X-50.8203 Y25.8449 
G01 X-50.6525 Y25.8715 
G01 X-50.4910 Y25.9240 
G01 X-50.3396 Y26.0011 
G01 X-50.2022 Y26.1009 
G01 X-50.1996 Y26.1035 
G01 X-49.0040 Y27.2991 
G01 X-48.8891 Y27.4140 
G01 X-48.7988 Y27.5492 
G01 X-48.7366 Y27.6993 
G01 X-48.7049 Y27.8587 
G01 X-48.7049 Y30.9249 
G01 X-48.7029 Y30.9249 
G01 X-48.6866 Y30.8855 
G01 X-48.6545 Y30.8534 
G01 X-48.6127 Y30.8361 
G01 X-47.2673 Y30.8361 
G01 X-47.2255 Y30.8534 
G01 X-47.1934 Y30.8855 
G01 X-47.1761 Y30.9273 
G01 X-47.1761 Y31.4381 
G01 X-47.1466 Y31.5093 
G01 X-47.1149 Y31.6687 
G01 X-47.1149 Y31.8313 
G01 X-47.1466 Y31.9907 
G01 X-47.1761 Y32.0619 
G01 X-47.1761 Y32.5727 
G01 X-47.1934 Y32.6145 
G01 X-47.2255 Y32.6466 
G00 Z2.0000  F3000
G00 X-51.7701 Y32.5487  F3000
G01 Z-0.2000 F200.00 
G01 X-51.9385 Y32.6613 F500.00 
G01 X-52.1257 Y32.7388 
G01 X-52.3243 Y32.7783 
G01 X-54.3557 Y32.7783 
G01 X-54.5543 Y32.7388 
G01 X-54.7415 Y32.6613 
G01 X-54.9099 Y32.5487 
G01 X-55.0531 Y32.4055 
G01 X-55.1657 Y32.2371 
G01 X-55.2432 Y32.0499 
G01 X-55.2827 Y31.8513 
G01 X-55.2827 Y31.6487 
G01 X-55.2432 Y31.4501 
G01 X-55.1657 Y31.2629 
G01 X-55.0531 Y31.0945 
G01 X-54.9099 Y30.9513 
G01 X-54.7415 Y30.8387 
G01 X-54.5543 Y30.7612 
G01 X-54.3557 Y30.7217 
G01 X-52.3243 Y30.7217 
G01 X-52.1257 Y30.7612 
G01 X-51.9385 Y30.8387 
G01 X-51.7701 Y30.9513 
G01 X-51.6269 Y31.0945 
G01 X-51.5143 Y31.2629 
G01 X-51.4368 Y31.4501 
G01 X-51.3973 Y31.6487 
G01 X-51.3973 Y31.8513 
G01 X-51.4368 Y32.0499 
G01 X-51.5143 Y32.2371 
G01 X-51.6269 Y32.4055 
G01 X-51.7701 Y32.5487 
G00 Z2.0000  F3000
G00 X-51.7701 Y24.9287  F3000
G01 Z-0.2000 F200.00 
G01 X-51.9385 Y25.0413 F500.00 
G01 X-52.1257 Y25.1188 
G01 X-52.3243 Y25.1583 
G01 X-54.3557 Y25.1583 
G01 X-54.5543 Y25.1188 
G01 X-54.7415 Y25.0413 
G01 X-54.9099 Y24.9287 
G01 X-55.0531 Y24.7855 
G01 X-55.1657 Y24.6171 
G01 X-55.2432 Y24.4299 
G01 X-55.2827 Y24.2313 
G01 X-55.2827 Y24.0287 
G01 X-55.2432 Y23.8301 
G01 X-55.1657 Y23.6429 
G01 X-55.0531 Y23.4745 
G01 X-54.9099 Y23.3313 
G01 X-54.7415 Y23.2187 
G01 X-54.5543 Y23.1412 
G01 X-54.3557 Y23.1017 
G01 X-52.3243 Y23.1017 
G01 X-52.1257 Y23.1412 
G01 X-51.9385 Y23.2187 
G01 X-51.7701 Y23.3313 
G01 X-51.6269 Y23.4745 
G01 X-51.5143 Y23.6429 
G01 X-51.4368 Y23.8301 
G01 X-51.3973 Y24.0287 
G01 X-51.3973 Y24.2313 
G01 X-51.4368 Y24.4299 
G01 X-51.5143 Y24.6171 
G01 X-51.6269 Y24.7855 
G01 X-51.7701 Y24.9287 
G00 Z2.0000  F3000
G00 X-51.7701 Y22.3887  F3000
G01 Z-0.2000 F200.00 
G01 X-51.9385 Y22.5013 F500.00 
G01 X-52.1257 Y22.5788 
G01 X-52.3243 Y22.6183 
G01 X-54.3557 Y22.6183 
G01 X-54.5543 Y22.5788 
G01 X-54.7415 Y22.5013 
G01 X-54.9099 Y22.3887 
G01 X-55.0531 Y22.2455 
G01 X-55.1657 Y22.0771 
G01 X-55.2432 Y21.8899 
G01 X-55.2827 Y21.6913 
G01 X-55.2827 Y21.4887 
G01 X-55.2432 Y21.2901 
G01 X-55.1657 Y21.1029 
G01 X-55.0531 Y20.9345 
G01 X-54.9099 Y20.7913 
G01 X-54.7415 Y20.6787 
G01 X-54.5543 Y20.6012 
G01 X-54.3557 Y20.5617 
G01 X-52.3243 Y20.5617 
G01 X-52.1257 Y20.6012 
G01 X-51.9385 Y20.6787 
G01 X-51.7701 Y20.7913 
G01 X-51.6269 Y20.9345 
G01 X-51.5143 Y21.1029 
G01 X-51.4368 Y21.2901 
G01 X-51.3973 Y21.4887 
G01 X-51.3973 Y21.6913 
G01 X-51.4368 Y21.8899 
G01 X-51.5143 Y22.0771 
G01 X-51.6269 Y22.2455 
G01 X-51.7701 Y22.3887 
G00 Z2.0000  F3000
G00 X-51.7701 Y19.8487  F3000
G01 Z-0.2000 F200.00 
G01 X-51.9385 Y19.9613 F500.00 
G01 X-52.1257 Y20.0388 
G01 X-52.3243 Y20.0783 
G01 X-54.3557 Y20.0783 
G01 X-54.5543 Y20.0388 
G01 X-54.7415 Y19.9613 
G01 X-54.9099 Y19.8487 
G01 X-55.0531 Y19.7055 
G01 X-55.1657 Y19.5371 
G01 X-55.2432 Y19.3499 
G01 X-55.2827 Y19.1513 
G01 X-55.2827 Y18.9487 
G01 X-55.2432 Y18.7501 
G01 X-55.1657 Y18.5629 
G01 X-55.0531 Y18.3945 
G01 X-54.9099 Y18.2513 
G01 X-54.7415 Y18.1387 
G01 X-54.5543 Y18.0612 
G01 X-54.3557 Y18.0217 
G01 X-52.3243 Y18.0217 
G01 X-52.1257 Y18.0612 
G01 X-51.9385 Y18.1387 
G01 X-51.7701 Y18.2513 
G01 X-51.6269 Y18.3945 
G01 X-51.5143 Y18.5629 
G01 X-51.4368 Y18.7501 
G01 X-51.3973 Y18.9487 
G01 X-51.3973 Y19.1513 
G01 X-51.4368 Y19.3499 
G01 X-51.5143 Y19.5371 
G01 X-51.6269 Y19.7055 
G01 X-51.7701 Y19.8487 
G00 Z2.0000  F3000
G00 X-50.0760 Y19.5871  F3000
G01 Z-0.2000 F200.00 
G01 X-50.0441 Y19.6056 F500.00 
G01 X-50.0084 Y19.6151 
G01 X-49.0039 Y19.6151 
G01 X-49.0039 Y19.5889 
G01 X-50.0127 Y19.5889 
G01 X-50.0545 Y19.5716 
G01 X-50.0866 Y19.5395 
G01 X-50.1039 Y19.4977 
G01 X-50.1039 Y19.1889 
G01 X-50.1301 Y19.1889 
G01 X-50.1301 Y19.4934 
G01 X-50.1206 Y19.5291 
G01 X-50.1021 Y19.5610 
G01 X-50.0760 Y19.5871 
G00 Z2.0000  F3000
G00 X-50.1039 Y18.1611  F3000
G01 Z-0.2000 F200.00 
G01 X-50.1039 Y17.8523 F500.00 
G01 X-50.0866 Y17.8105 
G01 X-50.0545 Y17.7784 
G01 X-50.0127 Y17.7611 
G01 X-49.0039 Y17.7611 
G01 X-49.0039 Y17.7349 
G01 X-50.0084 Y17.7349 
G01 X-50.0441 Y17.7444 
G01 X-50.0760 Y17.7629 
G01 X-50.1021 Y17.7890 
G01 X-50.1206 Y17.8209 
G01 X-50.1301 Y17.8565 
G01 X-50.1301 Y18.1611 
G01 X-50.1039 Y18.1611 
G00 Z2.0000  F3000
G00 X-51.7701 Y17.3087  F3000
G01 Z-0.2000 F200.00 
G01 X-51.9385 Y17.4213 F500.00 
G01 X-52.1257 Y17.4988 
G01 X-52.3243 Y17.5383 
G01 X-54.3557 Y17.5383 
G01 X-54.5543 Y17.4988 
G01 X-54.7415 Y17.4213 
G01 X-54.9099 Y17.3087 
G01 X-55.0531 Y17.1655 
G01 X-55.1657 Y16.9971 
G01 X-55.2432 Y16.8099 
G01 X-55.2827 Y16.6113 
G01 X-55.2827 Y16.4087 
G01 X-55.2432 Y16.2101 
G01 X-55.1657 Y16.0229 
G01 X-55.0531 Y15.8545 
G01 X-54.9099 Y15.7113 
G01 X-54.7415 Y15.5987 
G01 X-54.5543 Y15.5212 
G01 X-54.3557 Y15.4817 
G01 X-52.3243 Y15.4817 
G01 X-52.1257 Y15.5212 
G01 X-51.9385 Y15.5987 
G01 X-51.7701 Y15.7113 
G01 X-51.6269 Y15.8545 
G01 X-51.5143 Y16.0229 
G01 X-51.4368 Y16.2101 
G01 X-51.3973 Y16.4087 
G01 X-51.3973 Y16.6113 
G01 X-51.4368 Y16.8099 
G01 X-51.5143 Y16.9971 
G01 X-51.6269 Y17.1655 
G01 X-51.7701 Y17.3087 
G00 Z2.0000  F3000
G00 X-51.7701 Y14.7687  F3000
G01 Z-0.2000 F200.00 
G01 X-51.9385 Y14.8813 F500.00 
G01 X-52.1257 Y14.9588 
G01 X-52.3243 Y14.9983 
G01 X-54.3557 Y14.9983 
G01 X-54.5543 Y14.9588 
G01 X-54.7415 Y14.8813 
G01 X-54.9099 Y14.7687 
G01 X-54.9597 Y14.7189 
G01 X-57.5061 Y14.7189 
G01 X-57.5061 Y14.9627 
G01 X-57.5234 Y15.0045 
G01 X-57.5555 Y15.0366 
G01 X-57.5973 Y15.0539 
G01 X-59.2427 Y15.0539 
G01 X-59.2845 Y15.0366 
G01 X-59.3166 Y15.0045 
G01 X-59.3339 Y14.9627 
G01 X-59.3339 Y13.6173 
G01 X-59.3166 Y13.5755 
G01 X-59.2845 Y13.5434 
G01 X-59.2427 Y13.5261 
G01 X-58.7152 Y13.5261 
G01 X-58.6518 Y13.4627 
G01 X-58.6341 Y13.4450 
G01 X-58.4698 Y13.3352 
G01 X-58.2873 Y13.2596 
G01 X-58.0936 Y13.2211 
G01 X-54.9597 Y13.2211 
G01 X-54.9099 Y13.1713 
G01 X-54.7415 Y13.0587 
G01 X-54.5543 Y12.9812 
G01 X-54.3557 Y12.9417 
G01 X-52.3243 Y12.9417 
G01 X-52.1257 Y12.9812 
G01 X-51.9385 Y13.0587 
G01 X-51.7701 Y13.1713 
G01 X-51.6269 Y13.3145 
G01 X-51.5143 Y13.4829 
G01 X-51.4368 Y13.6701 
G01 X-51.3973 Y13.8687 
G01 X-51.3973 Y14.0713 
G01 X-51.4368 Y14.2699 
G01 X-51.5143 Y14.4571 
G01 X-51.6269 Y14.6255 
G01 X-51.7701 Y14.7687 
G00 Z2.0000  F3000
G00 X-47.9761 Y17.7349  F3000
G01 Z-0.2000 F200.00 
G01 X-47.9761 Y17.7611 F500.00 
G01 X-46.9673 Y17.7611 
G01 X-46.9255 Y17.7784 
G01 X-46.8934 Y17.8105 
G01 X-46.8761 Y17.8523 
G01 X-46.8761 Y18.1611 
G01 X-46.8499 Y18.1611 
G01 X-46.8499 Y17.8565 
G01 X-46.8594 Y17.8209 
G01 X-46.8779 Y17.7890 
G01 X-46.9040 Y17.7629 
G01 X-46.9359 Y17.7444 
G01 X-46.9715 Y17.7349 
G01 X-47.9761 Y17.7349 
G00 Z2.0000  F3000
G00 X-47.9761 Y19.5889  F3000
G01 Z-0.2000 F200.00 
G01 X-47.9761 Y19.6151 F500.00 
G01 X-46.9715 Y19.6151 
G01 X-46.9359 Y19.6056 
G01 X-46.9040 Y19.5871 
G01 X-46.8779 Y19.5610 
G01 X-46.8594 Y19.5291 
G01 X-46.8499 Y19.4934 
G01 X-46.8499 Y19.1889 
G01 X-46.8761 Y19.1889 
G01 X-46.8761 Y19.4977 
G01 X-46.8934 Y19.5395 
G01 X-46.9255 Y19.5716 
G01 X-46.9673 Y19.5889 
G01 X-47.9761 Y19.5889 
G00 Z2.0000  F3000
G00 X-61.5203 Y21.2899  F3000
G01 Z-0.2000 F200.00 
G01 X-64.1185 Y21.2899 F500.00 
G01 X-64.1541 Y21.2994 
G01 X-64.1860 Y21.3179 
G01 X-64.2121 Y21.3440 
G01 X-64.2306 Y21.3759 
G01 X-64.2401 Y21.4115 
G01 X-64.2401 Y23.6097 
G01 X-64.2139 Y23.6097 
G01 X-64.2139 Y21.4073 
G01 X-64.1966 Y21.3655 
G01 X-64.1645 Y21.3334 
G01 X-64.1227 Y21.3161 
G01 X-61.5203 Y21.3161 
G01 X-61.5203 Y21.2899 
G00 Z2.0000  F3000
G00 X-61.5203 Y26.9439  F3000
G01 Z-0.2000 F200.00 
G01 X-64.1227 Y26.9439 F500.00 
G01 X-64.1645 Y26.9266 
G01 X-64.1966 Y26.8945 
G01 X-64.2139 Y26.8527 
G01 X-64.2139 Y24.6503 
G01 X-64.2401 Y24.6503 
G01 X-64.2401 Y26.8484 
G01 X-64.2306 Y26.8841 
G01 X-64.2121 Y26.9160 
G01 X-64.1860 Y26.9421 
G01 X-64.1541 Y26.9606 
G01 X-64.1184 Y26.9701 
G01 X-61.5203 Y26.9701 
G01 X-61.5203 Y26.9439 
G00 Z2.0000  F3000
G00 X-67.3861 Y26.9327  F3000
G01 Z-0.2000 F200.00 
G01 X-67.4034 Y26.9745 F500.00 
G01 X-67.4355 Y27.0066 
G01 X-67.4773 Y27.0239 
G01 X-67.5674 Y27.0239 
G01 X-67.6279 Y27.0844 
G01 X-67.6279 Y35.0517 
G01 X-67.5800 Y35.1458 
G01 X-67.5275 Y35.3073 
G01 X-67.5009 Y35.4751 
G01 X-67.5009 Y35.6449 
G01 X-67.5275 Y35.8127 
G01 X-67.5800 Y35.9742 
G01 X-67.6571 Y36.1256 
G01 X-67.7569 Y36.2630 
G01 X-67.8770 Y36.3831 
G01 X-68.0144 Y36.4829 
G01 X-68.1658 Y36.5600 
G01 X-68.3273 Y36.6125 
G01 X-68.4951 Y36.6391 
G01 X-83.2699 Y36.6391 
G01 X-83.4377 Y36.6125 
G01 X-83.5992 Y36.5600 
G01 X-83.7506 Y36.4829 
G01 X-83.8880 Y36.3831 
G01 X-84.0081 Y36.2630 
G01 X-84.1079 Y36.1256 
G01 X-84.1850 Y35.9742 
G01 X-84.2375 Y35.8127 
G01 X-84.2641 Y35.6449 
G01 X-84.2641 Y29.1251 
G01 X-84.2375 Y28.9573 
G01 X-84.1850 Y28.7958 
G01 X-84.1079 Y28.6444 
G01 X-84.0081 Y28.5070 
G01 X-83.8880 Y28.3869 
G01 X-83.7506 Y28.2871 
G01 X-83.5992 Y28.2100 
G01 X-83.4377 Y28.1575 
G01 X-83.2699 Y28.1309 
G01 X-83.1001 Y28.1309 
G01 X-82.9323 Y28.1575 
G01 X-82.7708 Y28.2100 
G01 X-82.6194 Y28.2871 
G01 X-82.4820 Y28.3869 
G01 X-82.3619 Y28.5070 
G01 X-82.2621 Y28.6444 
G01 X-82.1850 Y28.7958 
G01 X-82.1325 Y28.9573 
G01 X-82.1059 Y29.1251 
G01 X-82.1059 Y34.4809 
G01 X-69.5321 Y34.4809 
G01 X-69.5321 Y26.3162 
G01 X-69.4955 Y26.1323 
G01 X-69.4237 Y25.9590 
G01 X-69.3195 Y25.8031 
G01 X-69.1869 Y25.6705 
G01 X-69.0310 Y25.5663 
G01 X-68.8577 Y25.4945 
G01 X-68.6738 Y25.4579 
G01 X-68.2062 Y25.4579 
G01 X-68.0223 Y25.4945 
G01 X-67.8490 Y25.5663 
G01 X-67.6931 Y25.6705 
G01 X-67.5674 Y25.7961 
G01 X-67.4773 Y25.7961 
G01 X-67.4355 Y25.8134 
G01 X-67.4034 Y25.8455 
G01 X-67.3861 Y25.8873 
G01 X-67.3861 Y26.1284 
G01 X-67.3845 Y26.1323 
G01 X-67.3479 Y26.3162 
G01 X-67.3479 Y26.5038 
G01 X-67.3845 Y26.6877 
G01 X-67.3861 Y26.6916 
G01 X-67.3861 Y26.9327 
G00 Z2.0000  F3000
G00 X-74.1803 Y26.8899  F3000
G01 Z-0.2000 F200.00 
G01 X-74.1803 Y26.4501 F500.00 
G01 X-74.3486 Y26.0439 
G01 X-74.6595 Y25.7330 
G01 X-74.7175 Y25.7089 
G01 X-74.7772 Y25.6842 
G01 X-74.7947 Y25.6770 
G01 X-74.8420 Y25.6406 
G01 X-74.8609 Y25.6262 
G01 X-74.9117 Y25.5599 
G01 X-74.9437 Y25.4828 
G01 X-74.9522 Y25.4184 
G01 X-74.9546 Y25.4000 
G01 X-74.9437 Y25.3172 
G01 X-74.9168 Y25.2524 
G01 X-74.9117 Y25.2401 
G01 X-74.8754 Y25.1927 
G01 X-74.8609 Y25.1738 
G01 X-74.7947 Y25.1230 
G01 X-74.6595 Y25.0670 
G01 X-74.3486 Y24.7561 
G01 X-74.1803 Y24.3499 
G01 X-74.1803 Y23.9101 
G01 X-74.3486 Y23.5039 
G01 X-74.6595 Y23.1930 
G01 X-74.7175 Y23.1689 
G01 X-74.7772 Y23.1442 
G01 X-74.7947 Y23.1370 
G01 X-74.8420 Y23.1006 
G01 X-74.8609 Y23.0862 
G01 X-74.9117 Y23.0199 
G01 X-74.9437 Y22.9428 
G01 X-74.9522 Y22.8784 
G01 X-74.9546 Y22.8600 
G01 X-74.9437 Y22.7772 
G01 X-74.9168 Y22.7124 
G01 X-74.9117 Y22.7001 
G01 X-74.8754 Y22.6527 
G01 X-74.8609 Y22.6338 
G01 X-74.7947 Y22.5830 
G01 X-74.6595 Y22.5270 
G01 X-74.3486 Y22.2161 
G01 X-74.1803 Y21.8099 
G01 X-74.1803 Y21.3701 
G01 X-74.3486 Y20.9639 
G01 X-74.6595 Y20.6530 
G01 X-74.7175 Y20.6289 
G01 X-74.7772 Y20.6042 
G01 X-74.7947 Y20.5970 
G01 X-74.8420 Y20.5606 
G01 X-74.8609 Y20.5462 
G01 X-74.9117 Y20.4799 
G01 X-74.9437 Y20.4028 
G01 X-74.9522 Y20.3384 
G01 X-74.9546 Y20.3200 
G01 X-74.9437 Y20.2372 
G01 X-74.9168 Y20.1724 
G01 X-74.9117 Y20.1601 
G01 X-74.8754 Y20.1127 
G01 X-74.8609 Y20.0938 
G01 X-74.7947 Y20.0430 
G01 X-74.6595 Y19.9870 
G01 X-74.3486 Y19.6761 
G01 X-74.1803 Y19.2699 
G01 X-74.1803 Y18.8301 
G01 X-74.3486 Y18.4239 
G01 X-74.6595 Y18.1130 
G01 X-74.8120 Y18.0498 
G01 X-74.8398 Y18.0408 
G01 X-74.8504 Y18.0339 
G01 X-74.8620 Y18.0291 
G01 X-74.8853 Y18.0112 
G01 X-74.9098 Y17.9953 
G01 X-74.9183 Y17.9859 
G01 X-74.9283 Y17.9782 
G01 X-74.9461 Y17.9550 
G01 X-74.9657 Y17.9332 
G01 X-74.9714 Y17.9220 
G01 X-74.9791 Y17.9120 
G01 X-74.9903 Y17.8850 
G01 X-75.0036 Y17.8589 
G01 X-75.0062 Y17.8465 
G01 X-75.0111 Y17.8349 
G01 X-75.0149 Y17.8058 
G01 X-75.0210 Y17.7772 
G01 X-75.0203 Y17.7646 
G01 X-75.0220 Y17.7521 
G01 X-75.0181 Y17.7231 
G01 X-75.0166 Y17.6938 
G01 X-75.0127 Y17.6818 
G01 X-75.0111 Y17.6693 
G01 X-74.9999 Y17.6423 
G01 X-74.9908 Y17.6144 
G01 X-74.9839 Y17.6038 
G01 X-74.9791 Y17.5922 
G01 X-74.9613 Y17.5689 
G01 X-74.9453 Y17.5444 
G01 X-74.9360 Y17.5359 
G01 X-74.9283 Y17.5259 
G01 X-74.9051 Y17.5081 
G01 X-74.8833 Y17.4885 
G01 X-74.8720 Y17.4828 
G01 X-74.8620 Y17.4751 
G01 X-74.8350 Y17.4639 
G01 X-74.7329 Y17.4119 
G01 X-74.5986 Y17.3143 
G01 X-74.4813 Y17.1970 
G01 X-74.3837 Y17.0627 
G01 X-74.3084 Y16.9148 
G01 X-74.2964 Y16.8779 
G01 X-74.3250 Y16.8779 
G01 X-74.3743 Y16.9971 
G01 X-74.4869 Y17.1655 
G01 X-74.6301 Y17.3087 
G01 X-74.7985 Y17.4213 
G01 X-74.9857 Y17.4988 
G01 X-75.1843 Y17.5383 
G01 X-77.2157 Y17.5383 
G01 X-77.3434 Y17.5129 
G01 X-80.1088 Y17.5129 
G01 X-80.2722 Y17.4804 
G01 X-80.2623 Y17.4903 
G01 X-80.2457 Y17.5030 
G01 X-80.2329 Y17.5197 
G01 X-80.2181 Y17.5345 
G01 X-80.2076 Y17.5527 
G01 X-80.1948 Y17.5693 
G01 X-80.1868 Y17.5886 
G01 X-80.1763 Y17.6068 
G01 X-80.1709 Y17.6271 
G01 X-80.1629 Y17.6464 
G01 X-80.1602 Y17.6672 
G01 X-80.1547 Y17.6874 
G01 X-80.1547 Y17.7084 
G01 X-80.1520 Y17.7292 
G01 X-80.1547 Y17.7500 
G01 X-80.1547 Y17.7709 
G01 X-80.1602 Y17.7912 
G01 X-80.1629 Y17.8120 
G01 X-80.1709 Y17.8313 
G01 X-80.1763 Y17.8516 
G01 X-80.1868 Y17.8697 
G01 X-80.1948 Y17.8891 
G01 X-80.2076 Y17.9057 
G01 X-80.2181 Y17.9239 
G01 X-80.2329 Y17.9387 
G01 X-80.2457 Y17.9554 
G01 X-80.2623 Y17.9681 
G01 X-80.2771 Y17.9829 
G01 X-80.2953 Y17.9934 
G01 X-80.3119 Y18.0062 
G01 X-80.3313 Y18.0142 
G01 X-80.3494 Y18.0247 
G01 X-80.3697 Y18.0301 
G01 X-80.4539 Y18.0650 
G01 X-80.4721 Y18.0755 
G01 X-80.4923 Y18.0809 
G01 X-80.5117 Y18.0889 
G01 X-80.5325 Y18.0917 
G01 X-80.5527 Y18.0971 
G01 X-80.5737 Y18.0971 
G01 X-80.5945 Y18.0998 
G01 X-80.6153 Y18.0971 
G01 X-80.9615 Y18.0971 
G01 X-81.3118 Y18.2422 
G01 X-81.5798 Y18.5102 
G01 X-81.7249 Y18.8605 
G01 X-81.7249 Y19.2395 
G01 X-81.5798 Y19.5898 
G01 X-81.3118 Y19.8578 
G01 X-80.9615 Y20.0029 
G01 X-80.6266 Y20.0029 
G01 X-80.6171 Y20.0010 
G01 X-80.5850 Y20.0029 
G01 X-80.5527 Y20.0029 
G01 X-80.5434 Y20.0054 
G01 X-80.5338 Y20.0060 
G01 X-80.5032 Y20.0162 
G01 X-80.4721 Y20.0245 
G01 X-80.4637 Y20.0293 
G01 X-80.4546 Y20.0324 
G01 X-80.4277 Y20.0501 
G01 X-80.3998 Y20.0663 
G01 X-80.3930 Y20.0731 
G01 X-80.3849 Y20.0784 
G01 X-80.3635 Y20.1025 
G01 X-80.3407 Y20.1253 
G01 X-80.3359 Y20.1336 
G01 X-80.3295 Y20.1408 
G01 X-80.3151 Y20.1697 
G01 X-80.2990 Y20.1976 
G01 X-80.2965 Y20.2069 
G01 X-80.2922 Y20.2155 
G01 X-80.2857 Y20.2471 
G01 X-80.2774 Y20.2782 
G01 X-80.2774 Y20.2879 
G01 X-80.2754 Y20.2973 
G01 X-80.2774 Y20.3295 
G01 X-80.2774 Y20.3617 
G01 X-80.2799 Y20.3711 
G01 X-80.2804 Y20.3807 
G01 X-80.2906 Y20.4112 
G01 X-80.2990 Y20.4424 
G01 X-80.3038 Y20.4507 
G01 X-80.3068 Y20.4599 
G01 X-80.3246 Y20.4868 
G01 X-80.3407 Y20.5147 
G01 X-80.3475 Y20.5215 
G01 X-80.3529 Y20.5296 
G01 X-80.3770 Y20.5509 
G01 X-80.3998 Y20.5737 
G01 X-80.4081 Y20.5786 
G01 X-80.4153 Y20.5849 
G01 X-80.4442 Y20.5994 
G01 X-80.4721 Y20.6155 
G01 X-80.4814 Y20.6180 
G01 X-80.4900 Y20.6223 
G01 X-80.5216 Y20.6288 
G01 X-80.5527 Y20.6371 
G01 X-80.5624 Y20.6371 
G01 X-80.5718 Y20.6390 
G01 X-80.6040 Y20.6371 
G01 X-80.9615 Y20.6371 
G01 X-81.3118 Y20.7822 
G01 X-81.5798 Y21.0502 
G01 X-81.7249 Y21.4005 
G01 X-81.7249 Y21.7795 
G01 X-81.5798 Y22.1298 
G01 X-81.3118 Y22.3978 
G01 X-80.9615 Y22.5429 
G01 X-80.6266 Y22.5429 
G01 X-80.6171 Y22.5410 
G01 X-80.5850 Y22.5429 
G01 X-80.5527 Y22.5429 
G01 X-80.5434 Y22.5454 
G01 X-80.5338 Y22.5460 
G01 X-80.5032 Y22.5562 
G01 X-80.4721 Y22.5645 
G01 X-80.4637 Y22.5693 
G01 X-80.4546 Y22.5724 
G01 X-80.4277 Y22.5901 
G01 X-80.3998 Y22.6063 
G01 X-80.3930 Y22.6131 
G01 X-80.3849 Y22.6184 
G01 X-80.3635 Y22.6425 
G01 X-80.3407 Y22.6653 
G01 X-80.3359 Y22.6736 
G01 X-80.3295 Y22.6808 
G01 X-80.3151 Y22.7097 
G01 X-80.2990 Y22.7376 
G01 X-80.2965 Y22.7469 
G01 X-80.2922 Y22.7555 
G01 X-80.2857 Y22.7871 
G01 X-80.2774 Y22.8182 
G01 X-80.2774 Y22.8279 
G01 X-80.2754 Y22.8373 
G01 X-80.2774 Y22.8695 
G01 X-80.2774 Y22.9017 
G01 X-80.2799 Y22.9111 
G01 X-80.2804 Y22.9207 
G01 X-80.2906 Y22.9512 
G01 X-80.2990 Y22.9824 
G01 X-80.3038 Y22.9907 
G01 X-80.3068 Y22.9999 
G01 X-80.3246 Y23.0268 
G01 X-80.3407 Y23.0547 
G01 X-80.3475 Y23.0615 
G01 X-80.3529 Y23.0696 
G01 X-80.3770 Y23.0909 
G01 X-80.3998 Y23.1137 
G01 X-80.4081 Y23.1186 
G01 X-80.4153 Y23.1249 
G01 X-80.4442 Y23.1394 
G01 X-80.4721 Y23.1555 
G01 X-80.4814 Y23.1580 
G01 X-80.4900 Y23.1623 
G01 X-80.5216 Y23.1688 
G01 X-80.5527 Y23.1771 
G01 X-80.5624 Y23.1771 
G01 X-80.5718 Y23.1790 
G01 X-80.6040 Y23.1771 
G01 X-80.9615 Y23.1771 
G01 X-81.3118 Y23.3222 
G01 X-81.5798 Y23.5902 
G01 X-81.7249 Y23.9405 
G01 X-81.7249 Y24.3195 
G01 X-81.5798 Y24.6698 
G01 X-81.3118 Y24.9378 
G01 X-80.9615 Y25.0829 
G01 X-80.6266 Y25.0829 
G01 X-80.6171 Y25.0810 
G01 X-80.5850 Y25.0829 
G01 X-80.5527 Y25.0829 
G01 X-80.5434 Y25.0854 
G01 X-80.5338 Y25.0860 
G01 X-80.5032 Y25.0962 
G01 X-80.4721 Y25.1045 
G01 X-80.4637 Y25.1093 
G01 X-80.4546 Y25.1124 
G01 X-80.4277 Y25.1301 
G01 X-80.3998 Y25.1463 
G01 X-80.3930 Y25.1531 
G01 X-80.3849 Y25.1584 
G01 X-80.3635 Y25.1825 
G01 X-80.3407 Y25.2053 
G01 X-80.3359 Y25.2136 
G01 X-80.3295 Y25.2208 
G01 X-80.3151 Y25.2497 
G01 X-80.2990 Y25.2776 
G01 X-80.2965 Y25.2869 
G01 X-80.2922 Y25.2955 
G01 X-80.2857 Y25.3271 
G01 X-80.2774 Y25.3582 
G01 X-80.2774 Y25.3679 
G01 X-80.2754 Y25.3773 
G01 X-80.2774 Y25.4095 
G01 X-80.2774 Y25.4417 
G01 X-80.2799 Y25.4511 
G01 X-80.2804 Y25.4607 
G01 X-80.2906 Y25.4912 
G01 X-80.2990 Y25.5224 
G01 X-80.3038 Y25.5307 
G01 X-80.3068 Y25.5399 
G01 X-80.3246 Y25.5668 
G01 X-80.3407 Y25.5947 
G01 X-80.3475 Y25.6015 
G01 X-80.3529 Y25.6096 
G01 X-80.3770 Y25.6309 
G01 X-80.3998 Y25.6537 
G01 X-80.4081 Y25.6586 
G01 X-80.4153 Y25.6649 
G01 X-80.4442 Y25.6794 
G01 X-80.4721 Y25.6955 
G01 X-80.4814 Y25.6980 
G01 X-80.4900 Y25.7023 
G01 X-80.5216 Y25.7088 
G01 X-80.5527 Y25.7171 
G01 X-80.5624 Y25.7171 
G01 X-80.5718 Y25.7190 
G01 X-80.6040 Y25.7171 
G01 X-80.9615 Y25.7171 
G01 X-81.3118 Y25.8622 
G01 X-81.5798 Y26.1302 
G01 X-81.7249 Y26.4805 
G01 X-81.7249 Y26.8595 
G01 X-81.5798 Y27.2098 
G01 X-81.3118 Y27.4778 
G01 X-80.9615 Y27.6229 
G01 X-80.6153 Y27.6229 
G01 X-80.5945 Y27.6202 
G01 X-80.5737 Y27.6229 
G01 X-80.5527 Y27.6229 
G01 X-80.5325 Y27.6283 
G01 X-80.5117 Y27.6311 
G01 X-80.4923 Y27.6391 
G01 X-80.4721 Y27.6445 
G01 X-80.4539 Y27.6550 
G01 X-80.2248 Y27.7499 
G01 X-77.9412 Y27.7499 
G01 X-77.8606 Y27.7715 
G01 X-77.7883 Y27.8133 
G01 X-77.7292 Y27.8723 
G01 X-77.6884 Y27.9430 
G01 X-77.6866 Y27.9480 
G01 X-77.6659 Y28.0252 
G01 X-77.6659 Y28.1087 
G01 X-77.6875 Y28.1894 
G01 X-77.7292 Y28.2617 
G01 X-77.7323 Y28.2648 
G01 X-77.7883 Y28.3207 
G01 X-78.0514 Y28.5839 
G01 X-78.2197 Y28.9901 
G01 X-78.2197 Y29.4299 
G01 X-78.0514 Y29.8361 
G01 X-77.7405 Y30.1470 
G01 X-77.6053 Y30.2030 
G01 X-77.5391 Y30.2538 
G01 X-77.5228 Y30.2751 
G01 X-77.4883 Y30.3201 
G01 X-77.4824 Y30.3342 
G01 X-77.4563 Y30.3972 
G01 X-77.4454 Y30.4800 
G01 X-77.4481 Y30.5001 
G01 X-77.4563 Y30.5628 
G01 X-77.4883 Y30.6399 
G01 X-77.5391 Y30.7062 
G01 X-77.5604 Y30.7225 
G01 X-77.6053 Y30.7570 
G01 X-77.6254 Y30.7653 
G01 X-77.6825 Y30.7889 
G01 X-77.7405 Y30.8130 
G01 X-78.0514 Y31.1239 
G01 X-78.2197 Y31.5301 
G01 X-78.2197 Y31.9699 
G01 X-78.0514 Y32.3761 
G01 X-77.7405 Y32.6870 
G01 X-77.3343 Y32.8553 
G01 X-75.0657 Y32.8553 
G01 X-74.6595 Y32.6870 
G01 X-74.3486 Y32.3761 
G01 X-74.1803 Y31.9699 
G01 X-74.1803 Y31.5301 
G01 X-74.3486 Y31.1239 
G01 X-74.6595 Y30.8130 
G01 X-74.7175 Y30.7889 
G01 X-74.7772 Y30.7642 
G01 X-74.7947 Y30.7570 
G01 X-74.8420 Y30.7206 
G01 X-74.8609 Y30.7062 
G01 X-74.9117 Y30.6399 
G01 X-74.9437 Y30.5628 
G01 X-74.9522 Y30.4984 
G01 X-74.9546 Y30.4800 
G01 X-74.9437 Y30.3972 
G01 X-74.9168 Y30.3324 
G01 X-74.9117 Y30.3201 
G01 X-74.8754 Y30.2727 
G01 X-74.8609 Y30.2538 
G01 X-74.7947 Y30.2030 
G01 X-74.6595 Y30.1470 
G01 X-74.3486 Y29.8361 
G01 X-74.1803 Y29.4299 
G01 X-74.1803 Y28.9901 
G01 X-74.3486 Y28.5839 
G01 X-74.6595 Y28.2730 
G01 X-74.7175 Y28.2489 
G01 X-74.7772 Y28.2242 
G01 X-74.7947 Y28.2170 
G01 X-74.8420 Y28.1806 
G01 X-74.8609 Y28.1662 
G01 X-74.9117 Y28.0999 
G01 X-74.9437 Y28.0228 
G01 X-74.9522 Y27.9584 
G01 X-74.9546 Y27.9400 
G01 X-74.9437 Y27.8572 
G01 X-74.9168 Y27.7924 
G01 X-74.9117 Y27.7801 
G01 X-74.8754 Y27.7327 
G01 X-74.8609 Y27.7138 
G01 X-74.7947 Y27.6630 
G01 X-74.6595 Y27.6070 
G01 X-74.3486 Y27.2961 
G01 X-74.1803 Y26.8899 
G00 Z2.0000  F3000
G00 X-74.2573 Y26.7713  F3000
G01 Z-0.2000 F200.00 
G01 X-74.2968 Y26.9699 F500.00 
G01 X-74.3743 Y27.1571 
G01 X-74.4869 Y27.3255 
G01 X-74.6301 Y27.4687 
G01 X-74.7985 Y27.5813 
G01 X-74.9857 Y27.6588 
G01 X-75.1843 Y27.6983 
G01 X-77.2157 Y27.6983 
G01 X-77.3434 Y27.6729 
G01 X-80.1088 Y27.6729 
G01 X-80.3025 Y27.6344 
G01 X-80.4851 Y27.5588 
G01 X-80.5043 Y27.5459 
G01 X-80.8583 Y27.5459 
G01 X-81.0275 Y27.5122 
G01 X-81.1869 Y27.4462 
G01 X-81.3304 Y27.3504 
G01 X-81.4524 Y27.2284 
G01 X-81.5482 Y27.0849 
G01 X-81.6142 Y26.9255 
G01 X-81.6479 Y26.7563 
G01 X-81.6479 Y26.5837 
G01 X-81.6142 Y26.4145 
G01 X-81.5482 Y26.2551 
G01 X-81.4524 Y26.1116 
G01 X-81.3304 Y25.9896 
G01 X-81.1869 Y25.8938 
G01 X-81.0275 Y25.8278 
G01 X-80.8583 Y25.7941 
G01 X-80.5043 Y25.7941 
G01 X-80.4851 Y25.7812 
G01 X-80.3025 Y25.7056 
G01 X-80.1088 Y25.6671 
G01 X-77.3434 Y25.6671 
G01 X-77.2157 Y25.6417 
G01 X-75.1843 Y25.6417 
G01 X-74.9857 Y25.6812 
G01 X-74.7985 Y25.7587 
G01 X-74.6301 Y25.8713 
G01 X-74.4869 Y26.0145 
G01 X-74.3743 Y26.1829 
G01 X-74.2968 Y26.3701 
G01 X-74.2573 Y26.5687 
G01 X-74.2573 Y26.7713 
G00 Z2.0000  F3000
G00 X-74.4869 Y28.5545  F3000
G01 Z-0.2000 F200.00 
G01 X-74.3743 Y28.7229 F500.00 
G01 X-74.2968 Y28.9101 
G01 X-74.2573 Y29.1087 
G01 X-74.2573 Y29.3113 
G01 X-74.2968 Y29.5099 
G01 X-74.3743 Y29.6971 
G01 X-74.4869 Y29.8655 
G01 X-74.6301 Y30.0087 
G01 X-74.7985 Y30.1213 
G01 X-74.9857 Y30.1988 
G01 X-75.1843 Y30.2383 
G01 X-77.2157 Y30.2383 
G01 X-77.4143 Y30.1988 
G01 X-77.6015 Y30.1213 
G01 X-77.7699 Y30.0087 
G01 X-77.9131 Y29.8655 
G01 X-78.0257 Y29.6971 
G01 X-78.1032 Y29.5099 
G01 X-78.1427 Y29.3113 
G01 X-78.1427 Y29.1087 
G01 X-78.1032 Y28.9101 
G01 X-78.0257 Y28.7229 
G01 X-77.9131 Y28.5545 
G01 X-77.7699 Y28.4113 
G01 X-77.6015 Y28.2987 
G01 X-77.4143 Y28.2212 
G01 X-77.2157 Y28.1817 
G01 X-75.1843 Y28.1817 
G01 X-74.9857 Y28.2212 
G01 X-74.7985 Y28.2987 
G01 X-74.6301 Y28.4113 
G01 X-74.4869 Y28.5545 
G00 Z2.0000  F3000
G00 X-74.4869 Y31.0945  F3000
G01 Z-0.2000 F200.00 
G01 X-74.3743 Y31.2629 F500.00 
G01 X-74.2968 Y31.4501 
G01 X-74.2573 Y31.6487 
G01 X-74.2573 Y31.8513 
G01 X-74.2968 Y32.0499 
G01 X-74.3743 Y32.2371 
G01 X-74.4869 Y32.4055 
G01 X-74.6301 Y32.5487 
G01 X-74.7985 Y32.6613 
G01 X-74.9857 Y32.7388 
G01 X-75.1843 Y32.7783 
G01 X-77.2157 Y32.7783 
G01 X-77.4143 Y32.7388 
G01 X-77.6015 Y32.6613 
G01 X-77.7699 Y32.5487 
G01 X-77.9131 Y32.4055 
G01 X-78.0257 Y32.2371 
G01 X-78.1032 Y32.0499 
G01 X-78.1427 Y31.8513 
G01 X-78.1427 Y31.6487 
G01 X-78.1032 Y31.4501 
G01 X-78.0257 Y31.2629 
G01 X-77.9131 Y31.0945 
G01 X-77.7699 Y30.9513 
G01 X-77.6015 Y30.8387 
G01 X-77.4143 Y30.7612 
G01 X-77.2157 Y30.7217 
G01 X-75.1843 Y30.7217 
G01 X-74.9857 Y30.7612 
G01 X-74.7985 Y30.8387 
G01 X-74.6301 Y30.9513 
G01 X-74.4869 Y31.0945 
G00 Z2.0000  F3000
G00 X-74.6301 Y24.9287  F3000
G01 Z-0.2000 F200.00 
G01 X-74.7985 Y25.0413 F500.00 
G01 X-74.9857 Y25.1188 
G01 X-75.1843 Y25.1583 
G01 X-77.2157 Y25.1583 
G01 X-77.3434 Y25.1329 
G01 X-80.1088 Y25.1329 
G01 X-80.3025 Y25.0944 
G01 X-80.4851 Y25.0188 
G01 X-80.5043 Y25.0059 
G01 X-80.8583 Y25.0059 
G01 X-81.0275 Y24.9722 
G01 X-81.1869 Y24.9062 
G01 X-81.3304 Y24.8104 
G01 X-81.4524 Y24.6884 
G01 X-81.5482 Y24.5449 
G01 X-81.6142 Y24.3855 
G01 X-81.6479 Y24.2163 
G01 X-81.6479 Y24.0437 
G01 X-81.6142 Y23.8745 
G01 X-81.5482 Y23.7151 
G01 X-81.4524 Y23.5716 
G01 X-81.3304 Y23.4496 
G01 X-81.1869 Y23.3538 
G01 X-81.0275 Y23.2878 
G01 X-80.8583 Y23.2541 
G01 X-80.5043 Y23.2541 
G01 X-80.4851 Y23.2412 
G01 X-80.3025 Y23.1656 
G01 X-80.1088 Y23.1271 
G01 X-77.3434 Y23.1271 
G01 X-77.2157 Y23.1017 
G01 X-75.1843 Y23.1017 
G01 X-74.9857 Y23.1412 
G01 X-74.7985 Y23.2187 
G01 X-74.6301 Y23.3313 
G01 X-74.4869 Y23.4745 
G01 X-74.3743 Y23.6429 
G01 X-74.2968 Y23.8301 
G01 X-74.2573 Y24.0287 
G01 X-74.2573 Y24.2313 
G01 X-74.2968 Y24.4299 
G01 X-74.3743 Y24.6171 
G01 X-74.4869 Y24.7855 
G01 X-74.6301 Y24.9287 
G00 Z2.0000  F3000
G00 X-74.6301 Y22.3887  F3000
G01 Z-0.2000 F200.00 
G01 X-74.7985 Y22.5013 F500.00 
G01 X-74.9857 Y22.5788 
G01 X-75.1843 Y22.6183 
G01 X-77.2157 Y22.6183 
G01 X-77.3434 Y22.5929 
G01 X-80.1088 Y22.5929 
G01 X-80.3025 Y22.5544 
G01 X-80.4851 Y22.4788 
G01 X-80.5043 Y22.4659 
G01 X-80.8583 Y22.4659 
G01 X-81.0275 Y22.4322 
G01 X-81.1869 Y22.3662 
G01 X-81.3304 Y22.2704 
G01 X-81.4524 Y22.1484 
G01 X-81.5482 Y22.0049 
G01 X-81.6142 Y21.8455 
G01 X-81.6479 Y21.6763 
G01 X-81.6479 Y21.5037 
G01 X-81.6142 Y21.3345 
G01 X-81.5482 Y21.1751 
G01 X-81.4524 Y21.0316 
G01 X-81.3304 Y20.9096 
G01 X-81.1869 Y20.8138 
G01 X-81.0275 Y20.7478 
G01 X-80.8583 Y20.7141 
G01 X-80.5043 Y20.7141 
G01 X-80.4851 Y20.7012 
G01 X-80.3025 Y20.6256 
G01 X-80.1088 Y20.5871 
G01 X-77.3434 Y20.5871 
G01 X-77.2157 Y20.5617 
G01 X-75.1843 Y20.5617 
G01 X-74.9857 Y20.6012 
G01 X-74.7985 Y20.6787 
G01 X-74.6301 Y20.7913 
G01 X-74.4869 Y20.9345 
G01 X-74.3743 Y21.1029 
G01 X-74.2968 Y21.2901 
G01 X-74.2573 Y21.4887 
G01 X-74.2573 Y21.6913 
G01 X-74.2968 Y21.8899 
G01 X-74.3743 Y22.0771 
G01 X-74.4869 Y22.2455 
G01 X-74.6301 Y22.3887 
G00 Z2.0000  F3000
G00 X-74.6301 Y19.8487  F3000
G01 Z-0.2000 F200.00 
G01 X-74.7985 Y19.9613 F500.00 
G01 X-74.9857 Y20.0388 
G01 X-75.1843 Y20.0783 
G01 X-77.2157 Y20.0783 
G01 X-77.3434 Y20.0529 
G01 X-80.1088 Y20.0529 
G01 X-80.3025 Y20.0144 
G01 X-80.4851 Y19.9388 
G01 X-80.5043 Y19.9259 
G01 X-80.8583 Y19.9259 
G01 X-81.0275 Y19.8922 
G01 X-81.1869 Y19.8262 
G01 X-81.3304 Y19.7304 
G01 X-81.4524 Y19.6084 
G01 X-81.5482 Y19.4649 
G01 X-81.6142 Y19.3055 
G01 X-81.6479 Y19.1363 
G01 X-81.6479 Y18.9637 
G01 X-81.6142 Y18.7945 
G01 X-81.5482 Y18.6351 
G01 X-81.4524 Y18.4916 
G01 X-81.3304 Y18.3696 
G01 X-81.1869 Y18.2738 
G01 X-81.0275 Y18.2078 
G01 X-80.8583 Y18.1741 
G01 X-80.5043 Y18.1741 
G01 X-80.4851 Y18.1612 
G01 X-80.3025 Y18.0856 
G01 X-80.1088 Y18.0471 
G01 X-77.3434 Y18.0471 
G01 X-77.2157 Y18.0217 
G01 X-75.1843 Y18.0217 
G01 X-74.9857 Y18.0612 
G01 X-74.7985 Y18.1387 
G01 X-74.6301 Y18.2513 
G01 X-74.4869 Y18.3945 
G01 X-74.3743 Y18.5629 
G01 X-74.2968 Y18.7501 
G01 X-74.2573 Y18.9487 
G01 X-74.2573 Y19.1513 
G01 X-74.2968 Y19.3499 
G01 X-74.3743 Y19.5371 
G01 X-74.4869 Y19.7055 
G01 X-74.6301 Y19.8487 
G00 Z2.0000  F3000
G00 X-80.4537 Y17.4118  F3000
G01 Z-0.2000 F200.00 
G01 X-80.4851 Y17.3988 F500.00 
G01 X-80.5043 Y17.3859 
G01 X-80.8583 Y17.3859 
G01 X-81.0275 Y17.3522 
G01 X-81.1869 Y17.2862 
G01 X-81.3304 Y17.1904 
G01 X-81.4524 Y17.0684 
G01 X-81.5482 Y16.9249 
G01 X-81.5677 Y16.8779 
G01 X-81.5970 Y16.8779 
G01 X-81.5435 Y16.9828 
G01 X-81.4601 Y17.0977 
G01 X-81.3597 Y17.1981 
G01 X-81.2448 Y17.2815 
G01 X-81.1183 Y17.3460 
G01 X-80.9833 Y17.3899 
G01 X-80.8430 Y17.4121 
G01 X-80.4926 Y17.4121 
G01 X-80.4718 Y17.4094 
G01 X-80.4537 Y17.4118 
G00 Z2.0000  F3000
G00 X-80.4528 Y15.6079  F3000
G01 Z-0.2000 F200.00 
G01 X-80.8430 Y15.6079 F500.00 
G01 X-80.9833 Y15.6301 
G01 X-81.1183 Y15.6740 
G01 X-81.2448 Y15.7385 
G01 X-81.3597 Y15.8219 
G01 X-81.4601 Y15.9223 
G01 X-81.5435 Y16.0372 
G01 X-81.5970 Y16.1421 
G01 X-81.5677 Y16.1421 
G01 X-81.5482 Y16.0951 
G01 X-81.4524 Y15.9516 
G01 X-81.3304 Y15.8296 
G01 X-81.1869 Y15.7338 
G01 X-81.0275 Y15.6678 
G01 X-80.8583 Y15.6341 
G01 X-80.5043 Y15.6341 
G01 X-80.4851 Y15.6212 
G01 X-80.4528 Y15.6079 
G00 Z2.0000  F3000
G00 X-87.2984 Y16.3445  F3000
G01 Z-0.2000 F200.00 
G01 X-87.3129 Y16.3445 F500.00 
G01 X-87.3129 Y16.3707 
G01 X-87.3093 Y16.3707 
G01 X-86.8557 Y16.8243 
G01 X-86.8557 Y16.8279 
G01 X-86.8295 Y16.8279 
G01 X-86.8295 Y16.8134 
G01 X-87.2984 Y16.3445 
G00 Z2.0000  F3000
G00 X-87.9471 Y16.3445  F3000
G01 Z-0.2000 F200.00 
G01 X-87.9616 Y16.3445 F500.00 
G01 X-88.4305 Y16.8134 
G01 X-88.4305 Y16.8279 
G01 X-88.4043 Y16.8279 
G01 X-88.4043 Y16.8243 
G01 X-87.9507 Y16.3707 
G01 X-87.9471 Y16.3707 
G01 X-87.9471 Y16.3445 
G00 Z2.0000  F3000
G00 X-88.4043 Y17.4621  F3000
G01 Z-0.2000 F200.00 
G01 X-88.4305 Y17.4621 F500.00 
G01 X-88.4305 Y17.4766 
G01 X-87.9616 Y17.9455 
G01 X-87.9471 Y17.9455 
G01 X-87.9471 Y17.9193 
G01 X-87.9507 Y17.9193 
G01 X-88.4043 Y17.4657 
G01 X-88.4043 Y17.4621 
G00 Z2.0000  F3000
G00 X-86.8557 Y17.4621  F3000
G01 Z-0.2000 F200.00 
G01 X-86.8557 Y17.4657 F500.00 
G01 X-87.3093 Y17.9193 
G01 X-87.3129 Y17.9193 
G01 X-87.3129 Y17.9455 
G01 X-87.2984 Y17.9455 
G01 X-86.8295 Y17.4766 
G01 X-86.8295 Y17.4621 
G01 X-86.8557 Y17.4621 
G00 Z2.0000  F3000
G00 X-87.4645 Y8.5866  F3000
G01 Z-0.2000 F200.00 
G01 X-87.4645 Y8.5721 F500.00 
G01 X-87.4907 Y8.5721 
G01 X-87.4907 Y8.5757 
G01 X-87.9443 Y9.0293 
G01 X-87.9479 Y9.0293 
G01 X-87.9479 Y9.0555 
G01 X-87.9334 Y9.0555 
G01 X-87.4645 Y8.5866 
G00 Z2.0000  F3000
G00 X-87.4645 Y7.9379  F3000
G01 Z-0.2000 F200.00 
G01 X-87.4645 Y7.9234 F500.00 
G01 X-87.9334 Y7.4545 
G01 X-87.9479 Y7.4545 
G01 X-87.9479 Y7.4807 
G01 X-87.9443 Y7.4807 
G01 X-87.4907 Y7.9343 
G01 X-87.4907 Y7.9379 
G01 X-87.4645 Y7.9379 
G00 Z2.0000  F3000
G00 X-88.5821 Y7.4807  F3000
G01 Z-0.2000 F200.00 
G01 X-88.5821 Y7.4545 F500.00 
G01 X-88.5966 Y7.4545 
G01 X-89.0655 Y7.9234 
G01 X-89.0655 Y7.9379 
G01 X-89.0393 Y7.9379 
G01 X-89.0393 Y7.9343 
G01 X-88.5857 Y7.4807 
G01 X-88.5821 Y7.4807 
G00 Z2.0000  F3000
G00 X-88.5821 Y9.0293  F3000
G01 Z-0.2000 F200.00 
G01 X-88.5857 Y9.0293 F500.00 
G01 X-89.0393 Y8.5757 
G01 X-89.0393 Y8.5721 
G01 X-89.0655 Y8.5721 
G01 X-89.0655 Y8.5866 
G01 X-88.5966 Y9.0555 
G01 X-88.5821 Y9.0555 
G01 X-88.5821 Y9.0293 
G00 Z2.0000  F3000
G00 X-88.8203 Y27.2519  F3000
G01 Z-0.2000 F200.00 
G01 X-88.9352 Y27.1684 F500.00 
G01 X-89.0617 Y27.1040 
G01 X-89.1967 Y27.0601 
G01 X-89.3370 Y27.0379 
G01 X-89.8021 Y27.0379 
G01 X-89.8021 Y27.0641 
G01 X-89.3217 Y27.0641 
G01 X-89.1525 Y27.0978 
G01 X-88.9931 Y27.1638 
G01 X-88.8496 Y27.2596 
G01 X-88.7276 Y27.3816 
G01 X-88.6318 Y27.5251 
G01 X-88.6123 Y27.5721 
G01 X-88.5830 Y27.5721 
G01 X-88.6364 Y27.4672 
G01 X-88.7199 Y27.3523 
G01 X-88.8203 Y27.2519 
G00 Z2.0000  F3000
G00 X-90.5379 Y27.0641  F3000
G01 Z-0.2000 F200.00 
G01 X-90.5379 Y27.0379 F500.00 
G01 X-91.0030 Y27.0379 
G01 X-91.1433 Y27.0601 
G01 X-91.2783 Y27.1040 
G01 X-91.4048 Y27.1684 
G01 X-91.5197 Y27.2519 
G01 X-91.6201 Y27.3523 
G01 X-91.7035 Y27.4672 
G01 X-91.7570 Y27.5721 
G01 X-91.7277 Y27.5721 
G01 X-91.7082 Y27.5251 
G01 X-91.6124 Y27.3816 
G01 X-91.4904 Y27.2596 
G01 X-91.3469 Y27.1638 
G01 X-91.1875 Y27.0978 
G01 X-91.0183 Y27.0641 
G01 X-90.5379 Y27.0641 
G00 Z2.0000  F3000
G00 X-4.7436 Y3.7181  F3000
G01 Z-0.2000 F200.00 
G01 X-4.5761 Y3.9364 F500.00 
G01 X-4.4385 Y4.1747 
G01 X-4.3332 Y4.4289 
G01 X-4.2620 Y4.6946 
G01 X-4.2261 Y4.9674 
G01 X-4.2261 Y9.0065 
G01 X-4.2620 Y9.2793 
G01 X-4.3332 Y9.5450 
G01 X-4.4385 Y9.7992 
G01 X-4.5761 Y10.0375 
G01 X-4.7436 Y10.2558 
G01 X-4.9381 Y10.4503 
G01 X-5.1564 Y10.6178 
G01 X-5.3947 Y10.7554 
G01 X-5.6489 Y10.8607 
G01 X-5.9146 Y10.9319 
G01 X-6.1874 Y10.9678 
G01 X-6.4626 Y10.9678 
G01 X-6.7354 Y10.9319 
G01 X-7.0011 Y10.8607 
G01 X-7.2553 Y10.7554 
G01 X-7.4936 Y10.6178 
G01 X-7.7119 Y10.4503 
G01 X-7.9064 Y10.2558 
G01 X-8.0739 Y10.0375 
G01 X-8.2115 Y9.7992 
G01 X-8.3168 Y9.5450 
G01 X-8.3880 Y9.2793 
G01 X-8.4239 Y9.0065 
G01 X-8.4239 Y5.9744 
G01 X-8.4894 Y5.9089 
G01 X-20.7611 Y5.9089 
G01 X-20.7611 Y8.9476 
G01 X-20.7970 Y9.2204 
G01 X-20.8682 Y9.4861 
G01 X-20.9735 Y9.7403 
G01 X-21.1111 Y9.9786 
G01 X-21.2786 Y10.1969 
G01 X-21.5531 Y10.4714 
G01 X-21.7714 Y10.6389 
G01 X-22.0097 Y10.7765 
G01 X-22.2639 Y10.8818 
G01 X-22.5296 Y10.9530 
G01 X-22.8024 Y10.9889 
G01 X-23.0776 Y10.9889 
G01 X-23.3504 Y10.9530 
G01 X-23.6161 Y10.8818 
G01 X-23.8703 Y10.7765 
G01 X-24.1086 Y10.6389 
G01 X-24.3269 Y10.4714 
G01 X-24.5214 Y10.2769 
G01 X-24.6889 Y10.0586 
G01 X-24.8265 Y9.8203 
G01 X-24.9318 Y9.5661 
G01 X-25.0030 Y9.3004 
G01 X-25.0389 Y9.0276 
G01 X-25.0389 Y8.7524 
G01 X-25.0030 Y8.4796 
G01 X-24.9589 Y8.3151 
G01 X-24.9589 Y3.6724 
G01 X-24.9230 Y3.3996 
G01 X-24.8518 Y3.1339 
G01 X-24.7465 Y2.8797 
G01 X-24.6089 Y2.6414 
G01 X-24.4414 Y2.4231 
G01 X-24.2469 Y2.2286 
G01 X-24.0286 Y2.0611 
G01 X-23.7903 Y1.9235 
G01 X-23.5361 Y1.8182 
G01 X-23.2704 Y1.7470 
G01 X-22.9976 Y1.7111 
G01 X-7.4824 Y1.7111 
G01 X-7.2096 Y1.7470 
G01 X-6.9439 Y1.8182 
G01 X-6.6897 Y1.9235 
G01 X-6.4514 Y2.0611 
G01 X-6.2331 Y2.2286 
G01 X-6.0386 Y2.4231 
G01 X-4.7436 Y3.7181 
G00 Z2.0000  F3000
G00 X-5.3713 Y12.8323  F3000
G01 Z-0.2000 F200.00 
G01 X-1.4234 Y16.7802 F500.00 
G01 X-1.2880 Y16.9666 
G01 X-1.1833 Y17.1720 
G01 X-1.1121 Y17.3911 
G01 X-1.0761 Y17.6187 
G01 X-1.0761 Y30.5952 
G01 X-1.1121 Y30.8228 
G01 X-1.1833 Y31.0419 
G01 X-1.2880 Y31.2473 
G01 X-1.4234 Y31.4337 
G01 X-1.5863 Y31.5966 
G01 X-1.7727 Y31.7320 
G01 X-1.9781 Y31.8366 
G01 X-2.1972 Y31.9078 
G01 X-2.4248 Y31.9439 
G01 X-2.6552 Y31.9439 
G01 X-2.7884 Y31.9228 
G01 X-6.4402 Y31.9228 
G01 X-6.6678 Y31.8867 
G01 X-6.8869 Y31.8155 
G01 X-7.0922 Y31.7109 
G01 X-7.2787 Y31.5755 
G01 X-7.4416 Y31.4126 
G01 X-7.5770 Y31.2262 
G01 X-7.6816 Y31.0208 
G01 X-7.7528 Y30.8017 
G01 X-7.7889 Y30.5741 
G01 X-7.7889 Y30.3437 
G01 X-7.7528 Y30.1161 
G01 X-7.6816 Y29.8970 
G01 X-7.5770 Y29.6916 
G01 X-7.4416 Y29.5052 
G01 X-7.2787 Y29.3423 
G01 X-7.0922 Y29.2069 
G01 X-6.8869 Y29.1023 
G01 X-6.6678 Y29.0310 
G01 X-6.4402 Y28.9950 
G01 X-4.0039 Y28.9950 
G01 X-4.0039 Y18.3403 
G01 X-7.3124 Y15.0318 
G01 X-7.7263 Y15.0318 
G01 X-7.8947 Y15.0051 
G01 X-8.0568 Y14.9525 
G01 X-8.2087 Y14.8751 
G01 X-8.3466 Y14.7749 
G01 X-13.5260 Y9.5955 
G01 X-13.6262 Y9.4576 
G01 X-13.7036 Y9.3057 
G01 X-13.7562 Y9.1436 
G01 X-13.7829 Y8.9752 
G01 X-13.7829 Y8.8048 
G01 X-13.7562 Y8.6364 
G01 X-13.7036 Y8.4743 
G01 X-13.6262 Y8.3224 
G01 X-13.5260 Y8.1845 
G01 X-13.4055 Y8.0640 
G01 X-13.2676 Y7.9638 
G01 X-13.1157 Y7.8864 
G01 X-12.9536 Y7.8338 
G01 X-12.7852 Y7.8071 
G01 X-12.6148 Y7.8071 
G01 X-12.4464 Y7.8338 
G01 X-12.2843 Y7.8864 
G01 X-12.1324 Y7.9638 
G01 X-11.9945 Y8.0640 
G01 X-7.2483 Y12.8102 
G01 X-7.0922 Y12.6969 
G01 X-6.8869 Y12.5922 
G01 X-6.6678 Y12.5210 
G01 X-6.4402 Y12.4850 
G01 X-6.2098 Y12.4850 
G01 X-5.9822 Y12.5210 
G01 X-5.7631 Y12.5922 
G01 X-5.5577 Y12.6969 
G01 X-5.3713 Y12.8323 
G00 Z2.0000  F3000
G00 X-6.0386 Y18.9331  F3000
G01 Z-0.2000 F200.00 
G01 X-5.8711 Y19.1514 F500.00 
G01 X-5.7335 Y19.3897 
G01 X-5.6282 Y19.6439 
G01 X-5.5570 Y19.9096 
G01 X-5.5211 Y20.1824 
G01 X-5.5211 Y23.2145 
G01 X-4.7436 Y23.9920 
G01 X-4.5761 Y24.2103 
G01 X-4.4385 Y24.4486 
G01 X-4.3332 Y24.7028 
G01 X-4.2620 Y24.9685 
G01 X-4.2261 Y25.2413 
G01 X-4.2261 Y25.5165 
G01 X-4.2620 Y25.7893 
G01 X-4.3332 Y26.0550 
G01 X-4.4385 Y26.3092 
G01 X-4.5761 Y26.5475 
G01 X-4.7436 Y26.7658 
G01 X-4.9381 Y26.9603 
G01 X-5.1564 Y27.1278 
G01 X-5.3947 Y27.2654 
G01 X-5.6489 Y27.3707 
G01 X-5.9146 Y27.4419 
G01 X-6.1874 Y27.4778 
G01 X-6.4626 Y27.4778 
G01 X-6.7354 Y27.4419 
G01 X-7.0011 Y27.3707 
G01 X-7.2553 Y27.2654 
G01 X-7.4936 Y27.1278 
G01 X-7.7119 Y26.9603 
G01 X-9.2014 Y25.4708 
G01 X-9.3689 Y25.2525 
G01 X-9.5065 Y25.0142 
G01 X-9.6118 Y24.7600 
G01 X-9.6830 Y24.4943 
G01 X-9.7189 Y24.2215 
G01 X-9.7189 Y21.1894 
G01 X-14.2814 Y16.6269 
G01 X-14.4489 Y16.4086 
G01 X-14.5865 Y16.1703 
G01 X-14.6918 Y15.9161 
G01 X-14.7630 Y15.6504 
G01 X-14.7989 Y15.3776 
G01 X-14.7989 Y15.2114 
G01 X-15.8464 Y14.1639 
G01 X-16.6252 Y14.1639 
G01 X-16.8528 Y14.1279 
G01 X-17.0719 Y14.0566 
G01 X-17.2772 Y13.9520 
G01 X-17.4637 Y13.8166 
G01 X-17.4998 Y13.7804 
G01 X-17.6526 Y13.7562 
G01 X-17.8147 Y13.7036 
G01 X-17.9666 Y13.6262 
G01 X-18.1045 Y13.5260 
G01 X-18.2250 Y13.4055 
G01 X-18.3252 Y13.2676 
G01 X-18.4026 Y13.1157 
G01 X-18.4552 Y12.9536 
G01 X-18.4819 Y12.7852 
G01 X-18.4819 Y12.6148 
G01 X-18.4552 Y12.4464 
G01 X-18.4026 Y12.2843 
G01 X-18.3252 Y12.1324 
G01 X-18.2250 Y11.9945 
G01 X-18.1045 Y11.8740 
G01 X-17.9666 Y11.7738 
G01 X-17.8147 Y11.6964 
G01 X-17.6526 Y11.6438 
G01 X-17.4998 Y11.6196 
G01 X-17.4637 Y11.5834 
G01 X-17.2772 Y11.4480 
G01 X-17.0719 Y11.3433 
G01 X-16.8528 Y11.2721 
G01 X-16.6252 Y11.2361 
G01 X-15.1248 Y11.2361 
